;FLAVOR:Marlin
;TIME:12676
;Filament used: 18.5748m
;Layer height: 0.2
;MINX:79
;MINY:58.041
;MINZ:0.2
;MAXX:223.001
;MAXY:247.758
;MAXZ:4
;Generated with Cura_SteamEngine 5.2.1
M140 S80
M105
M190 S80
M104 S230
M105
M109 S230
M82 ;absolute extrusion mode
G28 ;Home
G1 Z15.0 F1200 ;Move the platform down 15mm
;Prime the extruder
G92 E0
G1 F200 E3
G92 E0
G92 E0
G92 E0
G1 F3600 E-6
;LAYER_COUNT:20
;LAYER:0
M107
M204 S5000
M205 X10 Y10
G1 F1200 Z0.275
G0 F6000 X114.978 Y61.475 Z0.275
M204 S1000
M205 X8 Y8
;TYPE:SKIRT
G1 F1200 Z0.2
G1 F3600 E0
G1 F2400 X115.393 Y60.852 E0.03974
G1 X115.872 Y60.278 E0.07942
G1 X116.409 Y59.757 E0.11914
G1 X116.999 Y59.298 E0.15882
G1 X117.635 Y58.903 E0.19856
G1 X118.309 Y58.579 E0.23826
G1 X119.014 Y58.329 E0.27797
G1 X119.742 Y58.155 E0.3177
G1 X120.484 Y58.06 E0.35741
G1 X121.001 Y58.041 E0.38487
G1 X181 Y58.041 E3.56981
G1 X181.747 Y58.081 E3.60952
G1 X182.485 Y58.2 E3.6492
G1 X183.207 Y58.398 E3.68894
G1 X183.903 Y58.671 E3.72863
G1 X184.566 Y59.018 E3.76835
G1 X185.189 Y59.433 E3.80809
G1 X185.763 Y59.912 E3.84777
G1 X186.284 Y60.449 E3.88749
G1 X186.743 Y61.039 E3.92717
G1 X187.138 Y61.675 E3.96691
G1 X187.462 Y62.349 E4.00661
G1 X187.712 Y63.054 E4.04632
G1 X187.886 Y63.782 E4.08605
G1 X187.981 Y64.524 E4.12576
G1 X188 Y65.041 E4.15322
G1 X188.001 Y139.414 E8.10118
G1 X188.051 Y140.067 E8.13594
G1 X188.195 Y140.592 E8.16484
G1 X188.433 Y141.087 E8.19399
G1 X188.749 Y141.519 E8.22241
G1 X189.141 Y141.893 E8.25117
G1 X189.674 Y142.243 E8.28501
G1 X212.845 Y152.174 E9.62322
G1 X213.79 Y152.63 E9.67891
G1 X214.338 Y152.925 E9.71195
G1 X215.106 Y153.384 E9.75945
G1 X215.636 Y153.735 E9.79319
G1 X216.361 Y154.263 E9.8408
G1 X216.851 Y154.654 E9.87408
G1 X217.526 Y155.245 E9.9217
G1 X217.977 Y155.677 E9.95485
G1 X218.596 Y156.325 E10.00242
G1 X219.011 Y156.8 E10.0359
G1 X219.569 Y157.501 E10.08347
G1 X219.933 Y158.003 E10.11638
G1 X220.427 Y158.751 E10.16397
G1 X220.752 Y159.296 E10.19765
G1 X221.177 Y160.087 E10.24531
G1 X221.447 Y160.647 E10.27832
G1 X221.799 Y161.47 E10.32583
G1 X222.022 Y162.066 E10.35961
G1 X222.299 Y162.921 E10.40732
G1 X222.463 Y163.513 E10.43993
G1 X222.663 Y164.385 E10.48742
G1 X222.777 Y165.014 E10.52135
G1 X222.897 Y165.903 E10.56897
G1 X222.953 Y166.527 E10.60223
G1 X223 Y167.58 E10.65818
G1 X223.001 Y240.758 E14.5427
G1 X222.961 Y241.505 E14.58241
G1 X222.842 Y242.243 E14.62209
G1 X222.644 Y242.965 E14.66183
G1 X222.371 Y243.661 E14.70152
G1 X222.024 Y244.324 E14.74124
G1 X221.609 Y244.947 E14.78098
G1 X221.13 Y245.521 E14.82066
G1 X220.593 Y246.041 E14.86034
G1 X220.003 Y246.501 E14.90006
G1 X219.367 Y246.896 E14.9398
G1 X218.693 Y247.22 E14.9795
G1 X217.988 Y247.47 E15.0192
G1 X217.26 Y247.644 E15.05894
G1 X216.518 Y247.739 E15.09865
G1 X216.001 Y247.758 E15.12611
G1 X183.768 Y247.758 E16.83714
G1 X182.932 Y247.703 E16.88161
G1 X182.008 Y247.58 E16.93109
G1 X181.408 Y247.459 E16.96359
G1 X180.516 Y247.217 E17.01265
G1 X179.94 Y247.019 E17.04498
G1 X179.109 Y246.672 E17.09278
G1 X178.584 Y246.412 E17.12388
G1 X177.805 Y245.962 E17.17164
G1 X177.297 Y245.623 E17.20406
G1 X176.553 Y245.05 E17.25391
G1 X176.096 Y244.647 E17.28625
G1 X175.442 Y243.989 E17.3355
G1 X175.044 Y243.531 E17.36771
G1 X174.496 Y242.811 E17.41574
G1 X174.17 Y242.32 E17.44702
G1 X173.732 Y241.56 E17.49359
G1 X173.461 Y241.014 E17.52594
G1 X173.09 Y240.116 E17.57752
G1 X172.898 Y239.54 E17.60975
G1 X172.67 Y238.675 E17.65723
G1 X172.552 Y238.074 E17.68975
G1 X172.435 Y237.168 E17.73824
G1 X172.384 Y236.364 E17.781
G1 X172.384 Y227.76 E18.23773
G1 X129.618 Y227.758 E20.50789
G1 X129.616 Y236.372 E20.96515
G1 X129.563 Y237.197 E21.00903
G1 X129.437 Y238.144 E21.05974
G1 X129.315 Y238.744 E21.09224
G1 X129.077 Y239.618 E21.14033
G1 X128.88 Y240.193 E21.17259
G1 X128.529 Y241.035 E21.22102
G1 X128.269 Y241.559 E21.25207
G1 X127.822 Y242.331 E21.29942
G1 X127.482 Y242.841 E21.33196
G1 X126.92 Y243.574 E21.38099
G1 X126.52 Y244.03 E21.41319
G1 X125.851 Y244.696 E21.4633
G1 X125.391 Y245.096 E21.49566
G1 X124.673 Y245.644 E21.5436
G1 X124.184 Y245.969 E21.57477
G1 X123.417 Y246.411 E21.62176
G1 X122.868 Y246.683 E21.65429
G1 X121.977 Y247.051 E21.70546
G1 X121.402 Y247.243 E21.73764
G1 X120.523 Y247.474 E21.78588
G1 X119.922 Y247.591 E21.81838
G1 X119.039 Y247.705 E21.86565
G1 X118.224 Y247.758 E21.909
G1 X86 Y247.758 E23.61955
G1 X85.253 Y247.718 E23.65926
G1 X84.515 Y247.599 E23.69894
G1 X83.793 Y247.401 E23.73868
G1 X83.097 Y247.128 E23.77837
G1 X82.434 Y246.781 E23.81809
G1 X81.811 Y246.366 E23.85783
G1 X81.237 Y245.887 E23.89752
G1 X80.716 Y245.35 E23.93723
G1 X80.257 Y244.76 E23.97691
G1 X79.862 Y244.124 E24.01666
G1 X79.538 Y243.45 E24.05635
G1 X79.288 Y242.745 E24.09606
G1 X79.114 Y242.017 E24.13579
G1 X79.019 Y241.275 E24.1755
G1 X79 Y240.758 E24.20296
G1 X79.001 Y167.556 E28.08876
G1 X79.047 Y166.529 E28.14333
G1 X79.101 Y165.916 E28.176
G1 X79.22 Y165.024 E28.22377
G1 X79.338 Y164.378 E28.25863
G1 X79.539 Y163.506 E28.30613
G1 X79.7 Y162.923 E28.33823
G1 X79.976 Y162.07 E28.38582
G1 X80.2 Y161.471 E28.41977
G1 X80.553 Y160.646 E28.46741
G1 X80.823 Y160.086 E28.50041
G1 X81.247 Y159.297 E28.54795
G1 X81.57 Y158.757 E28.58136
G1 X82.064 Y158.008 E28.62898
G1 X82.429 Y157.503 E28.66206
G1 X82.986 Y156.803 E28.70955
G1 X83.402 Y156.327 E28.7431
G1 X84.022 Y155.678 E28.79075
G1 X84.473 Y155.246 E28.8239
G1 X85.148 Y154.655 E28.87152
G1 X85.637 Y154.265 E28.90473
G1 X86.363 Y153.736 E28.95241
G1 X86.894 Y153.384 E28.98623
G1 X87.662 Y152.925 E29.03372
G1 X88.21 Y152.63 E29.06676
G1 X89.155 Y152.174 E29.12246
G1 X112.326 Y142.243 E30.46066
G1 X112.859 Y141.893 E30.49451
G1 X113.251 Y141.519 E30.52327
G1 X113.647 Y140.978 E30.55886
G1 X113.882 Y140.354 E30.59425
G1 X114 Y139.715 E30.62875
G1 X114.001 Y65.041 E34.59268
G1 X114.041 Y64.294 E34.63239
G1 X114.16 Y63.555 E34.67212
G1 X114.358 Y62.834 E34.71181
G1 X114.631 Y62.138 E34.7515
G1 X114.978 Y61.475 E34.79122
M204 S5000
M205 X10 Y10
G0 F6000 X115.536 Y61.635
M204 S1000
M205 X8 Y8
G1 F2400 X115.949 Y61.048 E34.82932
G1 X116.424 Y60.51 E34.86742
G1 X116.956 Y60.029 E34.90549
G1 X117.539 Y59.611 E34.94357
G1 X118.165 Y59.259 E34.98169
G1 X118.825 Y58.98 E35.01973
G1 X119.513 Y58.775 E35.05784
G1 X120.219 Y58.649 E35.09591
G1 X121.001 Y58.601 E35.1375
G1 X181 Y58.601 E38.32243
G1 X181.716 Y58.641 E38.3605
G1 X182.424 Y58.76 E38.39861
G1 X183.114 Y58.958 E38.43672
G1 X183.777 Y59.231 E38.47478
G1 X184.406 Y59.576 E38.51286
G1 X184.993 Y59.988 E38.55093
G1 X185.53 Y60.464 E38.58902
G1 X186.011 Y60.996 E38.62709
G1 X186.43 Y61.579 E38.6652
G1 X186.782 Y62.205 E38.70333
G1 X187.061 Y62.865 E38.74136
G1 X187.266 Y63.553 E38.77947
G1 X187.392 Y64.259 E38.81754
G1 X187.44 Y65.041 E38.85913
G1 X187.441 Y139.767 E42.82582
G1 X187.571 Y140.479 E42.86424
G1 X187.674 Y140.798 E42.88204
G1 X187.948 Y141.367 E42.91556
G1 X188.315 Y141.875 E42.94883
G1 X188.55 Y142.121 E42.96689
G1 X189.043 Y142.514 E43.00035
G1 X189.736 Y142.879 E43.04193
G1 X212.614 Y152.684 E44.3632
G1 X213.546 Y153.134 E44.41814
G1 X214.051 Y153.406 E44.44859
G1 X214.819 Y153.865 E44.49608
G1 X215.306 Y154.187 E44.52707
G1 X216.031 Y154.715 E44.57468
G1 X216.482 Y155.076 E44.60535
G1 X217.157 Y155.667 E44.65297
G1 X217.572 Y156.064 E44.68346
G1 X218.191 Y156.712 E44.73103
G1 X218.573 Y157.149 E44.76184
G1 X219.131 Y157.85 E44.8094
G1 X219.466 Y158.312 E44.8397
G1 X219.96 Y159.06 E44.88728
G1 X220.259 Y159.561 E44.91825
G1 X220.684 Y160.352 E44.96592
G1 X220.932 Y160.868 E44.99631
G1 X221.284 Y161.691 E45.04382
G1 X221.489 Y162.238 E45.07483
G1 X221.766 Y163.093 E45.12254
G1 X221.917 Y163.638 E45.15256
G1 X222.117 Y164.51 E45.20005
G1 X222.222 Y165.089 E45.23129
G1 X222.342 Y165.978 E45.2789
G1 X222.394 Y166.552 E45.3095
G1 X222.44 Y167.582 E45.36423
G1 X222.441 Y240.758 E49.24864
G1 X222.401 Y241.474 E49.28671
G1 X222.282 Y242.182 E49.32482
G1 X222.084 Y242.872 E49.36293
G1 X221.811 Y243.535 E49.40099
G1 X221.466 Y244.164 E49.43907
G1 X221.054 Y244.751 E49.47714
G1 X220.578 Y245.288 E49.51523
G1 X220.046 Y245.769 E49.5533
G1 X219.463 Y246.188 E49.59141
G1 X218.838 Y246.54 E49.62949
G1 X218.177 Y246.819 E49.66758
G1 X217.489 Y247.024 E49.70568
G1 X216.783 Y247.15 E49.74375
G1 X216.001 Y247.198 E49.78534
G1 X183.79 Y247.198 E51.4952
G1 X182.969 Y247.144 E51.53888
G1 X182.119 Y247.031 E51.5844
G1 X181.519 Y246.91 E51.61689
G1 X180.698 Y246.687 E51.66205
G1 X180.122 Y246.489 E51.69438
G1 X179.358 Y246.17 E51.73833
G1 X178.833 Y245.91 E51.76943
G1 X178.116 Y245.496 E51.81338
G1 X177.608 Y245.157 E51.8458
G1 X176.924 Y244.63 E51.89163
G1 X176.467 Y244.227 E51.92398
G1 X175.865 Y243.621 E51.96932
G1 X175.467 Y243.163 E52.00153
G1 X174.963 Y242.501 E52.0457
G1 X174.637 Y242.01 E52.07698
G1 X174.233 Y241.311 E52.11984
G1 X173.962 Y240.765 E52.1522
G1 X173.621 Y239.939 E52.19963
G1 X173.429 Y239.363 E52.23186
G1 X173.22 Y238.567 E52.27555
G1 X173.102 Y237.966 E52.30806
G1 X172.994 Y237.133 E52.35265
G1 X172.944 Y236.345 E52.39456
G1 X172.944 Y227.2 E52.88001
G1 X129.058 Y227.198 E55.20962
G1 X129.056 Y236.351 E55.69549
G1 X129.004 Y237.161 E55.73857
G1 X128.888 Y238.032 E55.78522
G1 X128.766 Y238.632 E55.81772
G1 X128.547 Y239.436 E55.86195
G1 X128.35 Y240.011 E55.89422
G1 X128.027 Y240.786 E55.93879
G1 X127.767 Y241.31 E55.96984
G1 X127.356 Y242.02 E56.01338
G1 X127.016 Y242.53 E56.04592
G1 X126.499 Y243.205 E56.09106
G1 X126.099 Y243.661 E56.12325
G1 X125.484 Y244.274 E56.16935
G1 X125.024 Y244.674 E56.20171
G1 X124.363 Y245.177 E56.2458
G1 X123.874 Y245.502 E56.27697
G1 X123.168 Y245.91 E56.32025
G1 X122.619 Y246.182 E56.35278
G1 X121.8 Y246.519 E56.39979
G1 X121.225 Y246.711 E56.43197
G1 X120.416 Y246.924 E56.47637
G1 X119.815 Y247.041 E56.50888
G1 X119.002 Y247.146 E56.55239
G1 X118.203 Y247.198 E56.59489
G1 X86 Y247.198 E58.30433
G1 X85.284 Y247.158 E58.3424
G1 X84.576 Y247.039 E58.38051
G1 X83.886 Y246.841 E58.41861
G1 X83.223 Y246.568 E58.45668
G1 X82.594 Y246.223 E58.49476
G1 X82.007 Y245.811 E58.53283
G1 X81.47 Y245.335 E58.57092
G1 X80.989 Y244.803 E58.60899
G1 X80.57 Y244.22 E58.6471
G1 X80.218 Y243.594 E58.68522
G1 X79.939 Y242.934 E58.72326
G1 X79.734 Y242.246 E58.76137
G1 X79.608 Y241.54 E58.79944
G1 X79.56 Y240.758 E58.84103
G1 X79.567 Y167.425 E62.73378
G1 X79.606 Y166.554 E62.78006
G1 X79.657 Y165.99 E62.81012
G1 X79.776 Y165.098 E62.85789
G1 X79.884 Y164.503 E62.88999
G1 X80.085 Y163.631 E62.93749
G1 X80.233 Y163.095 E62.96701
G1 X80.509 Y162.242 E63.0146
G1 X80.715 Y161.692 E63.04578
G1 X81.068 Y160.867 E63.09341
G1 X81.316 Y160.352 E63.12375
G1 X81.74 Y159.563 E63.1713
G1 X82.037 Y159.065 E63.20208
G1 X82.531 Y158.316 E63.24971
G1 X82.868 Y157.852 E63.28015
G1 X83.425 Y157.152 E63.32764
G1 X83.807 Y156.713 E63.35853
G1 X84.427 Y156.064 E63.40617
G1 X84.842 Y155.668 E63.43662
G1 X85.517 Y155.077 E63.48425
G1 X85.966 Y154.717 E63.51479
G1 X86.692 Y154.188 E63.56248
G1 X87.181 Y153.865 E63.59359
G1 X87.949 Y153.406 E63.64108
G1 X88.454 Y153.134 E63.67153
G1 X89.386 Y152.684 E63.72647
G1 X112.264 Y142.879 E65.04774
G1 X112.957 Y142.514 E65.08932
G1 X113.45 Y142.121 E65.12278
G1 X113.685 Y141.875 E65.14084
G1 X114.052 Y141.367 E65.17411
G1 X114.326 Y140.798 E65.20763
G1 X114.424 Y140.494 E65.22459
G1 X114.56 Y139.76 E65.26422
G1 X114.561 Y65.041 E69.23054
G1 X114.601 Y64.325 E69.2686
G1 X114.72 Y63.617 E69.30671
G1 X114.918 Y62.927 E69.34482
G1 X115.191 Y62.264 E69.38288
G1 X115.536 Y61.635 E69.42096
M204 S5000
M205 X10 Y10
G0 F6000 X116.093 Y61.802
M204 S1000
M205 X8 Y8
G1 F2400 X116.504 Y61.253 E69.45737
G1 X116.975 Y60.755 E69.49375
G1 X117.501 Y60.316 E69.53012
G1 X118.075 Y59.941 E69.56652
G1 X118.689 Y59.635 E69.60293
G1 X119.333 Y59.402 E69.63929
G1 X120.001 Y59.247 E69.67569
G1 X121.001 Y59.161 E69.72897
G1 X181 Y59.161 E72.91391
G1 X181.684 Y59.201 E72.95028
G1 X182.359 Y59.32 E72.98666
G1 X183.016 Y59.517 E73.02307
G1 X183.645 Y59.79 E73.05947
G1 X184.239 Y60.133 E73.09588
G1 X184.788 Y60.544 E73.13228
G1 X185.286 Y61.015 E73.16867
G1 X185.725 Y61.541 E73.20504
G1 X186.1 Y62.115 E73.24144
G1 X186.406 Y62.728 E73.2778
G1 X186.639 Y63.373 E73.31421
G1 X186.794 Y64.041 E73.35061
G1 X186.88 Y65.041 E73.40389
G1 X186.881 Y139.442 E77.35333
G1 X186.948 Y140.271 E77.39748
G1 X187.148 Y140.991 E77.43715
G1 X187.296 Y141.339 E77.45722
G1 X187.674 Y141.968 E77.49618
G1 X188.16 Y142.524 E77.53538
G1 X188.731 Y142.98 E77.57417
G1 X189.485 Y143.38 E77.61947
G1 X212.255 Y153.139 E78.93451
G1 X213.303 Y153.639 E78.99615
G1 X213.764 Y153.887 E79.02394
G1 X214.532 Y154.346 E79.07143
G1 X214.977 Y154.64 E79.09975
G1 X215.702 Y155.168 E79.14736
G1 X216.113 Y155.497 E79.1753
G1 X216.788 Y156.088 E79.22293
G1 X217.167 Y156.45 E79.25075
G1 X217.786 Y157.098 E79.29832
G1 X218.134 Y157.498 E79.32646
G1 X218.692 Y158.199 E79.37402
G1 X218.999 Y158.621 E79.40172
G1 X219.493 Y159.369 E79.44931
G1 X219.766 Y159.826 E79.47757
G1 X220.191 Y160.617 E79.52523
G1 X220.417 Y161.088 E79.55296
G1 X220.769 Y161.911 E79.60048
G1 X220.957 Y162.411 E79.62883
G1 X221.234 Y163.266 E79.67654
G1 X221.371 Y163.764 E79.70396
G1 X221.571 Y164.636 E79.75145
G1 X221.667 Y165.163 E79.77989
G1 X221.787 Y166.052 E79.8275
G1 X221.834 Y166.577 E79.85549
G1 X221.88 Y167.735 E79.917
G1 X221.881 Y240.758 E83.7933
G1 X221.841 Y241.442 E83.82967
G1 X221.722 Y242.117 E83.86605
G1 X221.525 Y242.774 E83.90246
G1 X221.252 Y243.403 E83.93886
G1 X220.909 Y243.996 E83.97522
G1 X220.499 Y244.546 E84.01164
G1 X220.027 Y245.043 E84.04802
G1 X219.501 Y245.483 E84.08443
G1 X218.927 Y245.858 E84.12082
G1 X218.314 Y246.164 E84.15719
G1 X217.669 Y246.397 E84.1936
G1 X217.001 Y246.552 E84.23
G1 X216.001 Y246.638 E84.28328
G1 X183.812 Y246.638 E85.99197
G1 X183.006 Y246.585 E86.03485
G1 X182.23 Y246.482 E86.0764
G1 X181.63 Y246.361 E86.10889
G1 X180.881 Y246.158 E86.15009
G1 X180.305 Y245.96 E86.18242
G1 X179.606 Y245.668 E86.22263
G1 X179.081 Y245.408 E86.25373
G1 X178.427 Y245.03 E86.29383
G1 X177.919 Y244.691 E86.32625
G1 X177.294 Y244.21 E86.36811
G1 X176.837 Y243.807 E86.40046
G1 X176.288 Y243.254 E86.44182
G1 X175.89 Y242.796 E86.47403
G1 X175.429 Y242.191 E86.51441
G1 X175.103 Y241.7 E86.54569
G1 X174.735 Y241.062 E86.58479
G1 X174.464 Y240.516 E86.61715
G1 X174.153 Y239.761 E86.66049
G1 X173.961 Y239.185 E86.69272
G1 X173.769 Y238.459 E86.73258
G1 X173.651 Y237.858 E86.7651
G1 X173.553 Y237.097 E86.80583
G1 X173.504 Y236.325 E86.84689
G1 X173.504 Y226.64 E87.361
G1 X128.498 Y226.638 E89.75006
G1 X128.496 Y236.331 E90.2646
G1 X128.445 Y237.125 E90.30683
G1 X128.339 Y237.921 E90.34946
G1 X128.217 Y238.521 E90.38196
G1 X128.018 Y239.255 E90.42233
G1 X127.821 Y239.83 E90.45459
G1 X127.525 Y240.538 E90.49533
G1 X127.265 Y241.062 E90.52638
G1 X126.89 Y241.71 E90.56612
G1 X126.55 Y242.22 E90.59866
G1 X126.078 Y242.835 E90.63981
G1 X125.678 Y243.291 E90.67201
G1 X125.116 Y243.851 E90.71413
G1 X124.656 Y244.251 E90.74648
G1 X124.053 Y244.711 E90.78674
G1 X123.564 Y245.036 E90.81791
G1 X122.919 Y245.408 E90.85744
G1 X122.37 Y245.68 E90.88996
G1 X121.622 Y245.988 E90.9329
G1 X121.047 Y246.18 E90.96508
G1 X120.309 Y246.375 E91.0056
G1 X119.708 Y246.492 E91.0381
G1 X118.966 Y246.588 E91.07782
G1 X118.198 Y246.638 E91.11867
G1 X86 Y246.638 E92.82784
G1 X85.316 Y246.598 E92.86422
G1 X84.641 Y246.479 E92.9006
G1 X83.984 Y246.282 E92.93701
G1 X83.355 Y246.009 E92.97341
G1 X82.761 Y245.666 E93.00982
G1 X82.212 Y245.255 E93.04622
G1 X81.714 Y244.784 E93.08261
G1 X81.275 Y244.258 E93.11898
G1 X80.9 Y243.684 E93.15537
G1 X80.594 Y243.071 E93.19174
G1 X80.361 Y242.426 E93.22815
G1 X80.206 Y241.758 E93.26455
G1 X80.12 Y240.758 E93.31783
G1 X80.121 Y167.713 E97.19529
G1 X80.166 Y166.579 E97.25553
G1 X80.212 Y166.064 E97.28298
G1 X80.331 Y165.172 E97.33075
G1 X80.429 Y164.629 E97.36004
G1 X80.63 Y163.757 E97.40754
G1 X80.766 Y163.268 E97.43448
G1 X81.042 Y162.415 E97.48207
G1 X81.23 Y161.912 E97.51058
G1 X81.583 Y161.087 E97.55821
G1 X81.81 Y160.617 E97.58592
G1 X82.234 Y159.828 E97.63347
G1 X82.504 Y159.374 E97.66151
G1 X82.998 Y158.625 E97.70913
G1 X83.306 Y158.201 E97.73695
G1 X83.863 Y157.501 E97.78444
G1 X84.212 Y157.1 E97.81266
