;FLAVOR:Marlin
;TIME:14843
;Filament used: 21.2296m
;Layer height: 0.2
;MINX:78.999
;MINY:54.899
;MINZ:0.2
;MAXX:223
;MAXY:249
;MAXZ:6.075
;Generated with Cura_SteamEngine 5.2.1
M140 S80
M105
M190 S80
M104 S230
M105
M109 S230
M82 ;absolute extrusion mode
G28 ;Home
G1 Z15.0 F1200 ;Move the platform down 15mm
;Prime the extruder
G92 E0
G1 F200 E3
G92 E0
G92 E0
G92 E0
G1 F3600 E-6
;LAYER_COUNT:30
;LAYER:0
M107
M204 S5000
M205 X10 Y10
G1 F1200 Z0.275
G0 F6000 X80.87 Y77.136 Z0.275
M204 S1000
M205 X8 Y8
;TYPE:SKIRT
G1 F1200 Z0.2
G1 F3600 E0
G1 F2400 X81.407 Y76.616 E0.03968
G1 X81.997 Y76.156 E0.07939
G1 X82.633 Y75.761 E0.11914
G1 X83.307 Y75.437 E0.15883
G1 X84.012 Y75.187 E0.19854
G1 X84.74 Y75.013 E0.23827
G1 X85.482 Y74.918 E0.27798
G1 X85.999 Y74.899 E0.30544
G1 X115.899 Y74.899 E1.89263
G1 X115.899 Y66.774 E2.32393
G1 X115.957 Y65.885 E2.37122
G1 X116.076 Y64.978 E2.41978
G1 X116.205 Y64.328 E2.45496
G1 X116.433 Y63.468 E2.50219
G1 X116.642 Y62.844 E2.53712
G1 X116.99 Y61.996 E2.58578
G1 X117.28 Y61.402 E2.62087
G1 X117.728 Y60.617 E2.66885
G1 X118.093 Y60.064 E2.70402
G1 X118.641 Y59.34 E2.75222
G1 X119.071 Y58.843 E2.7871
G1 X119.714 Y58.192 E2.83568
G1 X120.237 Y57.727 E2.87283
G1 X120.993 Y57.142 E2.92357
G1 X121.544 Y56.773 E2.95877
G1 X122.334 Y56.315 E3.00724
G1 X122.924 Y56.023 E3.04219
G1 X123.739 Y55.682 E3.08909
G1 X124.363 Y55.466 E3.12414
G1 X125.278 Y55.217 E3.17447
G1 X125.967 Y55.079 E3.21178
G1 X126.867 Y54.959 E3.25997
G1 X127.72 Y54.901 E3.30536
G1 X174.226 Y54.899 E5.77404
G1 X175.115 Y54.957 E5.82134
G1 X176.022 Y55.076 E5.86989
G1 X176.672 Y55.205 E5.90507
G1 X177.532 Y55.433 E5.9523
G1 X178.156 Y55.642 E5.98723
G1 X179.004 Y55.99 E6.03589
G1 X179.598 Y56.28 E6.07098
G1 X180.383 Y56.728 E6.11896
G1 X180.936 Y57.093 E6.15413
G1 X181.66 Y57.641 E6.20233
G1 X182.157 Y58.071 E6.23722
G1 X182.808 Y58.714 E6.28579
G1 X183.273 Y59.237 E6.32294
G1 X183.857 Y59.99 E6.37352
G1 X184.225 Y60.539 E6.40861
G1 X184.684 Y61.332 E6.45724
G1 X184.977 Y61.924 E6.49231
G1 X185.318 Y62.739 E6.5392
G1 X185.534 Y63.363 E6.57426
G1 X185.783 Y64.278 E6.62459
G1 X185.921 Y64.967 E6.66189
G1 X186.041 Y65.867 E6.71009
G1 X186.099 Y66.718 E6.75537
G1 X186.101 Y74.899 E7.18964
G1 X216 Y74.899 E8.77678
G1 X216.747 Y74.939 E8.81649
G1 X217.485 Y75.058 E8.85617
G1 X218.207 Y75.256 E8.89591
G1 X218.903 Y75.529 E8.9356
G1 X219.566 Y75.876 E8.97532
G1 X220.189 Y76.291 E9.01506
G1 X220.763 Y76.77 E9.05474
G1 X221.284 Y77.307 E9.09446
G1 X221.743 Y77.897 E9.13414
G1 X222.138 Y78.533 E9.17388
G1 X222.462 Y79.207 E9.21358
G1 X222.712 Y79.912 E9.25329
G1 X222.886 Y80.64 E9.29302
G1 X222.981 Y81.382 E9.33273
G1 X223 Y81.899 E9.36019
G1 X222.999 Y140.893 E12.49178
G1 X222.948 Y141.971 E12.54907
G1 X222.889 Y142.609 E12.58308
G1 X222.759 Y143.539 E12.63293
G1 X222.633 Y144.202 E12.66875
G1 X222.415 Y145.111 E12.71837
G1 X222.237 Y145.726 E12.75236
G1 X221.937 Y146.611 E12.80196
G1 X221.698 Y147.222 E12.83679
G1 X221.316 Y148.076 E12.88645
G1 X221.019 Y148.664 E12.92142
G1 X220.558 Y149.479 E12.97112
G1 X220.206 Y150.038 E13.00619
G1 X219.671 Y150.805 E13.05583
G1 X219.281 Y151.314 E13.08987
G1 X218.677 Y152.03 E13.13959
G1 X218.212 Y152.529 E13.1758
G1 X217.542 Y153.182 E13.22546
G1 X217.072 Y153.601 E13.25889
G1 X216.345 Y154.192 E13.30862
G1 X215.812 Y154.584 E13.34374
G1 X215.035 Y155.102 E13.39331
G1 X214.475 Y155.439 E13.42801
G1 X213.501 Y155.965 E13.48677
G1 X199.543 Y162.665 E14.30864
G1 X199.004 Y163.062 E14.34418
G1 X198.815 Y163.247 E14.35822
G1 X198.465 Y163.701 E14.38865
G1 X198.329 Y163.941 E14.40329
G1 X198.13 Y164.447 E14.43215
G1 X198 Y165.127 E14.4689
G1 X197.996 Y223.191 E17.55113
G1 X197.954 Y224.58 E17.62489
G1 X197.804 Y226.215 E17.71205
G1 X197.56 Y227.823 E17.79838
G1 X197.215 Y229.429 E17.88558
G1 X196.771 Y231.001 E17.97229
G1 X193.226 Y242.342 E18.60303
G1 X192.955 Y243.106 E18.64606
G1 X192.311 Y244.398 E18.72269
G1 X191.439 Y245.619 E18.80234
G1 X190.387 Y246.686 E18.88188
G1 X189.205 Y247.557 E18.95982
G1 X188.339 Y248.032 E19.01225
G1 X187.63 Y248.338 E19.05324
G1 X186.454 Y248.724 E19.11894
G1 X185.492 Y248.906 E19.17092
G1 X184.706 Y248.979 E19.21282
G1 X184.161 Y249 E19.24177
G1 X117.829 Y248.999 E22.76288
G1 X117.062 Y248.969 E22.80363
G1 X116.159 Y248.85 E22.85198
G1 X115.391 Y248.673 E22.89382
G1 X114.216 Y248.287 E22.95947
G1 X113.333 Y247.863 E23.01146
G1 X112.665 Y247.461 E23.05285
G1 X111.614 Y246.687 E23.12214
G1 X110.561 Y245.619 E23.20175
G1 X109.688 Y244.397 E23.28147
G1 X109.044 Y243.102 E23.35825
G1 X108.771 Y242.334 E23.40151
G1 X105.167 Y230.794 E24.04327
G1 X104.79 Y229.442 E24.11778
G1 X104.439 Y227.815 E24.20613
G1 X104.196 Y226.215 E24.29204
G1 X104.046 Y224.579 E24.37925
G1 X104.003 Y223.162 E24.4545
G1 X103.999 Y165.111 E27.53603
G1 X103.874 Y164.46 E27.57122
G1 X103.671 Y163.943 E27.6007
G1 X103.531 Y163.695 E27.61582
G1 X103.199 Y163.262 E27.64478
G1 X102.772 Y162.882 E27.67513
G1 X102.144 Y162.514 E27.71376
G1 X88.5 Y155.965 E28.51714
G1 X87.525 Y155.439 E28.57595
G1 X86.965 Y155.102 E28.61065
G1 X86.188 Y154.584 E28.66022
G1 X85.66 Y154.195 E28.69503
G1 X84.933 Y153.605 E28.74473
G1 X84.454 Y153.179 E28.77876
G1 X83.784 Y152.525 E28.82846
G1 X83.323 Y152.03 E28.86437
G1 X82.719 Y151.314 E28.91409
G1 X82.329 Y150.805 E28.94813
G1 X81.794 Y150.038 E28.99777
G1 X81.442 Y149.479 E29.03284
G1 X80.981 Y148.664 E29.08254
G1 X80.684 Y148.076 E29.11751
G1 X80.302 Y147.222 E29.16717
G1 X80.063 Y146.611 E29.202
G1 X79.763 Y145.726 E29.2516
G1 X79.583 Y145.104 E29.28597
G1 X79.366 Y144.195 E29.33558
G1 X79.244 Y143.547 E29.37059
G1 X79.113 Y142.618 E29.42039
G1 X79.052 Y141.971 E29.45488
G1 X79 Y140.868 E29.5135
G1 X78.999 Y81.899 E32.64376
G1 X79.039 Y81.152 E32.68347
G1 X79.158 Y80.414 E32.72315
G1 X79.356 Y79.692 E32.76289
G1 X79.629 Y78.996 E32.80258
G1 X79.976 Y78.333 E32.8423
G1 X80.391 Y77.71 E32.88204
G1 X80.87 Y77.136 E32.92173
M204 S5000
M205 X10 Y10
G0 F6000 X81.422 Y77.369
M204 S1000
M205 X8 Y8
G1 F2400 X81.954 Y76.888 E32.9598
G1 X82.537 Y76.469 E32.99791
G1 X83.162 Y76.117 E33.03599
G1 X83.823 Y75.838 E33.07407
G1 X84.511 Y75.633 E33.11218
G1 X85.217 Y75.507 E33.15025
G1 X85.999 Y75.459 E33.19184
G1 X116.459 Y75.459 E34.80875
G1 X116.459 Y66.796 E35.26861
G1 X116.516 Y65.922 E35.3151
G1 X116.625 Y65.087 E35.3598
G1 X116.754 Y64.437 E35.39498
G1 X116.964 Y63.646 E35.43842
G1 X117.173 Y63.022 E35.47336
G1 X117.493 Y62.242 E35.51811
G1 X117.783 Y61.648 E35.5532
G1 X118.195 Y60.925 E35.59737
G1 X118.56 Y60.372 E35.63254
G1 X119.065 Y59.706 E35.67691
G1 X119.495 Y59.209 E35.7118
G1 X120.086 Y58.61 E35.75647
G1 X120.609 Y58.145 E35.79362
G1 X121.305 Y57.607 E35.84031
G1 X121.856 Y57.238 E35.87551
G1 X122.582 Y56.817 E35.92006
G1 X123.172 Y56.525 E35.95501
G1 X123.922 Y56.211 E35.99817
G1 X124.546 Y55.995 E36.03322
G1 X125.388 Y55.766 E36.07954
G1 X126.077 Y55.628 E36.11684
G1 X126.905 Y55.518 E36.16118
G1 X127.744 Y55.461 E36.20582
G1 X174.204 Y55.459 E38.67206
G1 X175.078 Y55.516 E38.71856
G1 X175.913 Y55.625 E38.76326
G1 X176.563 Y55.754 E38.79844
G1 X177.354 Y55.964 E38.84188
G1 X177.978 Y56.173 E38.87681
G1 X178.758 Y56.493 E38.92157
G1 X179.352 Y56.783 E38.95665
G1 X180.075 Y57.195 E39.00083
G1 X180.628 Y57.56 E39.036
G1 X181.294 Y58.065 E39.08037
G1 X181.791 Y58.495 E39.11525
G1 X182.39 Y59.086 E39.15992
G1 X182.855 Y59.609 E39.19707
G1 X183.391 Y60.302 E39.24358
G1 X183.759 Y60.851 E39.27866
G1 X184.182 Y61.58 E39.3234
G1 X184.475 Y62.172 E39.35846
G1 X184.789 Y62.922 E39.40163
G1 X185.005 Y63.546 E39.43668
G1 X185.234 Y64.388 E39.483
G1 X185.372 Y65.077 E39.5203
G1 X185.482 Y65.905 E39.56464
G1 X185.539 Y66.742 E39.60917
G1 X185.541 Y75.459 E40.0719
G1 X216 Y75.459 E41.68876
G1 X216.716 Y75.499 E41.72682
G1 X217.424 Y75.618 E41.76493
G1 X218.114 Y75.816 E41.80304
G1 X218.777 Y76.089 E41.8411
G1 X219.406 Y76.434 E41.87918
G1 X219.993 Y76.846 E41.91725
G1 X220.53 Y77.322 E41.95534
G1 X221.011 Y77.854 E41.99342
G1 X221.43 Y78.437 E42.03153
G1 X221.782 Y79.063 E42.06965
G1 X222.061 Y79.723 E42.10769
G1 X222.266 Y80.411 E42.14579
G1 X222.392 Y81.117 E42.18386
G1 X222.44 Y81.899 E42.22545
G1 X222.439 Y140.887 E45.35672
G1 X222.389 Y141.944 E45.41289
G1 X222.334 Y142.532 E45.44424
G1 X222.204 Y143.462 E45.49409
G1 X222.088 Y144.072 E45.52705
G1 X221.87 Y144.981 E45.57667
G1 X221.707 Y145.546 E45.60789
G1 X221.407 Y146.431 E45.65749
G1 X221.187 Y146.994 E45.68958
G1 X220.805 Y147.848 E45.73924
G1 X220.531 Y148.389 E45.77143
G1 X220.07 Y149.204 E45.82114
G1 X219.747 Y149.717 E45.85332
G1 X219.212 Y150.484 E45.90296
G1 X218.852 Y150.952 E45.9343
G1 X218.248 Y151.668 E45.98402
G1 X217.821 Y152.128 E46.01734
G1 X217.151 Y152.781 E46.067
G1 X216.718 Y153.166 E46.09776
G1 X215.991 Y153.757 E46.1475
G1 X215.501 Y154.118 E46.1798
G1 X214.724 Y154.636 E46.22937
G1 X214.209 Y154.946 E46.26128
G1 X213.243 Y155.467 E46.31954
G1 X199.267 Y162.176 E47.14249
G1 X198.64 Y162.636 E47.18377
G1 X198.39 Y162.88 E47.20231
G1 X197.991 Y163.402 E47.23719
G1 X197.691 Y163.997 E47.27256
G1 X197.59 Y164.296 E47.28931
G1 X197.44 Y165.088 E47.3321
G1 X197.436 Y223.174 E50.41549
G1 X197.394 Y224.544 E50.48825
G1 X197.248 Y226.147 E50.57369
G1 X197.009 Y227.722 E50.65826
G1 X196.669 Y229.303 E50.7441
G1 X196.237 Y230.834 E50.82854
G1 X192.692 Y242.175 E51.45928
G1 X192.433 Y242.9 E51.50015
G1 X191.832 Y244.108 E51.57177
G1 X191.011 Y245.258 E51.64678
G1 X190.02 Y246.264 E51.72174
G1 X188.876 Y247.105 E51.79711
G1 X187.606 Y247.758 E51.87292
G1 X186.282 Y248.193 E51.9469
G1 X184.933 Y248.409 E52.01942
G1 X184.161 Y248.44 E52.06043
G1 X117.829 Y248.439 E55.58154
G1 X116.944 Y248.39 E55.62859
G1 X115.717 Y248.192 E55.69457
G1 X114.395 Y247.758 E55.76843
G1 X113.124 Y247.106 E55.84426
G1 X111.979 Y246.264 E55.9197
G1 X110.989 Y245.258 E55.99463
G1 X110.168 Y244.108 E56.06963
G1 X109.565 Y242.896 E56.14149
G1 X109.305 Y242.167 E56.18258
G1 X105.763 Y230.834 E56.81287
G1 X105.331 Y229.295 E56.89772
G1 X104.992 Y227.727 E56.98288
G1 X104.752 Y226.147 E57.06771
G1 X104.605 Y224.536 E57.15358
G1 X104.56 Y222.948 E57.23791
G1 X104.559 Y165.062 E60.31068
G1 X104.414 Y164.31 E60.35134
G1 X104.306 Y163.99 E60.36927
G1 X104.007 Y163.399 E60.40442
G1 X103.608 Y162.879 E60.43922
G1 X103.103 Y162.429 E60.47512
G1 X102.402 Y162.017 E60.51829
G1 X88.757 Y155.467 E61.32174
G1 X87.791 Y154.946 E61.38
G1 X87.276 Y154.636 E61.4119
G1 X86.499 Y154.118 E61.46148
G1 X86.013 Y153.76 E61.49352
G1 X85.286 Y153.17 E61.54322
G1 X84.846 Y152.778 E61.5745
G1 X84.176 Y152.124 E61.6242
G1 X83.752 Y151.668 E61.65725
G1 X83.148 Y150.952 E61.70698
G1 X82.788 Y150.484 E61.73832
G1 X82.253 Y149.717 E61.78796
G1 X81.93 Y149.204 E61.82014
G1 X81.469 Y148.389 E61.86985
G1 X81.195 Y147.848 E61.90204
G1 X80.813 Y146.994 E61.9517
G1 X80.593 Y146.431 E61.98379
G1 X80.293 Y145.546 E62.03339
G1 X80.128 Y144.974 E62.06499
G1 X79.911 Y144.065 E62.1146
G1 X79.798 Y143.469 E62.1468
G1 X79.667 Y142.54 E62.1966
G1 X79.611 Y141.944 E62.22838
G1 X79.56 Y140.863 E62.28583
G1 X79.559 Y81.899 E65.41582
G1 X79.599 Y81.183 E65.45389
G1 X79.718 Y80.475 E65.492
G1 X79.916 Y79.785 E65.53011
G1 X80.189 Y79.122 E65.56817
G1 X80.534 Y78.493 E65.60625
G1 X80.946 Y77.906 E65.64432
G1 X81.422 Y77.369 E65.68241
M204 S5000
M205 X10 Y10
G0 F6000 X81.973 Y77.614
M204 S1000
M205 X8 Y8
G1 F2400 X82.499 Y77.174 E65.71881
G1 X83.073 Y76.799 E65.75521
G1 X83.686 Y76.493 E65.79158
G1 X84.331 Y76.26 E65.82798
G1 X84.999 Y76.105 E65.86438
G1 X85.999 Y76.019 E65.91766
G1 X117.019 Y76.019 E67.5643
G1 X117.019 Y66.801 E68.05362
G1 X117.074 Y65.958 E68.09847
G1 X117.174 Y65.196 E68.13926
G1 X117.303 Y64.546 E68.17444
G1 X117.495 Y63.824 E68.2141
G1 X117.704 Y63.2 E68.24903
G1 X117.996 Y62.487 E68.28993
G1 X118.286 Y61.893 E68.32502
G1 X118.663 Y61.234 E68.36532
G1 X119.028 Y60.681 E68.40049
G1 X119.488 Y60.073 E68.44097
G1 X119.918 Y59.576 E68.47585
G1 X120.458 Y59.029 E68.51665
G1 X120.981 Y58.564 E68.5538
G1 X121.616 Y58.072 E68.59644
G1 X122.167 Y57.703 E68.63165
G1 X122.831 Y57.319 E68.67236
G1 X123.421 Y57.027 E68.70731
G1 X124.106 Y56.74 E68.74673
G1 X124.73 Y56.524 E68.78178
G1 X125.498 Y56.316 E68.82402
G1 X126.187 Y56.178 E68.86132
G1 X126.943 Y56.077 E68.90181
G1 X127.767 Y56.021 E68.94565
G1 X174.199 Y56.019 E71.41041
G1 X175.042 Y56.074 E71.45525
G1 X175.804 Y56.174 E71.49605
G1 X176.454 Y56.303 E71.53123
G1 X177.176 Y56.495 E71.57088
G1 X177.8 Y56.704 E71.60582
G1 X178.513 Y56.996 E71.64672
G1 X179.107 Y57.286 E71.6818
G1 X179.766 Y57.663 E71.72211
G1 X180.319 Y58.028 E71.75728
G1 X180.927 Y58.488 E71.79775
G1 X181.424 Y58.918 E71.83264
G1 X181.971 Y59.458 E71.87344
G1 X182.436 Y59.981 E71.91059
G1 X182.926 Y60.614 E71.95308
G1 X183.294 Y61.163 E71.98816
G1 X183.68 Y61.829 E72.02903
G1 X183.973 Y62.421 E72.06409
G1 X184.26 Y63.106 E72.10351
G1 X184.476 Y63.73 E72.13857
G1 X184.684 Y64.498 E72.1808
G1 X184.822 Y65.187 E72.2181
G1 X184.923 Y65.943 E72.25859
G1 X184.979 Y66.765 E72.30233
G1 X184.981 Y76.019 E72.79356
G1 X216 Y76.019 E74.44014
G1 X216.684 Y76.059 E74.47652
G1 X217.359 Y76.178 E74.5129
G1 X218.016 Y76.375 E74.54931
G1 X218.645 Y76.648 E74.58571
G1 X219.239 Y76.991 E74.62212
G1 X219.788 Y77.402 E74.65852
G1 X220.286 Y77.873 E74.69491
G1 X220.725 Y78.399 E74.73128
G1 X221.1 Y78.973 E74.76767
G1 X221.406 Y79.586 E74.80404
G1 X221.639 Y80.231 E74.84045
G1 X221.794 Y80.899 E74.87685
G1 X221.88 Y81.899 E74.93013
G1 X221.879 Y140.731 E78.05312
G1 X221.829 Y141.918 E78.11618
G1 X221.779 Y142.454 E78.14476
G1 X221.649 Y143.384 E78.19461
G1 X221.544 Y143.941 E78.22469
G1 X221.326 Y144.85 E78.27431
G1 X221.177 Y145.367 E78.30288
G1 X220.877 Y146.252 E78.35248
G1 X220.675 Y146.765 E78.38175
G1 X220.293 Y147.619 E78.43141
G1 X220.044 Y148.113 E78.46077
G1 X219.583 Y148.928 E78.51048
G1 X219.288 Y149.397 E78.53989
G1 X218.753 Y150.164 E78.58953
G1 X218.424 Y150.591 E78.61815
G1 X217.82 Y151.307 E78.66787
G1 X217.43 Y151.727 E78.69829
G1 X216.76 Y152.38 E78.74796
G1 X216.365 Y152.732 E78.77604
G1 X215.638 Y153.323 E78.82578
G1 X215.191 Y153.652 E78.85524
G1 X214.414 Y154.17 E78.90481
G1 X213.943 Y154.453 E78.93398
G1 X212.871 Y155.024 E78.99845
G1 X199.339 Y161.52 E79.79526
G1 X198.883 Y161.766 E79.82276
G1 X198.263 Y162.221 E79.86358
G1 X197.981 Y162.497 E79.88453
G1 X197.515 Y163.106 E79.92523
G1 X197.326 Y163.44 E79.94561
G1 X197.049 Y164.148 E79.98596
G1 X196.904 Y164.914 E80.02735
G1 X196.88 Y165.421 E80.05429
G1 X196.876 Y223.157 E83.1191
G1 X196.834 Y224.527 E83.19186
G1 X196.694 Y226.062 E83.27368
G1 X196.455 Y227.633 E83.35803
G1 X196.129 Y229.153 E83.44055
G1 X195.702 Y230.667 E83.52406
G1 X192.157 Y242.008 E84.1548
G1 X191.856 Y242.807 E84.20012
G1 X191.352 Y243.82 E84.26018
G1 X190.581 Y244.899 E84.33058
G1 X189.653 Y245.839 E84.4007
G1 X188.583 Y246.629 E84.4713
G1 X187.391 Y247.241 E84.54243
G1 X186.15 Y247.65 E84.61179
G1 X185.016 Y247.831 E84.67275
G1 X184.161 Y247.88 E84.71821
G1 X117.829 Y247.879 E88.23932
G1 X116.988 Y247.831 E88.28404
G1 X115.851 Y247.65 E88.34515
G1 X114.609 Y247.241 E88.41456
G1 X113.417 Y246.629 E88.48569
G1 X112.347 Y245.839 E88.55629
G1 X111.419 Y244.899 E88.62641
G1 X110.648 Y243.82 E88.69681
G1 X110.143 Y242.804 E88.75704
G1 X109.84 Y242 E88.80265
G1 X106.246 Y230.493 E89.44257
G1 X105.873 Y229.156 E89.51626
G1 X105.545 Y227.637 E89.59875
G1 X105.306 Y226.063 E89.68326
G1 X105.165 Y224.519 E89.76556
G1 X105.12 Y222.948 E89.84899
G1 X105.119 Y165.398 E92.90392
G1 X105.047 Y164.546 E92.94931
G1 X104.829 Y163.786 E92.99128
G1 X104.673 Y163.437 E93.01158
G1 X104.258 Y162.781 E93.05278
G1 X104.017 Y162.496 E93.07259
G1 X103.322 Y161.876 E93.12203
G1 X102.652 Y161.515 E93.16243
G1 X89.129 Y155.024 E93.95869
G1 X88.057 Y154.453 E94.02316
G1 X87.586 Y154.17 E94.05233
G1 X86.809 Y153.652 E94.1019
G1 X86.366 Y153.326 E94.1311
G1 X85.639 Y152.736 E94.1808
G1 X85.237 Y152.378 E94.20937
G1 X84.567 Y151.724 E94.25908
G1 X84.18 Y151.307 E94.28927
G1 X83.576 Y150.591 E94.339
G1 X83.247 Y150.164 E94.36761
G1 X82.712 Y149.397 E94.41725
G1 X82.417 Y148.928 E94.44667
G1 X81.956 Y148.113 E94.49637
G1 X81.707 Y147.619 E94.52574
