;FLAVOR:Marlin
;TIME:807
;Filament used: 1.04536m
;Layer height: 0.2
;MINX:124.001
;MINY:117.001
;MINZ:0.2
;MAXX:177.999
;MAXY:184.999
;MAXZ:4.2
;Generated with Cura_SteamEngine 5.2.1
M140 S80
M105
M190 S80
M104 S230
M105
M109 S230
M82 ;absolute extrusion mode
G28 ;Home
G1 Z15.0 F1200 ;Move the platform down 15mm
;Prime the extruder
G92 E0
G1 F200 E3
G92 E0
G92 E0
G92 E0
G1 F3600 E-6
;LAYER_COUNT:21
;LAYER:0
M107
M204 S5000
M205 X10 Y10
G1 F1200 Z0.275
G0 F6000 X126.056 Y119.653 Z0.275
M204 S1000
M205 X8 Y8
;TYPE:SKIRT
G1 F1200 Z0.2
G1 F3600 E0
G1 F2400 X126.578 Y119.117 E0.03972
G1 X127.154 Y118.639 E0.07945
G1 X127.899 Y118.141 E0.12702
G1 X128.726 Y117.704 E0.17667
G1 X129.421 Y117.427 E0.21638
G1 X130.428 Y117.158 E0.27171
G1 X131.33 Y117.029 E0.32008
G1 X131.953 Y117.001 E0.35319
G1 X170.047 Y117.001 E2.37534
G1 X170.794 Y117.041 E2.41505
G1 X171.712 Y117.19 E2.46441
G1 X172.6 Y117.435 E2.51331
G1 X173.296 Y117.71 E2.55304
G1 X173.958 Y118.058 E2.59274
G1 X174.615 Y118.483 E2.63428
G1 X175.347 Y119.056 E2.68362
G1 X175.883 Y119.578 E2.72334
G1 X176.361 Y120.154 E2.76307
G1 X176.859 Y120.899 E2.81064
G1 X177.296 Y121.726 E2.86029
G1 X177.573 Y122.421 E2.90001
G1 X177.842 Y123.428 E2.95534
G1 X177.971 Y124.33 E3.0037
G1 X177.999 Y124.953 E3.03681
G1 X177.999 Y140.047 E3.83805
G1 X177.959 Y140.794 E3.87776
G1 X177.837 Y141.546 E3.9182
G1 X177.793 Y141.746 E3.92907
G1 X177.865 Y142.089 E3.94767
G1 X177.971 Y142.83 E3.98741
G1 X177.999 Y143.453 E4.02051
G1 X177.999 Y158.547 E4.82175
G1 X177.959 Y159.294 E4.86146
G1 X177.837 Y160.046 E4.9019
G1 X177.793 Y160.246 E4.91277
G1 X177.865 Y160.589 E4.93137
G1 X177.971 Y161.33 E4.97111
G1 X177.999 Y161.953 E5.00421
G1 X177.999 Y177.047 E5.80545
G1 X177.959 Y177.794 E5.84516
G1 X177.81 Y178.712 E5.89453
G1 X177.565 Y179.6 E5.94343
G1 X177.29 Y180.296 E5.98315
G1 X176.942 Y180.958 E6.02285
G1 X176.517 Y181.615 E6.06439
G1 X175.944 Y182.347 E6.11374
G1 X175.422 Y182.883 E6.15345
G1 X174.846 Y183.361 E6.19318
G1 X174.101 Y183.859 E6.24075
G1 X173.274 Y184.296 E6.29041
G1 X172.579 Y184.573 E6.33012
G1 X171.572 Y184.842 E6.38545
G1 X170.67 Y184.971 E6.43382
G1 X170.047 Y184.999 E6.46692
G1 X131.953 Y184.999 E8.48907
G1 X131.206 Y184.959 E8.52878
G1 X130.288 Y184.81 E8.57815
G1 X129.4 Y184.565 E8.62705
G1 X128.704 Y184.29 E8.66677
G1 X128.042 Y183.942 E8.70648
G1 X127.385 Y183.517 E8.74801
G1 X126.653 Y182.944 E8.79736
G1 X126.117 Y182.422 E8.83707
G1 X125.639 Y181.846 E8.87681
G1 X125.141 Y181.101 E8.92438
G1 X124.704 Y180.274 E8.97403
G1 X124.427 Y179.579 E9.01374
G1 X124.158 Y178.572 E9.06907
G1 X124.029 Y177.67 E9.11744
G1 X124.001 Y177.047 E9.15054
G1 X124.001 Y161.953 E9.95178
G1 X124.041 Y161.206 E9.99149
G1 X124.163 Y160.454 E10.03193
G1 X124.207 Y160.254 E10.0428
G1 X124.135 Y159.911 E10.06141
G1 X124.029 Y159.17 E10.10114
G1 X124.001 Y158.547 E10.13425
G1 X124.001 Y143.453 E10.93548
G1 X124.041 Y142.706 E10.97519
G1 X124.163 Y141.954 E11.01563
G1 X124.207 Y141.754 E11.0265
G1 X124.135 Y141.411 E11.04511
G1 X124.029 Y140.67 E11.08484
G1 X124.001 Y140.047 E11.11795
G1 X124.001 Y124.953 E11.91919
G1 X124.041 Y124.206 E11.9589
G1 X124.19 Y123.288 E12.00826
G1 X124.435 Y122.4 E12.05716
G1 X124.71 Y121.704 E12.09689
G1 X125.058 Y121.042 E12.13659
G1 X125.483 Y120.385 E12.17813
G1 X126.056 Y119.653 E12.22747
M204 S5000
M205 X10 Y10
G0 F6000 X126.497 Y119.999
M204 S1000
M205 X8 Y8
G1 F2400 X127.001 Y119.488 E12.26557
G1 X127.558 Y119.037 E12.30362
G1 X128.204 Y118.612 E12.34466
G1 X128.988 Y118.2 E12.39168
G1 X129.656 Y117.939 E12.42975
G1 X130.545 Y117.706 E12.47853
G1 X131.409 Y117.584 E12.52485
G1 X131.953 Y117.561 E12.55375
G1 X170.047 Y117.561 E14.5759
G1 X170.763 Y117.601 E14.61397
G1 X171.6 Y117.739 E14.659
G1 X172.45 Y117.976 E14.70584
G1 X173.116 Y118.244 E14.74395
G1 X173.747 Y118.584 E14.782
G1 X174.437 Y119.053 E14.82629
G1 X175.001 Y119.497 E14.86439
G1 X175.512 Y120.001 E14.90249
G1 X175.963 Y120.558 E14.94053
G1 X176.388 Y121.204 E14.98158
G1 X176.8 Y121.988 E15.0286
G1 X177.061 Y122.656 E15.06667
G1 X177.294 Y123.545 E15.11545
G1 X177.416 Y124.409 E15.16177
G1 X177.439 Y124.953 E15.19067
G1 X177.439 Y140.047 E15.99191
G1 X177.399 Y140.763 E16.02998
G1 X177.29 Y141.426 E16.06564
G1 X177.218 Y141.754 E16.08347
G1 X177.316 Y142.198 E16.1076
G1 X177.416 Y142.909 E16.14572
G1 X177.439 Y143.453 E16.17462
G1 X177.439 Y158.547 E16.97586
G1 X177.399 Y159.263 E17.01393
G1 X177.29 Y159.926 E17.04959
G1 X177.218 Y160.254 E17.06742
G1 X177.316 Y160.698 E17.09155
G1 X177.416 Y161.409 E17.12967
G1 X177.439 Y161.953 E17.15857
G1 X177.439 Y177.047 E17.95981
G1 X177.399 Y177.763 E17.99788
G1 X177.261 Y178.6 E18.04291
G1 X177.024 Y179.45 E18.08975
G1 X176.756 Y180.116 E18.12786
G1 X176.416 Y180.747 E18.1659
G1 X175.947 Y181.437 E18.21019
G1 X175.503 Y182.001 E18.24829
G1 X174.999 Y182.512 E18.28639
G1 X174.442 Y182.963 E18.32444
G1 X173.796 Y183.388 E18.36549
G1 X173.012 Y183.8 E18.4125
G1 X172.344 Y184.061 E18.45057
G1 X171.455 Y184.294 E18.49935
G1 X170.591 Y184.416 E18.54567
G1 X170.047 Y184.439 E18.57458
G1 X131.953 Y184.439 E20.59673
G1 X131.237 Y184.399 E20.63479
G1 X130.4 Y184.261 E20.67982
G1 X129.55 Y184.024 E20.72667
G1 X128.884 Y183.756 E20.76477
G1 X128.253 Y183.416 E20.80282
G1 X127.563 Y182.947 E20.84711
G1 X126.999 Y182.503 E20.88521
G1 X126.488 Y181.999 E20.92331
G1 X126.037 Y181.442 E20.96136
G1 X125.612 Y180.796 E21.0024
G1 X125.2 Y180.012 E21.04942
G1 X124.939 Y179.344 E21.08749
G1 X124.706 Y178.455 E21.13627
G1 X124.584 Y177.591 E21.18259
G1 X124.561 Y177.047 E21.2115
G1 X124.561 Y161.953 E22.01273
G1 X124.601 Y161.237 E22.0508
G1 X124.71 Y160.574 E22.08647
G1 X124.782 Y160.246 E22.10429
G1 X124.684 Y159.802 E22.12843
G1 X124.584 Y159.091 E22.16654
G1 X124.561 Y158.547 E22.19545
G1 X124.561 Y143.453 E22.99668
G1 X124.601 Y142.737 E23.03475
G1 X124.71 Y142.074 E23.07042
G1 X124.782 Y141.746 E23.08824
G1 X124.684 Y141.302 E23.11238
G1 X124.584 Y140.591 E23.15049
G1 X124.561 Y140.047 E23.17939
G1 X124.561 Y124.953 E23.98063
G1 X124.601 Y124.237 E24.0187
G1 X124.739 Y123.4 E24.06373
G1 X124.976 Y122.55 E24.11057
G1 X125.244 Y121.884 E24.14868
G1 X125.584 Y121.253 E24.18673
G1 X126.053 Y120.563 E24.23102
G1 X126.497 Y119.999 E24.26912
M204 S5000
M205 X10 Y10
G0 F6000 X126.937 Y120.347
M204 S1000
M205 X8 Y8
G1 F2400 X127.423 Y119.862 E24.30557
G1 X127.961 Y119.438 E24.34193
G1 X128.64 Y119.014 E24.38442
G1 X129.248 Y118.697 E24.42082
G1 X129.888 Y118.453 E24.45718
G1 X130.664 Y118.254 E24.4997
G1 X131.624 Y118.121 E24.55115
G1 X170.047 Y118.121 E26.59076
G1 X170.731 Y118.161 E26.62714
G1 X171.487 Y118.287 E26.66782
G1 X172.299 Y118.516 E26.7126
G1 X172.933 Y118.777 E26.749
G1 X173.915 Y119.353 E26.80943
G1 X174.653 Y119.937 E26.85939
G1 X175.138 Y120.423 E26.89584
G1 X175.562 Y120.961 E26.9322
G1 X175.986 Y121.64 E26.97469
G1 X176.303 Y122.248 E27.01109
G1 X176.547 Y122.888 E27.04745
G1 X176.746 Y123.664 E27.08997
G1 X176.879 Y124.624 E27.14142
G1 X176.879 Y140.047 E27.96012
G1 X176.839 Y140.731 E27.99649
G1 X176.743 Y141.306 E28.02744
G1 X176.639 Y141.748 E28.05154
G1 X176.766 Y142.307 E28.08197
G1 X176.879 Y143.124 E28.12575
G1 X176.879 Y158.547 E28.94446
G1 X176.839 Y159.231 E28.98083
G1 X176.743 Y159.806 E29.01177
G1 X176.639 Y160.248 E29.03588
G1 X176.766 Y160.807 E29.06631
G1 X176.879 Y161.624 E29.11009
G1 X176.879 Y177.047 E29.92879
G1 X176.839 Y177.731 E29.96516
G1 X176.713 Y178.487 E30.00584
G1 X176.484 Y179.299 E30.05063
G1 X176.223 Y179.933 E30.08702
G1 X175.647 Y180.915 E30.14746
G1 X175.063 Y181.653 E30.19741
G1 X174.577 Y182.138 E30.23386
G1 X174.039 Y182.562 E30.27022
G1 X173.36 Y182.986 E30.31272
G1 X172.752 Y183.303 E30.34912
G1 X172.112 Y183.547 E30.38547
G1 X171.336 Y183.746 E30.428
G1 X170.376 Y183.879 E30.47945
G1 X131.953 Y183.879 E32.51906
G1 X131.269 Y183.839 E32.55543
G1 X130.513 Y183.713 E32.59612
G1 X129.701 Y183.484 E32.6409
G1 X129.067 Y183.223 E32.6773
G1 X128.085 Y182.647 E32.73773
G1 X127.347 Y182.063 E32.78769
G1 X126.862 Y181.577 E32.82413
G1 X126.438 Y181.039 E32.8605
G1 X126.014 Y180.36 E32.90299
G1 X125.697 Y179.752 E32.93939
G1 X125.453 Y179.112 E32.97575
G1 X125.254 Y178.336 E33.01827
G1 X125.121 Y177.376 E33.06972
G1 X125.121 Y161.953 E33.88842
G1 X125.161 Y161.269 E33.92479
G1 X125.257 Y160.694 E33.95574
G1 X125.361 Y160.252 E33.97984
G1 X125.234 Y159.693 E34.01027
G1 X125.121 Y158.876 E34.05405
G1 X125.121 Y143.453 E34.87275
G1 X125.161 Y142.769 E34.90912
G1 X125.257 Y142.194 E34.94007
G1 X125.361 Y141.752 E34.96417
G1 X125.234 Y141.193 E34.9946
G1 X125.121 Y140.376 E35.03838
G1 X125.121 Y124.953 E35.85709
G1 X125.161 Y124.269 E35.89346
G1 X125.287 Y123.513 E35.93414
G1 X125.516 Y122.701 E35.97893
G1 X125.777 Y122.067 E36.01532
G1 X126.353 Y121.085 E36.07575
G1 X126.937 Y120.347 E36.12571
M204 S5000
M205 X10 Y10
G0 F6000 X127.377 Y120.696
M204 S1000
M205 X8 Y8
G1 F2400 X127.842 Y120.239 E36.16032
G1 X128.725 Y119.6 E36.21818
G1 X129.507 Y119.195 E36.26493
G1 X130.118 Y118.968 E36.29953
G1 X130.784 Y118.801 E36.33597
G1 X131.666 Y118.681 E36.38322
G1 X170.047 Y118.681 E38.42061
G1 X170.698 Y118.721 E38.45523
G1 X171.519 Y118.877 E38.49959
G1 X172.146 Y119.056 E38.53421
G1 X172.747 Y119.31 E38.56884
G1 X173.604 Y119.819 E38.62175
G1 X174.304 Y120.377 E38.66927
G1 X174.761 Y120.842 E38.70388
G1 X175.4 Y121.725 E38.76174
G1 X175.805 Y122.507 E38.80849
G1 X176.032 Y123.118 E38.84309
G1 X176.199 Y123.784 E38.87954
G1 X176.319 Y124.666 E38.92679
G1 X176.319 Y140.047 E39.74326
G1 X176.267 Y140.899 E39.78857
G1 X176.061 Y141.735 E39.83427
G1 X176.217 Y142.417 E39.87141
G1 X176.319 Y143.166 E39.91154
G1 X176.319 Y158.547 E40.72801
G1 X176.267 Y159.399 E40.77332
G1 X176.061 Y160.235 E40.81903
G1 X176.217 Y160.917 E40.85616
G1 X176.319 Y161.666 E40.89629
G1 X176.319 Y177.047 E41.71276
G1 X176.279 Y177.698 E41.74739
G1 X176.123 Y178.519 E41.79175
G1 X175.944 Y179.146 E41.82636
G1 X175.69 Y179.747 E41.86099
G1 X175.181 Y180.604 E41.91391
G1 X174.623 Y181.304 E41.96143
G1 X174.158 Y181.761 E41.99603
G1 X173.275 Y182.4 E42.05389
G1 X172.493 Y182.805 E42.10064
G1 X171.882 Y183.032 E42.13524
G1 X171.216 Y183.199 E42.17169
G1 X170.334 Y183.319 E42.21894
G1 X131.953 Y183.319 E44.25632
G1 X131.302 Y183.279 E44.29095
G1 X130.481 Y183.123 E44.33531
G1 X129.854 Y182.944 E44.36992
G1 X129.253 Y182.69 E44.40456
G1 X128.396 Y182.181 E44.45747
G1 X127.696 Y181.623 E44.50499
G1 X127.239 Y181.158 E44.5396
G1 X126.6 Y180.275 E44.59745
G1 X126.195 Y179.493 E44.6442
G1 X125.968 Y178.882 E44.6788
G1 X125.801 Y178.216 E44.71525
G1 X125.681 Y177.334 E44.7625
G1 X125.681 Y161.953 E45.57897
G1 X125.733 Y161.101 E45.62428
G1 X125.939 Y160.265 E45.66999
G1 X125.783 Y159.583 E45.70713
G1 X125.681 Y158.834 E45.74725
G1 X125.681 Y143.453 E46.56372
G1 X125.733 Y142.601 E46.60904
G1 X125.939 Y141.765 E46.65474
G1 X125.783 Y141.083 E46.69188
G1 X125.681 Y140.334 E46.732
G1 X125.681 Y124.953 E47.54848
G1 X125.721 Y124.302 E47.5831
G1 X125.877 Y123.481 E47.62746
G1 X126.056 Y122.854 E47.66207
G1 X126.31 Y122.253 E47.69671
G1 X126.819 Y121.396 E47.74962
G1 X127.377 Y120.696 E47.79714
M204 S5000
M205 X10 Y10
G0 F6000 X127.815 Y121.046
M204 S1000
M205 X8 Y8
G1 F2400 X128.26 Y120.619 E47.82988
G1 X129.023 Y120.074 E47.87965
G1 X129.764 Y119.693 E47.92388
G1 X130.345 Y119.485 E47.95664
G1 X131.026 Y119.332 E47.99369
G1 X131.712 Y119.241 E48.03042
G1 X170.047 Y119.241 E50.06537
G1 X170.662 Y119.281 E50.09808
G1 X171.399 Y119.424 E50.13793
G1 X171.992 Y119.595 E50.1707
G1 X172.557 Y119.841 E50.20341
G1 X173.297 Y120.287 E50.24927
G1 X173.954 Y120.815 E50.29401
G1 X174.381 Y121.26 E50.32675
G1 X174.926 Y122.023 E50.37652
G1 X175.307 Y122.764 E50.42075
G1 X175.515 Y123.345 E50.45351
G1 X175.668 Y124.026 E50.49056
G1 X175.759 Y124.712 E50.5273
G1 X175.759 Y140.047 E51.34133
G1 X175.719 Y140.662 E51.37404
G1 X175.576 Y141.399 E51.41389
G1 X175.478 Y141.74 E51.43273
G1 X175.515 Y141.845 E51.43864
G1 X175.668 Y142.526 E51.47569
G1 X175.759 Y143.212 E51.51242
G1 X175.759 Y158.547 E52.32645
G1 X175.719 Y159.162 E52.35917
G1 X175.576 Y159.899 E52.39902
G1 X175.478 Y160.24 E52.41786
G1 X175.515 Y160.345 E52.42376
G1 X175.668 Y161.026 E52.46082
G1 X175.759 Y161.712 E52.49755
G1 X175.759 Y177.047 E53.31158
G1 X175.719 Y177.662 E53.3443
G1 X175.576 Y178.399 E53.38415
G1 X175.405 Y178.992 E53.41691
G1 X175.159 Y179.557 E53.44962
G1 X174.713 Y180.297 E53.49548
G1 X174.185 Y180.954 E53.54023
G1 X173.74 Y181.381 E53.57296
G1 X172.977 Y181.926 E53.62274
G1 X172.236 Y182.307 E53.66697
G1 X171.655 Y182.515 E53.69973
G1 X170.974 Y182.668 E53.73678
G1 X170.288 Y182.759 E53.77351
G1 X131.953 Y182.759 E55.80845
G1 X131.338 Y182.719 E55.84117
G1 X130.601 Y182.576 E55.88102
G1 X130.008 Y182.405 E55.91378
G1 X129.443 Y182.159 E55.94649
G1 X128.703 Y181.713 E55.99236
G1 X128.046 Y181.185 E56.0371
G1 X127.619 Y180.74 E56.06984
G1 X127.074 Y179.977 E56.11961
G1 X126.693 Y179.236 E56.16384
G1 X126.485 Y178.655 E56.1966
G1 X126.332 Y177.974 E56.23365
G1 X126.241 Y177.288 E56.27038
G1 X126.241 Y161.953 E57.08441
G1 X126.281 Y161.338 E57.11713
G1 X126.424 Y160.601 E57.15698
G1 X126.522 Y160.26 E57.17582
G1 X126.485 Y160.155 E57.18173
G1 X126.332 Y159.474 E57.21878
G1 X126.241 Y158.788 E57.25551
G1 X126.241 Y143.453 E58.06954
G1 X126.281 Y142.838 E58.10226
G1 X126.424 Y142.101 E58.14211
G1 X126.522 Y141.76 E58.16094
G1 X126.485 Y141.655 E58.16685
G1 X126.332 Y140.974 E58.2039
G1 X126.241 Y140.288 E58.24064
G1 X126.241 Y124.953 E59.05467
G1 X126.281 Y124.338 E59.08738
G1 X126.424 Y123.601 E59.12723
G1 X126.595 Y123.008 E59.16
G1 X126.841 Y122.443 E59.19271
G1 X127.287 Y121.703 E59.23857
G1 X127.815 Y121.046 E59.28331
M204 S5000
M205 X10 Y10
G0 F6000 X128.252 Y121.398
M204 S1000
M205 X8 Y8
G1 F2400 X128.675 Y121.002 E59.31407
G1 X129.326 Y120.546 E59.35626
G1 X130.02 Y120.193 E59.39759
G1 X130.983 Y119.896 E59.45109
G1 X131.953 Y119.801 E59.50283
G1 X170.047 Y119.801 E61.52498
G1 X170.625 Y119.841 E61.55573
G1 X171.279 Y119.971 E61.59113
G1 X171.835 Y120.134 E61.62188
G1 X172.364 Y120.372 E61.65268
G1 X172.992 Y120.76 E61.69186
G1 X173.602 Y121.252 E61.73346
G1 X173.998 Y121.675 E61.76422
G1 X174.454 Y122.326 E61.80641
G1 X174.807 Y123.02 E61.84774
G1 X175.104 Y123.983 E61.90124
G1 X175.199 Y124.953 E61.95298
G1 X175.199 Y140.047 E62.75421
G1 X175.159 Y140.625 E62.78497
G1 X175.029 Y141.279 E62.82036
G1 X174.885 Y141.771 E62.84758
G1 X175.104 Y142.483 E62.88712
G1 X175.199 Y143.453 E62.93886
G1 X175.199 Y158.547 E63.74009
G1 X175.159 Y159.125 E63.77085
G1 X175.029 Y159.779 E63.80625
G1 X174.885 Y160.271 E63.83346
G1 X175.104 Y160.983 E63.873
G1 X175.199 Y161.953 E63.92474
G1 X175.199 Y177.047 E64.72598
G1 X175.159 Y177.625 E64.75673
G1 X175.029 Y178.279 E64.79213
G1 X174.866 Y178.835 E64.82288
G1 X174.628 Y179.364 E64.85368
G1 X174.24 Y179.992 E64.89286
G1 X173.748 Y180.602 E64.93446
G1 X173.325 Y180.998 E64.96522
G1 X172.674 Y181.454 E65.00741
G1 X171.98 Y181.807 E65.04874
G1 X171.017 Y182.104 E65.10224
G1 X170.047 Y182.199 E65.15397
G1 X131.953 Y182.199 E67.17612
G1 X131.375 Y182.159 E67.20688
G1 X130.721 Y182.029 E67.24228
G1 X130.165 Y181.866 E67.27303
G1 X129.636 Y181.628 E67.30382
G1 X129.008 Y181.24 E67.34301
G1 X128.398 Y180.748 E67.38461
G1 X128.002 Y180.325 E67.41537
G1 X127.546 Y179.674 E67.45756
G1 X127.193 Y178.98 E67.49889
G1 X126.896 Y178.017 E67.55239
G1 X126.801 Y177.047 E67.60412
G1 X126.801 Y161.953 E68.40536
G1 X126.841 Y161.375 E68.43612
G1 X126.971 Y160.721 E68.47151
G1 X127.115 Y160.229 E68.49873
G1 X126.896 Y159.517 E68.53827
G1 X126.801 Y158.547 E68.59
G1 X126.801 Y143.453 E69.39124
G1 X126.841 Y142.875 E69.422
G1 X126.971 Y142.221 E69.45739
G1 X127.115 Y141.729 E69.48461
G1 X126.896 Y141.017 E69.52415
G1 X126.801 Y140.047 E69.57589
G1 X126.801 Y124.953 E70.37712
G1 X126.841 Y124.375 E70.40788
G1 X126.971 Y123.721 E70.44327
G1 X127.134 Y123.165 E70.47403
G1 X127.372 Y122.636 E70.50482
G1 X127.76 Y122.008 E70.54401
G1 X128.252 Y121.398 E70.58561
M204 S5000
M205 X10 Y10
G0 F6000 X128.688 Y121.752
M204 S1000
M205 X8 Y8
G1 F2400 X129.087 Y121.39 E70.61421
