;FLAVOR:Marlin
;TIME:4196
;Filament used: 4.20317m
;Layer height: 0.2
;MINX:113.005
;MINY:115.118
;MINZ:0.2
;MAXX:192.117
;MAXY:193.45
;MAXZ:5.075
;Generated with Cura_SteamEngine 5.2.1
M140 S80
M105
M190 S80
M104 S230
M105
M109 S230
M82 ;absolute extrusion mode
G28 ;Home
G1 Z15.0 F1200 ;Move the platform down 15mm
;Prime the extruder
G92 E0
G1 F200 E3
G92 E0
G92 E0
G92 E0
G1 F3600 E-6
;LAYER_COUNT:25
;LAYER:0
M107
M204 S5000
M205 X10 Y10
G1 F1200 Z0.275
G0 F6000 X119.628 Y119.883 Z0.275
M204 S1000
M205 X8 Y8
;TYPE:SKIRT
G1 F1200 Z0.2
G1 F3600 E0
G1 F2400 X119.996 Y119.54 E0.0267
G1 X121.33 Y118.384 E0.12041
G1 X121.92 Y117.925 E0.16009
G1 X122.557 Y117.532 E0.19982
G1 X123.006 Y117.307 E0.22648
G1 X124.611 Y116.574 E0.32014
G1 X125.307 Y116.3 E0.35985
G1 X126.028 Y116.102 E0.39954
G1 X126.39 Y116.036 E0.41907
G1 X126.671 Y115.874 E0.43629
G1 X127.355 Y115.572 E0.47598
G1 X128.068 Y115.345 E0.5157
G1 X128.801 Y115.195 E0.55541
G1 X129.835 Y115.118 E0.61045
G1 X168.612 Y115.118 E2.66886
G1 X169.359 Y115.158 E2.70857
G1 X170.073 Y115.273 E2.74696
G1 X170.432 Y115.198 E2.76643
G1 X171.49 Y115.118 E2.82275
G1 X175.012 Y115.118 E3.00971
G1 X176.008 Y115.189 E3.06271
G1 X177.761 Y115.441 E3.15673
G1 X178.495 Y115.587 E3.19645
G1 X179.209 Y115.81 E3.23616
G1 X179.671 Y116.002 E3.26272
G1 X181.275 Y116.734 E3.35631
G1 X181.98 Y117.105 E3.3986
G1 X183.757 Y118.175 E3.50871
G1 X184.868 Y118.774 E3.57571
G1 X185.093 Y118.786 E3.58767
G1 X185.831 Y118.905 E3.62735
G1 X186.553 Y119.103 E3.66709
G1 X187.249 Y119.376 E3.70678
G1 X187.912 Y119.723 E3.7465
G1 X188.712 Y120.254 E3.79747
G1 X189.456 Y120.874 E3.84888
G1 X189.976 Y121.411 E3.88856
G1 X190.436 Y122.001 E3.92827
G1 X190.831 Y122.636 E3.96797
G1 X191.156 Y123.31 E4.00769
G1 X191.42 Y124.06 E4.0499
G1 X191.746 Y125.186 E4.11213
G1 X191.953 Y126.151 E4.16452
G1 X192.044 Y126.793 E4.19894
G1 X192.113 Y127.77 E4.25093
G1 X192.117 Y133.933 E4.57808
G1 X192.078 Y134.68 E4.61779
G1 X191.959 Y135.419 E4.65752
G1 X191.735 Y136.235 E4.70244
G1 X191.429 Y137.013 E4.74682
G1 X191.082 Y137.675 E4.78649
G1 X190.666 Y138.297 E4.82621
G1 X189.925 Y139.153 E4.88631
G1 X189.236 Y139.772 E4.93548
G1 X189.068 Y139.893 E4.94647
G1 X189.025 Y140.255 E4.96582
G1 X188.668 Y142.262 E5.07403
G1 X188.498 Y142.99 E5.11372
G1 X188.251 Y143.696 E5.15342
G1 X187.835 Y144.563 E5.20447
G1 X187.349 Y145.342 E5.25321
G1 X186.888 Y145.931 E5.29291
G1 X186.366 Y146.467 E5.33263
G1 X185.792 Y146.944 E5.37224
G1 X186.116 Y147.331 E5.39904
G1 X186.404 Y147.746 E5.42585
G1 X187.355 Y149.226 E5.51924
G1 X187.725 Y149.876 E5.55894
G1 X188.024 Y150.562 E5.59866
G1 X188.182 Y151.037 E5.62523
G1 X188.677 Y152.722 E5.71846
G1 X188.849 Y153.45 E5.75817
G1 X188.943 Y154.192 E5.79787
G1 X188.961 Y154.695 E5.82459
G1 X188.961 Y155.779 E5.88213
G1 X188.995 Y156.506 E5.92076
G1 X188.95 Y157.252 E5.96044
G1 X188.805 Y158.11 E6.00663
G1 X188.212 Y160.125 E6.11813
G1 X187.963 Y160.831 E6.15786
G1 X187.577 Y161.637 E6.2053
G1 X186.43 Y163.422 E6.31793
G1 X185.993 Y164.029 E6.35764
G1 X185.493 Y164.585 E6.39733
G1 X185.125 Y164.928 E6.42403
G1 X183.791 Y166.084 E6.51773
G1 X183.201 Y166.543 E6.55742
G1 X182.564 Y166.936 E6.59715
G1 X181.76 Y167.339 E6.64489
G1 X182.044 Y167.702 E6.66935
G1 X182.411 Y168.278 E6.70561
G1 X182.761 Y168.461 E6.72657
G1 X183.5 Y168.955 E6.77376
G1 X185.097 Y170.338 E6.8859
G1 X185.636 Y170.857 E6.92562
G1 X186.116 Y171.431 E6.96534
G1 X186.404 Y171.846 E6.99216
G1 X187.355 Y173.326 E7.08554
G1 X187.725 Y173.976 E7.12524
G1 X188.024 Y174.662 E7.16497
G1 X188.182 Y175.137 E7.19154
G1 X188.677 Y176.822 E7.28476
G1 X188.849 Y177.55 E7.32447
G1 X188.943 Y178.292 E7.36418
G1 X188.961 Y178.795 E7.39089
G1 X188.961 Y179.879 E7.44844
G1 X188.995 Y180.606 E7.48707
G1 X188.95 Y181.352 E7.52674
G1 X188.805 Y182.21 E7.57293
G1 X188.212 Y184.225 E7.68443
G1 X187.963 Y184.931 E7.72417
G1 X187.577 Y185.737 E7.77161
G1 X186.43 Y187.522 E7.88424
G1 X185.993 Y188.129 E7.92394
G1 X185.493 Y188.685 E7.96363
G1 X185.125 Y189.028 E7.99034
G1 X183.791 Y190.184 E8.08404
G1 X183.201 Y190.643 E8.12372
G1 X182.564 Y191.036 E8.16345
G1 X182.113 Y191.262 E8.19023
G1 X180.509 Y191.994 E8.28382
G1 X179.813 Y192.268 E8.32353
G1 X179.092 Y192.466 E8.36322
G1 X178.734 Y192.531 E8.38253
G1 X178.45 Y192.694 E8.39992
G1 X177.766 Y192.996 E8.43961
G1 X177.053 Y193.223 E8.47933
G1 X176.32 Y193.373 E8.51904
G1 X175.286 Y193.45 E8.57408
G1 X136.509 Y193.45 E10.63249
G1 X135.762 Y193.41 E10.6722
G1 X135.049 Y193.295 E10.71054
G1 X134.69 Y193.37 E10.73
G1 X133.632 Y193.45 E10.78633
G1 X130.109 Y193.45 E10.97334
G1 X129.109 Y193.378 E11.02656
G1 X127.357 Y193.125 E11.12053
G1 X126.623 Y192.979 E11.16025
G1 X125.776 Y192.713 E11.20738
G1 X123.845 Y191.832 E11.32005
G1 X123.143 Y191.463 E11.36215
G1 X121.362 Y190.392 E11.47246
G1 X120.253 Y189.794 E11.53935
G1 X120.029 Y189.782 E11.55125
G1 X119.291 Y189.663 E11.59094
G1 X118.569 Y189.465 E11.63068
G1 X117.873 Y189.192 E11.67036
G1 X117.21 Y188.845 E11.71009
G1 X116.404 Y188.308 E11.7615
G1 X115.66 Y187.687 E11.81294
G1 X115.141 Y187.149 E11.85262
G1 X114.681 Y186.559 E11.89234
G1 X114.287 Y185.923 E11.93205
G1 X113.964 Y185.249 E11.97172
G1 X113.714 Y184.544 E12.01143
G1 X113.367 Y183.369 E12.07647
G1 X113.147 Y182.351 E12.13175
G1 X113.072 Y181.812 E12.16064
G1 X113.005 Y180.847 E12.21199
G1 X113.005 Y174.63 E12.54201
G1 X113.045 Y173.883 E12.58172
G1 X113.164 Y173.145 E12.6214
G1 X113.369 Y172.388 E12.66303
G1 X113.666 Y171.611 E12.70719
G1 X114.007 Y170.945 E12.7469
G1 X114.417 Y170.319 E12.78663
G1 X115.225 Y169.385 E12.85218
G1 X115.923 Y168.766 E12.90171
G1 X116.053 Y168.673 E12.91019
G1 X116.097 Y168.314 E12.92939
G1 X116.453 Y166.31 E13.03744
G1 X116.623 Y165.581 E13.07717
G1 X116.87 Y164.875 E13.11688
G1 X116.999 Y164.604 E13.13281
G1 X116.235 Y164.067 E13.18238
G1 X115.66 Y163.587 E13.22214
G1 X115.141 Y163.049 E13.26182
G1 X114.681 Y162.459 E13.30153
G1 X114.287 Y161.823 E13.34125
G1 X113.964 Y161.149 E13.38092
G1 X113.714 Y160.444 E13.42063
G1 X113.367 Y159.269 E13.48567
G1 X113.147 Y158.251 E13.54095
G1 X113.072 Y157.712 E13.56984
G1 X113.005 Y156.747 E13.62119
G1 X113.005 Y150.53 E13.95121
G1 X113.045 Y149.783 E13.99092
G1 X113.164 Y149.045 E14.0306
G1 X113.369 Y148.288 E14.07223
G1 X113.666 Y147.511 E14.11639
G1 X114.007 Y146.845 E14.1561
G1 X114.417 Y146.219 E14.19583
G1 X115.225 Y145.285 E14.26138
G1 X115.923 Y144.666 E14.31091
G1 X116.053 Y144.573 E14.31939
G1 X116.097 Y144.214 E14.33859
G1 X116.453 Y142.21 E14.44664
G1 X116.623 Y141.481 E14.48637
G1 X116.87 Y140.775 E14.52608
G1 X117.271 Y139.931 E14.57568
G1 X117.754 Y139.15 E14.62442
G1 X118.213 Y138.559 E14.66415
G1 X118.732 Y138.02 E14.70386
G1 X119.329 Y137.524 E14.74507
G1 X119.003 Y137.134 E14.77205
G1 X118.717 Y136.721 E14.79872
G1 X117.766 Y135.241 E14.8921
G1 X117.396 Y134.591 E14.9318
G1 X117.04 Y133.773 E14.97916
G1 X116.444 Y131.747 E15.09126
G1 X116.272 Y131.019 E15.13097
G1 X116.178 Y130.277 E15.17067
G1 X116.16 Y129.773 E15.19744
G1 X116.16 Y128.689 E15.25499
G1 X116.126 Y127.962 E15.29362
G1 X116.171 Y127.216 E15.33329
G1 X116.316 Y126.358 E15.37948
G1 X116.909 Y124.343 E15.49098
G1 X117.158 Y123.637 E15.53072
G1 X117.544 Y122.831 E15.57816
G1 X118.691 Y121.046 E15.69079
G1 X119.128 Y120.439 E15.73049
G1 X119.628 Y119.883 E15.77018
M204 S5000
M205 X10 Y10
G0 F6000 X120.137 Y120.158
M204 S1000
M205 X8 Y8
G1 F2400 X121.697 Y118.807 E15.87973
G1 X122.264 Y118.368 E15.9178
G1 X122.967 Y117.94 E15.96149
G1 X124.844 Y117.083 E16.07102
G1 X125.512 Y116.822 E16.10909
G1 X126.205 Y116.636 E16.14718
G1 X126.581 Y116.57 E16.16744
G1 X127.003 Y116.334 E16.19311
G1 X127.664 Y116.055 E16.23119
G1 X128.351 Y115.851 E16.26923
G1 X129.058 Y115.725 E16.30736
G1 X129.835 Y115.678 E16.34868
G1 X168.612 Y115.678 E18.40708
G1 X169.328 Y115.718 E18.44515
G1 X170.065 Y115.846 E18.48486
G1 X170.575 Y115.743 E18.51248
G1 X171.49 Y115.678 E18.56117
G1 X175.012 Y115.678 E18.74813
G1 X175.928 Y115.744 E18.79688
G1 X177.681 Y115.996 E18.89089
G1 X178.385 Y116.137 E18.929
G1 X179.173 Y116.39 E18.97294
G1 X181.043 Y117.243 E19.08204
G1 X181.691 Y117.585 E19.12094
G1 X183.478 Y118.661 E19.23166
G1 X184.712 Y119.326 E19.30607
G1 X185.062 Y119.346 E19.32468
G1 X185.77 Y119.465 E19.36279
G1 X186.46 Y119.663 E19.4009
G1 X187.123 Y119.936 E19.43896
G1 X187.752 Y120.281 E19.47704
G1 X188.401 Y120.722 E19.51869
G1 X189.096 Y121.305 E19.56685
G1 X189.592 Y121.823 E19.60492
G1 X190.027 Y122.394 E19.64302
G1 X190.396 Y123.009 E19.68109
G1 X190.694 Y123.662 E19.7192
G1 X190.882 Y124.216 E19.75025
G1 X191.208 Y125.342 E19.81248
G1 X191.398 Y126.229 E19.86063
G1 X191.489 Y126.871 E19.89505
G1 X191.553 Y127.771 E19.94295
G1 X191.557 Y133.934 E20.2701
G1 X191.517 Y134.65 E20.30817
G1 X191.399 Y135.358 E20.34627
G1 X191.202 Y136.064 E20.38518
G1 X190.907 Y136.806 E20.42756
G1 X190.57 Y137.44 E20.46568
G1 X190.165 Y138.032 E20.50375
G1 X189.521 Y138.765 E20.55554
G1 X188.862 Y139.354 E20.60246
G1 X188.545 Y139.579 E20.6231
G1 X188.473 Y140.157 E20.65402
G1 X188.116 Y142.164 E20.76223
G1 X187.952 Y142.862 E20.80029
G1 X187.71 Y143.538 E20.8384
G1 X187.341 Y144.3 E20.88335
G1 X186.874 Y145.045 E20.93002
G1 X186.427 Y145.607 E20.96814
G1 X185.921 Y146.115 E21.0062
G1 X185.362 Y146.565 E21.04429
G1 X184.92 Y146.845 E21.07207
G1 X185.246 Y147.161 E21.09617
G1 X185.769 Y147.794 E21.13976
G1 X186.884 Y149.529 E21.24923
G1 X187.238 Y150.153 E21.28732
G1 X187.561 Y150.909 E21.33096
G1 X188.14 Y152.88 E21.44
G1 X188.303 Y153.578 E21.47805
G1 X188.401 Y154.4 E21.522
G1 X188.401 Y155.809 E21.59679
G1 X188.434 Y156.56 E21.63669
G1 X188.383 Y157.276 E21.6748
G1 X188.173 Y158.274 E21.72894
G1 X187.675 Y159.967 E21.82261
G1 X187.435 Y160.643 E21.86069
G1 X187.076 Y161.38 E21.90421
G1 X185.959 Y163.119 E22.01392
G1 X185.538 Y163.7 E22.05201
G1 X184.984 Y164.31 E22.09575
G1 X183.424 Y165.661 E22.2053
G1 X182.857 Y166.1 E22.24336
G1 X182.15 Y166.53 E22.28729
G1 X180.825 Y167.135 E22.36461
G1 X181.181 Y167.503 E22.39179
G1 X181.619 Y168.071 E22.42986
G1 X182.013 Y168.702 E22.46935
G1 X182.5 Y168.958 E22.49856
G1 X183.187 Y169.424 E22.54262
G1 X184.731 Y170.761 E22.65104
G1 X185.246 Y171.261 E22.68915
G1 X185.769 Y171.894 E22.73273
G1 X186.884 Y173.629 E22.84221
G1 X187.238 Y174.253 E22.88029
G1 X187.561 Y175.009 E22.92393
G1 X188.14 Y176.98 E23.03298
G1 X188.303 Y177.678 E23.07103
G1 X188.401 Y178.5 E23.11497
G1 X188.401 Y179.909 E23.18977
G1 X188.434 Y180.66 E23.22967
G1 X188.383 Y181.376 E23.26778
G1 X188.173 Y182.374 E23.32191
G1 X187.675 Y184.067 E23.41559
G1 X187.435 Y184.743 E23.45367
G1 X187.076 Y185.48 E23.49719
G1 X185.959 Y187.219 E23.6069
G1 X185.538 Y187.8 E23.64499
G1 X184.984 Y188.41 E23.68873
G1 X183.424 Y189.761 E23.79828
G1 X182.857 Y190.2 E23.83634
G1 X182.15 Y190.63 E23.88027
G1 X180.277 Y191.485 E23.98956
G1 X179.608 Y191.746 E24.02768
G1 X178.915 Y191.931 E24.06576
G1 X178.541 Y191.997 E24.08592
G1 X178.118 Y192.234 E24.11165
G1 X177.457 Y192.513 E24.14974
G1 X176.77 Y192.717 E24.18778
G1 X176.063 Y192.843 E24.2259
G1 X175.286 Y192.89 E24.26722
G1 X136.509 Y192.89 E26.32563
G1 X135.793 Y192.85 E26.3637
G1 X135.056 Y192.722 E26.40341
G1 X134.547 Y192.825 E26.43097
G1 X133.632 Y192.89 E26.47967
G1 X130.109 Y192.89 E26.66668
G1 X129.189 Y192.824 E26.71564
G1 X127.437 Y192.571 E26.80961
G1 X126.733 Y192.429 E26.84773
G1 X125.951 Y192.178 E26.89133
G1 X124.077 Y191.323 E27.00067
G1 X123.432 Y190.983 E27.03937
G1 X121.642 Y189.906 E27.15027
G1 X120.409 Y189.241 E27.22463
G1 X120.06 Y189.222 E27.24318
G1 X119.352 Y189.103 E27.28129
G1 X118.662 Y188.905 E27.3194
G1 X117.999 Y188.632 E27.35746
G1 X117.37 Y188.287 E27.39554
G1 X116.716 Y187.84 E27.43759
G1 X116.02 Y187.257 E27.48579
G1 X115.525 Y186.738 E27.52386
G1 X115.091 Y186.167 E27.56193
G1 X114.723 Y185.551 E27.60002
G1 X114.426 Y184.898 E27.6381
G1 X114.251 Y184.385 E27.66687
G1 X113.904 Y183.21 E27.73191
G1 X113.701 Y182.274 E27.78275
G1 X113.626 Y181.735 E27.81164
G1 X113.565 Y180.847 E27.85889
G1 X113.565 Y174.63 E28.1889
G1 X113.605 Y173.914 E28.22697
G1 X113.724 Y173.206 E28.26508
G1 X113.903 Y172.555 E28.30092
G1 X114.19 Y171.812 E28.3432
G1 X114.521 Y171.176 E28.38126
G1 X114.921 Y170.58 E28.41936
G1 X115.626 Y169.777 E28.47609
G1 X116.295 Y169.186 E28.52347
G1 X116.576 Y168.989 E28.54169
G1 X116.648 Y168.412 E28.57256
G1 X117.004 Y166.408 E28.6806
G1 X117.169 Y165.709 E28.71872
G1 X117.41 Y165.034 E28.75677
G1 X117.728 Y164.383 E28.79523
G1 X117.37 Y164.187 E28.8169
G1 X116.716 Y163.74 E28.85895
G1 X116.02 Y163.157 E28.90714
G1 X115.525 Y162.638 E28.94521
G1 X115.091 Y162.067 E28.98329
G1 X114.723 Y161.451 E29.02138
G1 X114.426 Y160.798 E29.05946
G1 X114.251 Y160.285 E29.08823
G1 X113.904 Y159.11 E29.15326
G1 X113.701 Y158.174 E29.2041
G1 X113.626 Y157.635 E29.23299
G1 X113.565 Y156.747 E29.28024
G1 X113.565 Y150.53 E29.61026
G1 X113.605 Y149.814 E29.64833
G1 X113.724 Y149.106 E29.68644
G1 X113.903 Y148.455 E29.72228
G1 X114.19 Y147.712 E29.76456
G1 X114.521 Y147.076 E29.80262
G1 X114.921 Y146.48 E29.84072
G1 X115.626 Y145.677 E29.89744
G1 X116.295 Y145.086 E29.94483
G1 X116.576 Y144.889 E29.96304
G1 X116.648 Y144.312 E29.99391
G1 X117.004 Y142.308 E30.10195
G1 X117.169 Y141.609 E30.14008
G1 X117.41 Y140.934 E30.17813
G1 X117.769 Y140.189 E30.22202
G1 X118.231 Y139.445 E30.26851
G1 X118.675 Y138.881 E30.30662
G1 X119.179 Y138.37 E30.34472
G1 X119.736 Y137.919 E30.38276
G1 X120.2 Y137.622 E30.412
G1 X119.873 Y137.304 E30.43622
G1 X119.349 Y136.668 E30.47996
G1 X118.237 Y134.938 E30.58913
G1 X117.883 Y134.314 E30.62721
G1 X117.559 Y133.556 E30.67097
G1 X116.981 Y131.589 E30.7798
G1 X116.818 Y130.891 E30.81785
G1 X116.72 Y130.069 E30.86179
G1 X116.72 Y128.654 E30.93691
G1 X116.687 Y127.908 E30.97654
G1 X116.738 Y127.192 E31.01465
G1 X116.948 Y126.194 E31.06879
G1 X117.446 Y124.501 E31.16246
G1 X117.686 Y123.825 E31.20054
G1 X118.045 Y123.088 E31.24406
G1 X119.162 Y121.349 E31.35377
G1 X119.583 Y120.768 E31.39186
G1 X120.137 Y120.158 E31.4356
M204 S5000
M205 X10 Y10
G0 F6000 X120.729 Y120.386
M204 S1000
M205 X8 Y8
G1 F2400 X122.063 Y119.23 E31.5293
G1 X122.607 Y118.812 E31.56572
G1 X123.471 Y118.325 E31.61837
G1 X125.076 Y117.592 E31.71203
G1 X125.715 Y117.344 E31.74842
G1 X126.776 Y117.099 E31.80622
G1 X127.331 Y116.798 E31.83973
G1 X127.968 Y116.542 E31.87618
G1 X128.629 Y116.363 E31.91253
G1 X129.307 Y116.262 E31.94892
G1 X129.835 Y116.238 E31.97697
G1 X168.612 Y116.238 E34.03538
G1 X169.296 Y116.278 E34.07175
G1 X169.971 Y116.397 E34.10813
G1 X170.043 Y116.419 E34.11213
G1 X170.715 Y116.289 E34.14846
G1 X171.49 Y116.238 E34.18969
G1 X175.012 Y116.238 E34.37665
G1 X175.849 Y116.298 E34.4212
G1 X177.602 Y116.55 E34.51521
G1 X178.273 Y116.687 E34.55156
G1 X179.206 Y117.021 E34.60417
G1 X180.81 Y117.753 E34.69776
G1 X181.402 Y118.065 E34.73328
G1 X183.198 Y119.147 E34.84458
G1 X184.555 Y119.878 E34.9264
G1 X185.03 Y119.906 E34.95166
G1 X185.705 Y120.025 E34.98805
G1 X186.362 Y120.222 E35.02445
G1 X186.991 Y120.495 E35.06085
G1 X188.009 Y121.123 E35.12435
G1 X188.736 Y121.734 E35.17476
G1 X189.206 Y122.234 E35.21118
G1 X189.614 Y122.784 E35.24754
G1 X189.956 Y123.379 E35.28397
G1 X190.266 Y124.102 E35.32573
G1 X190.67 Y125.498 E35.40287
G1 X190.844 Y126.308 E35.44685
G1 X190.935 Y126.95 E35.48127
G1 X190.993 Y127.771 E35.52496
G1 X190.997 Y133.934 E35.85211
G1 X190.957 Y134.619 E35.88853
G1 X190.839 Y135.294 E35.92491
G1 X190.668 Y135.893 E35.95798
G1 X190.386 Y136.599 E35.99833
G1 X190.059 Y137.202 E36.03474
G1 X189.665 Y137.762 E36.07109
G1 X189.115 Y138.378 E36.11493
G1 X188.489 Y138.935 E36.15941
G1 X187.999 Y139.278 E36.19116
G1 X187.994 Y139.504 E36.20316
G1 X187.922 Y140.059 E36.23287
G1 X187.565 Y142.066 E36.34108
G1 X187.406 Y142.733 E36.37747
G1 X187.17 Y143.376 E36.41383
G1 X186.843 Y144.04 E36.45312
G1 X186.399 Y144.746 E36.49739
G1 X185.968 Y145.28 E36.53382
G1 X185.478 Y145.76 E36.57023
G1 X184.936 Y146.179 E36.6066
G1 X184.349 Y146.532 E36.64296
G1 X183.939 Y146.717 E36.66684
G1 X184.364 Y147.085 E36.69668
G1 X184.855 Y147.563 E36.73305
G1 X185.462 Y148.351 E36.78586
