;FLAVOR:Marlin
;TIME:7224
;Filament used: 9.1516m
;Layer height: 0.2
;MINX:94
;MINY:87.916
;MINZ:0.2
;MAXX:208
;MAXY:213.87
;MAXZ:30
;Generated with Cura_SteamEngine 5.2.1
M140 S80
M105
M190 S80
M104 S230
M105
M109 S230
M82 ;absolute extrusion mode
G28 ;Home
G1 Z15.0 F1200 ;Move the platform down 15mm
;Prime the extruder
G92 E0
G1 F200 E3
G92 E0
G92 E0
G92 E0
G1 F3600 E-6
;LAYER_COUNT:150
;LAYER:0
M107
M204 S5000
M205 X10 Y10
G1 F1200 Z0.275
G0 F6000 X127.512 Y98.569 Z0.275
M204 S1000
M205 X8 Y8
;TYPE:SKIRT
G1 F1200 Z0.2
G1 F3600 E0
G1 F2400 X128.095 Y97.83 E0.04997
G1 X128.677 Y97.141 E0.09784
G1 X129.025 Y96.75 E0.12563
G1 X129.667 Y96.068 E0.17535
G1 X130.162 Y95.574 E0.21247
G1 X130.835 Y94.94 E0.26155
G1 X131.804 Y94.092 E0.3299
G1 X132.653 Y93.428 E0.38712
G1 X133.731 Y92.639 E0.45803
G1 X135.005 Y91.827 E0.53823
G1 X135.832 Y91.347 E0.58899
G1 X136.935 Y90.753 E0.65549
G1 X138.166 Y90.186 E0.72743
G1 X138.97 Y89.85 E0.77369
G1 X139.863 Y89.51 E0.82441
G1 X141.117 Y89.089 E0.89463
G1 X142.365 Y88.745 E0.96335
G1 X143.268 Y88.533 E1.01258
G1 X144.167 Y88.352 E1.06126
G1 X144.684 Y88.263 E1.08911
G1 X145.628 Y88.128 E1.13973
G1 X146.497 Y88.033 E1.18614
G1 X147.445 Y87.961 E1.2366
G1 X148.182 Y87.929 E1.27576
G1 X149.005 Y87.916 E1.31946
G1 X153.354 Y87.919 E1.55031
G1 X154.493 Y87.958 E1.61081
G1 X155.71 Y88.053 E1.67561
G1 X156.403 Y88.132 E1.71263
G1 X157.13 Y88.234 E1.7516
G1 X158.041 Y88.392 E1.80068
G1 X158.719 Y88.528 E1.83739
G1 X159.631 Y88.743 E1.88713
G1 X160.137 Y88.877 E1.91492
G1 X161.001 Y89.13 E1.96271
G1 X162.32 Y89.576 E2.03662
G1 X163.037 Y89.852 E2.0774
G1 X164.1 Y90.304 E2.13872
G1 X164.94 Y90.701 E2.18804
G1 X165.563 Y91.018 E2.22514
G1 X166.212 Y91.37 E2.26433
G1 X167.209 Y91.958 E2.32578
G1 X167.98 Y92.453 E2.37441
G1 X168.588 Y92.871 E2.41358
G1 X169.346 Y93.427 E2.46348
G1 X170.188 Y94.085 E2.52021
G1 X171.154 Y94.931 E2.58837
G1 X171.848 Y95.583 E2.63892
G1 X172.342 Y96.078 E2.67604
G1 X173.013 Y96.792 E2.72805
G1 X173.821 Y97.715 E2.79317
G1 X174.488 Y98.568 E2.85065
G1 X175.373 Y99.786 E2.93057
G1 X176.071 Y100.89 E2.9999
G1 X176.44 Y101.517 E3.03852
G1 X176.779 Y102.127 E3.07557
G1 X177.125 Y102.792 E3.11536
G1 X177.603 Y103.796 E3.17439
G1 X177.912 Y104.506 E3.21549
G1 X178.238 Y105.323 E3.26218
G1 X178.503 Y106.052 E3.30336
G1 X178.843 Y107.098 E3.36174
G1 X179.045 Y107.797 E3.40037
G1 X179.178 Y108.305 E3.42824
G1 X179.379 Y109.158 E3.47476
G1 X179.486 Y109.671 E3.50258
G1 X179.654 Y110.611 E3.55327
G1 X179.813 Y111.747 E3.61416
G1 X179.905 Y112.651 E3.66239
G1 X179.944 Y113.173 E3.69018
G1 X179.987 Y114.098 E3.73934
G1 X180 Y114.917 E3.78282
G1 X180.001 Y149.992 E5.64471
G1 X180.019 Y150.603 E5.67716
G1 X180.082 Y151.424 E5.72087
G1 X180.217 Y152.279 E5.76681
G1 X180.383 Y153.048 E5.80858
G1 X180.628 Y153.935 E5.85742
G1 X180.974 Y154.853 E5.9095
G1 X181.219 Y155.409 E5.94175
G1 X181.474 Y155.93 E5.97254
G1 X181.874 Y156.645 E6.01603
G1 X182.409 Y157.465 E6.06801
G1 X182.962 Y158.18 E6.11599
G1 X183.534 Y158.83 E6.16195
G1 X184.189 Y159.48 E6.21094
G1 X184.728 Y159.942 E6.24862
G1 X185.208 Y160.32 E6.28105
G1 X185.817 Y160.751 E6.32066
G1 X186.304 Y161.058 E6.35122
G1 X186.82 Y161.353 E6.38277
G1 X187.388 Y161.642 E6.4166
G1 X188.019 Y161.923 E6.45326
G1 X189.062 Y162.313 E6.51237
G1 X189.935 Y162.549 E6.56038
G1 X190.736 Y162.721 E6.60387
G1 X191.726 Y162.86 E6.65693
G1 X192.56 Y162.907 E6.70128
G1 X193.06 Y162.916 E6.72782
G1 X201 Y162.916 E7.1493
G1 X201.747 Y162.956 E7.18901
G1 X202.485 Y163.075 E7.22869
G1 X203.207 Y163.273 E7.26844
G1 X203.903 Y163.546 E7.30812
G1 X204.566 Y163.893 E7.34784
G1 X205.189 Y164.308 E7.38758
G1 X205.763 Y164.787 E7.42727
G1 X206.284 Y165.324 E7.46698
G1 X206.743 Y165.914 E7.50666
G1 X207.138 Y166.55 E7.54641
G1 X207.462 Y167.224 E7.5861
G1 X207.712 Y167.929 E7.62581
G1 X207.886 Y168.657 E7.66554
G1 X207.981 Y169.399 E7.70525
G1 X208 Y169.918 E7.73282
G1 X207.99 Y201.628 E9.41609
G1 X207.96 Y202.27 E9.45021
G1 X207.846 Y203.503 E9.51594
G1 X207.753 Y204.165 E9.55142
G1 X207.596 Y204.992 E9.59611
G1 X207.48 Y205.501 E9.62382
G1 X207.258 Y206.328 E9.66927
G1 X207.053 Y206.966 E9.70484
G1 X206.793 Y207.661 E9.74423
G1 X206.39 Y208.546 E9.79585
G1 X205.968 Y209.324 E9.84284
G1 X205.577 Y209.961 E9.88251
G1 X205.159 Y210.508 E9.91906
G1 X204.752 Y210.989 E9.9525
G1 X204.239 Y211.533 E9.9922
G1 X203.531 Y212.139 E10.04167
G1 X202.77 Y212.658 E10.09056
G1 X201.712 Y213.201 E10.15369
G1 X200.778 Y213.54 E10.20643
G1 X200.051 Y213.719 E10.24618
G1 X199.366 Y213.818 E10.28292
G1 X198.525 Y213.869 E10.32764
G1 X183.419 Y213.867 E11.12952
G1 X182.672 Y213.827 E11.16923
G1 X182.047 Y213.738 E11.20274
G1 X181.232 Y213.545 E11.2472
G1 X180.075 Y213.108 E11.31285
G1 X179.197 Y212.638 E11.36572
G1 X178.2 Y211.925 E11.43078
G1 X177.484 Y211.259 E11.48269
G1 X176.976 Y210.686 E11.52334
G1 X176.402 Y209.92 E11.57415
G1 X176.037 Y209.356 E11.60981
G1 X175.604 Y208.601 E11.65601
G1 X175.148 Y207.531 E11.71775
G1 X174.88 Y206.79 E11.75958
G1 X174.63 Y205.954 E11.8059
G1 X174.424 Y205.107 E11.85217
G1 X174.235 Y204.084 E11.9074
G1 X174.151 Y203.484 E11.93956
G1 X174.066 Y202.6 E11.9867
G1 X174 Y201.437 E12.04853
G1 X173.998 Y181.918 E13.08466
G1 X168.003 Y181.922 E13.4029
G1 X168 Y206.87 E14.72722
G1 X167.96 Y207.617 E14.76693
G1 X167.84 Y208.355 E14.80662
G1 X167.643 Y209.077 E14.84634
G1 X167.369 Y209.773 E14.88605
G1 X167.023 Y210.436 E14.92575
G1 X166.608 Y211.058 E14.96544
G1 X166.129 Y211.633 E15.00517
G1 X165.591 Y212.153 E15.04488
G1 X165.001 Y212.613 E15.0846
G1 X164.365 Y213.007 E15.12431
G1 X163.691 Y213.331 E15.16401
G1 X162.986 Y213.581 E15.20372
G1 X162.259 Y213.755 E15.2434
G1 X161.517 Y213.85 E15.28311
G1 X161.001 Y213.869 E15.31052
G1 X156.001 Y213.87 E15.57593
G1 X155.254 Y213.83 E15.61564
G1 X154.516 Y213.711 E15.65532
G1 X153.794 Y213.513 E15.69506
G1 X153.098 Y213.24 E15.73475
G1 X152.435 Y212.894 E15.77445
G1 X151.812 Y212.479 E15.81419
G1 X151.238 Y212 E15.85387
G1 X151.001 Y211.756 E15.87193
G1 X150.592 Y212.153 E15.90218
G1 X150.002 Y212.612 E15.94187
G1 X149.366 Y213.007 E15.98161
G1 X148.692 Y213.331 E16.0213
G1 X147.987 Y213.581 E16.06101
G1 X147.259 Y213.755 E16.10074
G1 X146.517 Y213.85 E16.14045
G1 X146.001 Y213.869 E16.16786
G1 X141.001 Y213.87 E16.43328
G1 X140.254 Y213.83 E16.47299
G1 X139.516 Y213.711 E16.51267
G1 X138.794 Y213.513 E16.55241
G1 X138.098 Y213.24 E16.5921
G1 X137.435 Y212.894 E16.6318
G1 X136.812 Y212.479 E16.67153
G1 X136.238 Y212 E16.71122
G1 X135.717 Y211.463 E16.75094
G1 X135.257 Y210.873 E16.79065
G1 X134.863 Y210.237 E16.83036
G1 X134.539 Y209.563 E16.87006
G1 X134.288 Y208.858 E16.90978
G1 X134.114 Y208.131 E16.94947
G1 X134.019 Y207.389 E16.98918
G1 X134 Y206.871 E17.01669
G1 X133.997 Y181.917 E18.34133
G1 X127.997 Y181.918 E18.65983
G1 X127.984 Y201.628 E19.7061
G1 X127.964 Y202.155 E19.73409
G1 X127.89 Y203.127 E19.78584
G1 X127.743 Y204.182 E19.84238
G1 X127.653 Y204.692 E19.86987
G1 X127.42 Y205.773 E19.92857
G1 X127.134 Y206.748 E19.98251
G1 X126.794 Y207.658 E20.03408
G1 X126.396 Y208.534 E20.08515
G1 X125.984 Y209.297 E20.13118
G1 X125.594 Y209.935 E20.17088
G1 X125.088 Y210.607 E20.21553
G1 X124.297 Y211.483 E20.27818
G1 X123.58 Y212.098 E20.32833
G1 X122.744 Y212.65 E20.38151
G1 X122.269 Y212.917 E20.41043
G1 X121.598 Y213.248 E20.45015
G1 X120.896 Y213.506 E20.48985
G1 X119.951 Y213.736 E20.54148
G1 X119.052 Y213.85 E20.58958
G1 X118.542 Y213.869 E20.61667
G1 X103.383 Y213.868 E21.42136
G1 X102.636 Y213.828 E21.46107
G1 X101.608 Y213.648 E21.51647
G1 X100.757 Y213.391 E21.56366
G1 X99.883 Y213.018 E21.6141
G1 X99.084 Y212.567 E21.6628
G1 X98.397 Y212.077 E21.7076
G1 X97.726 Y211.477 E21.75538
G1 X97.196 Y210.949 E21.79509
G1 X96.67 Y210.314 E21.83886
G1 X96.081 Y209.416 E21.89587
G1 X95.75 Y208.831 E21.93155
G1 X95.316 Y207.954 E21.98349
G1 X95.002 Y207.125 E22.03055
G1 X94.749 Y206.351 E22.07378
G1 X94.604 Y205.843 E22.10182
G1 X94.436 Y205.158 E22.13926
G1 X94.322 Y204.593 E22.16986
G1 X94.209 Y203.884 E22.20797
G1 X94.105 Y203.033 E22.25348
G1 X94.028 Y202.086 E22.30391
G1 X94 Y201.059 E22.35845
G1 X94 Y169.916 E24.01162
G1 X94.04 Y169.169 E24.05133
G1 X94.159 Y168.431 E24.09101
G1 X94.357 Y167.709 E24.13075
G1 X94.63 Y167.013 E24.17044
G1 X94.977 Y166.35 E24.21016
G1 X95.392 Y165.727 E24.2499
G1 X95.871 Y165.153 E24.28958
G1 X96.408 Y164.632 E24.3293
G1 X96.998 Y164.173 E24.36898
G1 X97.634 Y163.778 E24.40872
G1 X98.308 Y163.454 E24.44842
G1 X99.013 Y163.204 E24.48813
G1 X99.741 Y163.03 E24.52786
G1 X100.483 Y162.935 E24.56757
G1 X100.999 Y162.916 E24.59498
G1 X109.069 Y162.915 E25.02336
G1 X109.85 Y162.891 E25.06484
G1 X110.499 Y162.829 E25.09944
G1 X111.356 Y162.7 E25.14545
G1 X111.949 Y162.577 E25.1776
G1 X112.919 Y162.321 E25.23085
G1 X113.986 Y161.921 E25.29134
G1 X114.585 Y161.654 E25.32615
G1 X115.117 Y161.389 E25.3577
G1 X115.705 Y161.053 E25.39365
G1 X116.46 Y160.571 E25.4412
G1 X117.239 Y159.972 E25.49336
G1 X117.834 Y159.457 E25.53514
G1 X118.355 Y158.941 E25.57406
G1 X118.751 Y158.513 E25.60501
G1 X119.099 Y158.1 E25.63368
G1 X119.583 Y157.475 E25.67564
G1 X120.109 Y156.675 E25.72647
G1 X120.487 Y156.001 E25.76749
G1 X120.752 Y155.481 E25.79847
G1 X121.029 Y154.843 E25.83539
G1 X121.365 Y153.954 E25.88584
G1 X121.664 Y152.879 E25.94507
G1 X121.814 Y152.098 E25.98729
G1 X121.927 Y151.322 E26.02891
G1 X121.997 Y150.366 E26.0798
G1 X122.003 Y114.566 E27.98017
G1 X122.031 Y113.628 E28.02999
G1 X122.111 Y112.477 E28.09123
G1 X122.216 Y111.513 E28.14271
G1 X122.318 Y110.787 E28.18163
G1 X122.473 Y109.887 E28.2301
G1 X122.615 Y109.184 E28.26817
G1 X122.885 Y108.066 E28.32923
G1 X123.145 Y107.141 E28.38023
G1 X123.542 Y105.915 E28.44864
G1 X124.015 Y104.683 E28.51869
G1 X124.397 Y103.798 E28.56986
G1 X124.768 Y103.01 E28.61609
G1 X125.117 Y102.323 E28.657
G1 X125.659 Y101.346 E28.71631
G1 X126.168 Y100.506 E28.76844
G1 X126.837 Y99.497 E28.83271
G1 X127.512 Y98.569 E28.89362
M204 S5000
M205 X10 Y10
G0 F6000 X127.954 Y98.913
M204 S1000
M205 X8 Y8
G1 F2400 X128.524 Y98.19 E28.94249
G1 X129.095 Y97.513 E28.98951
G1 X129.443 Y97.122 E29.01729
G1 X129.919 Y96.613 E29.05429
G1 X130.708 Y95.825 E29.11348
G1 X131.217 Y95.349 E29.15047
G1 X132.163 Y94.521 E29.21721
G1 X132.998 Y93.869 E29.27344
G1 X134.044 Y93.104 E29.34223
G1 X135.288 Y92.31 E29.42057
G1 X136.097 Y91.84 E29.47024
G1 X137.178 Y91.258 E29.53541
G1 X138.382 Y90.703 E29.60579
G1 X139.405 Y90.28 E29.66455
G1 X140.06 Y90.034 E29.70169
G1 X141.28 Y89.625 E29.76999
G1 X142.495 Y89.289 E29.83691
G1 X143.38 Y89.081 E29.88517
G1 X144.065 Y88.941 E29.92228
G1 X144.779 Y88.815 E29.96077
G1 X145.689 Y88.685 E30.00957
G1 X146.777 Y88.57 E30.06764
G1 X147.472 Y88.52 E30.10463
G1 X148.191 Y88.489 E30.14283
G1 X149.004 Y88.476 E30.186
G1 X153.353 Y88.479 E30.41685
G1 X154.471 Y88.518 E30.47624
G1 X155.646 Y88.609 E30.5388
G1 X156.339 Y88.688 E30.57582
G1 X157.257 Y88.821 E30.62506
G1 X157.943 Y88.943 E30.66205
G1 X158.607 Y89.077 E30.69801
G1 X159.488 Y89.285 E30.74606
G1 X160.173 Y89.469 E30.78371
G1 X161.081 Y89.743 E30.83405
G1 X162.121 Y90.1 E30.89242
G1 X162.821 Y90.369 E30.93223
G1 X163.862 Y90.811 E30.99226
G1 X164.687 Y91.2 E31.04068
G1 X165.31 Y91.517 E31.07779
G1 X165.943 Y91.861 E31.11603
G1 X166.909 Y92.431 E31.17557
G1 X167.665 Y92.916 E31.22325
G1 X168.259 Y93.324 E31.2615
G1 X169.001 Y93.868 E31.31034
G1 X169.828 Y94.514 E31.36605
G1 X170.772 Y95.34 E31.43263
G1 X171.282 Y95.815 E31.46963
G1 X172.068 Y96.6 E31.5286
G1 X172.427 Y96.98 E31.55635
G1 X173.389 Y98.072 E31.6336
G1 X174.197 Y99.114 E31.70359
G1 X174.911 Y100.105 E31.76843
G1 X175.589 Y101.176 E31.83572
G1 X175.95 Y101.789 E31.87348
G1 X176.388 Y102.583 E31.92162
G1 X176.627 Y103.048 E31.94937
G1 X177.096 Y104.035 E32.00738
G1 X177.456 Y104.868 E32.05555
G1 X177.651 Y105.355 E32.08339
G1 X177.971 Y106.227 E32.1327
G1 X178.244 Y107.057 E32.17908
G1 X178.503 Y107.939 E32.22788
G1 X178.674 Y108.6 E32.26412
G1 X178.794 Y109.109 E32.29188
G1 X178.971 Y109.958 E32.33792
G1 X179.064 Y110.474 E32.36575
G1 X179.224 Y111.554 E32.42371
G1 X179.329 Y112.5 E32.47423
G1 X179.396 Y113.388 E32.5215
G1 X179.427 Y114.107 E32.55971
G1 X179.44 Y114.917 E32.60271
G1 X179.441 Y150.009 E34.4655
G1 X179.459 Y150.618 E34.49784
G1 X179.506 Y151.235 E34.53069
G1 X179.609 Y152.047 E34.57414
G1 X179.779 Y152.968 E34.62386
G1 X180.091 Y154.095 E34.68593
G1 X180.467 Y155.093 E34.74254
G1 X180.705 Y155.633 E34.77387
G1 X180.978 Y156.192 E34.80689
G1 X181.409 Y156.96 E34.85364
G1 X181.96 Y157.799 E34.90692
G1 X182.532 Y158.539 E34.95657
G1 X183.123 Y159.212 E35.00412
G1 X183.812 Y159.895 E35.05562
G1 X184.374 Y160.377 E35.09492
G1 X184.879 Y160.775 E35.12905
G1 X185.5 Y161.212 E35.16936
G1 X186.022 Y161.542 E35.20214
G1 X186.69 Y161.924 E35.24299
G1 X187.468 Y162.296 E35.28877
G1 X188.242 Y162.613 E35.33316
G1 X189.141 Y162.914 E35.38349
G1 X189.821 Y163.098 E35.42088
G1 X190.436 Y163.23 E35.45427
G1 X191.127 Y163.346 E35.49147
G1 X191.908 Y163.431 E35.53317
G1 X192.545 Y163.467 E35.56704
G1 X193.05 Y163.476 E35.59385
G1 X201 Y163.476 E36.01586
G1 X201.716 Y163.516 E36.05393
G1 X202.424 Y163.635 E36.09204
G1 X203.114 Y163.833 E36.13014
G1 X203.777 Y164.106 E36.1682
G1 X204.406 Y164.451 E36.20629
G1 X204.993 Y164.863 E36.24436
G1 X205.53 Y165.339 E36.28245
G1 X206.011 Y165.871 E36.32052
G1 X206.43 Y166.454 E36.35863
G1 X206.782 Y167.08 E36.39675
G1 X207.061 Y167.74 E36.43479
G1 X207.266 Y168.428 E36.4729
G1 X207.392 Y169.134 E36.51097
G1 X207.44 Y169.918 E36.55266
G1 X207.43 Y201.628 E38.23593
G1 X207.403 Y202.219 E38.26733
G1 X207.289 Y203.452 E38.33307
G1 X207.203 Y204.06 E38.36566
G1 X207 Y205.127 E38.42332
G1 X206.717 Y206.183 E38.48135
G1 X206.529 Y206.769 E38.51402
G1 X206.269 Y207.464 E38.55341
G1 X205.898 Y208.279 E38.60094
G1 X205.476 Y209.057 E38.64793
G1 X205.099 Y209.667 E38.68599
G1 X204.731 Y210.146 E38.71806
G1 X204.324 Y210.627 E38.7515
G1 X203.831 Y211.148 E38.78958
G1 X203.185 Y211.698 E38.83462
G1 X202.455 Y212.194 E38.88147
G1 X201.487 Y212.688 E38.93915
G1 X200.587 Y213.013 E38.98995
G1 X199.889 Y213.18 E39.02805
G1 X199.299 Y213.262 E39.05967
G1 X198.525 Y213.309 E39.10083
G1 X183.419 Y213.307 E39.9027
G1 X182.703 Y213.267 E39.94077
G1 X182.06 Y213.166 E39.97532
G1 X181.362 Y212.999 E40.01342
G1 X180.307 Y212.597 E40.07335
G1 X179.462 Y212.144 E40.12424
G1 X178.523 Y211.47 E40.1856
G1 X177.522 Y210.483 E40.26022
G1 X176.872 Y209.616 E40.31774
G1 X176.507 Y209.052 E40.3534
G1 X176.101 Y208.34 E40.39691
G1 X175.663 Y207.312 E40.45623
G1 X175.417 Y206.63 E40.49471
G1 X175.17 Y205.802 E40.54058
G1 X174.973 Y204.998 E40.58452
G1 X174.786 Y203.982 E40.63936
G1 X174.709 Y203.43 E40.66895
G1 X174.602 Y202.25 E40.73184
G1 X174.56 Y201.407 E40.77665
G1 X174.558 Y181.358 E41.84091
G1 X167.443 Y181.362 E42.2186
G1 X167.44 Y206.87 E43.57264
G1 X167.4 Y207.586 E43.61071
G1 X167.28 Y208.294 E43.64883
G1 X167.083 Y208.983 E43.68687
G1 X166.81 Y209.647 E43.72498
G1 X166.465 Y210.276 E43.76306
G1 X166.052 Y210.863 E43.80116
G1 X165.577 Y211.4 E43.83922
G1 X165.044 Y211.881 E43.87733
G1 X164.461 Y212.3 E43.91544
G1 X163.836 Y212.651 E43.95349
G1 X163.175 Y212.931 E43.9916
G1 X162.487 Y213.135 E44.02969
G1 X161.781 Y213.261 E44.06776
G1 X161.001 Y213.309 E44.10924
G1 X156.001 Y213.31 E44.37466
G1 X155.285 Y213.27 E44.41273
G1 X154.577 Y213.151 E44.45084
G1 X153.888 Y212.954 E44.48888
G1 X153.224 Y212.681 E44.52699
G1 X152.595 Y212.336 E44.56507
G1 X152.008 Y211.923 E44.60317
G1 X151.47 Y211.448 E44.64126
G1 X150.997 Y210.925 E44.6787
G1 X150.577 Y211.399 E44.71231
G1 X150.045 Y211.88 E44.75039
G1 X149.462 Y212.299 E44.7885
G1 X148.836 Y212.651 E44.82662
G1 X148.176 Y212.93 E44.86466
G1 X147.488 Y213.135 E44.90276
G1 X146.782 Y213.261 E44.94083
G1 X146.001 Y213.309 E44.98237
G1 X141.001 Y213.31 E45.24779
G1 X140.285 Y213.27 E45.28585
G1 X139.577 Y213.151 E45.32396
G1 X138.888 Y212.954 E45.362
G1 X138.224 Y212.681 E45.40011
G1 X137.595 Y212.336 E45.43819
G1 X137.008 Y211.923 E45.47629
G1 X136.47 Y211.448 E45.51439
G1 X135.989 Y210.916 E45.55246
G1 X135.57 Y210.333 E45.59057
