;FLAVOR:Marlin
;TIME:755
;Filament used: 0.537125m
;Layer height: 0.2
;MINX:135.57
;MINY:135.569
;MINZ:0.2
;MAXX:166.43
;MAXY:166.43
;MAXZ:10.4
;Generated with Cura_SteamEngine 5.2.1
M140 S80
M105
M190 S80
M104 S230
M105
M109 S230
M82 ;absolute extrusion mode
G28 ;Home
G1 Z15.0 F1200 ;Move the platform down 15mm
;Prime the extruder
G92 E0
G1 F200 E3
G92 E0
G92 E0
G92 E0
G1 F3600 E-6
;LAYER_COUNT:52
;LAYER:0
M107
M204 S5000
M205 X10 Y10
G1 F1200 Z0.275
G0 F6000 X137.969 Y138.328 Z0.275
M204 S1000
M205 X8 Y8
;TYPE:SKIRT
G1 F1200 Z0.2
G1 F3600 E0
G1 F2400 X138.329 Y137.968 E0.02703
G1 X138.886 Y137.468 E0.06676
G1 X139.492 Y137.031 E0.10642
G1 X140.142 Y136.66 E0.14615
G1 X140.828 Y136.361 E0.18587
G1 X141.542 Y136.137 E0.22559
G1 X142.275 Y135.99 E0.26528
G1 X143.279 Y135.918 E0.31871
G1 X144.715 Y135.918 E0.39494
G1 X145.462 Y135.958 E0.43465
G1 X145.85 Y136.021 E0.45551
G1 X146.612 Y135.803 E0.49759
G1 X147.527 Y135.647 E0.54686
G1 X148.572 Y135.569 E0.60248
G1 X153.72 Y135.569 E0.87576
G1 X154.467 Y135.609 E0.91547
G1 X155.205 Y135.728 E0.95515
G1 X155.927 Y135.926 E0.99489
G1 X156.156 Y136.016 E1.00795
G1 X156.299 Y135.988 E1.01569
G1 X157.284 Y135.918 E1.0681
G1 X158.722 Y135.918 E1.14444
G1 X159.469 Y135.958 E1.18415
G1 X160.207 Y136.077 E1.22383
G1 X160.929 Y136.275 E1.26357
G1 X161.625 Y136.548 E1.30326
G1 X162.288 Y136.895 E1.34298
G1 X162.911 Y137.31 E1.38272
G1 X163.672 Y137.968 E1.43612
G1 X164.032 Y138.328 E1.46314
G1 X164.532 Y138.885 E1.50288
G1 X164.969 Y139.491 E1.54254
G1 X165.34 Y140.141 E1.58227
G1 X165.639 Y140.827 E1.62199
G1 X165.863 Y141.541 E1.66171
G1 X166.01 Y142.274 E1.7014
G1 X166.082 Y143.278 E1.75483
G1 X166.082 Y144.714 E1.83106
G1 X166.042 Y145.461 E1.87077
G1 X165.98 Y145.844 E1.89136
G1 X166.097 Y146.171 E1.9098
G1 X166.274 Y146.898 E1.94952
G1 X166.392 Y147.746 E1.99497
G1 X166.43 Y148.594 E2.04003
G1 X166.43 Y150.561 E2.14444
G1 X166.39 Y151.308 E2.18415
G1 X166.411 Y151.693 E2.20462
G1 X166.43 Y152.21 E2.23208
G1 X166.43 Y153.579 E2.30475
G1 X166.39 Y154.326 E2.34446
G1 X166.263 Y155.137 E2.38804
G1 X166.04 Y155.99 E2.43484
G1 X165.982 Y156.144 E2.44357
G1 X166.011 Y156.293 E2.45163
G1 X166.082 Y157.284 E2.50437
G1 X166.082 Y158.722 E2.5807
G1 X166.042 Y159.469 E2.62041
G1 X165.923 Y160.207 E2.6601
G1 X165.725 Y160.929 E2.69984
G1 X165.452 Y161.625 E2.73952
G1 X165.105 Y162.288 E2.77925
G1 X164.69 Y162.911 E2.81898
G1 X164.032 Y163.672 E2.87239
G1 X163.672 Y164.032 E2.89941
G1 X163.115 Y164.532 E2.93914
G1 X162.509 Y164.969 E2.9788
G1 X161.859 Y165.34 E3.01853
G1 X161.173 Y165.639 E3.05826
G1 X160.459 Y165.863 E3.09798
G1 X159.726 Y166.01 E3.13766
G1 X158.722 Y166.082 E3.1911
G1 X157.285 Y166.082 E3.26738
G1 X156.538 Y166.042 E3.30709
G1 X156.146 Y165.979 E3.32816
G1 X155.821 Y166.093 E3.34644
G1 X155.002 Y166.29 E3.39116
G1 X154.117 Y166.408 E3.43855
G1 X153.561 Y166.43 E3.46809
G1 X151.328 Y166.43 E3.58663
G1 X150.682 Y166.43 E3.62092
G1 X148.317 Y166.427 E3.74646
G1 X147.57 Y166.386 E3.78617
G1 X146.832 Y166.266 E3.82586
G1 X146.111 Y166.067 E3.86557
G1 X145.893 Y165.974 E3.87815
G1 X145.701 Y166.012 E3.88854
G1 X144.716 Y166.082 E3.94096
G1 X143.279 Y166.082 E4.01724
G1 X142.532 Y166.042 E4.05695
G1 X141.794 Y165.923 E4.09663
G1 X141.072 Y165.725 E4.13637
G1 X140.376 Y165.452 E4.17606
G1 X139.713 Y165.105 E4.21578
G1 X139.09 Y164.69 E4.25552
G1 X138.329 Y164.032 E4.30892
G1 X137.969 Y163.672 E4.33594
G1 X137.469 Y163.115 E4.37568
G1 X137.032 Y162.509 E4.41534
G1 X136.661 Y161.859 E4.45507
G1 X136.362 Y161.173 E4.49479
G1 X136.138 Y160.459 E4.53451
G1 X135.991 Y159.726 E4.5742
G1 X135.919 Y158.722 E4.62763
G1 X135.919 Y157.285 E4.70391
G1 X135.959 Y156.538 E4.74362
G1 X136.024 Y156.136 E4.76524
G1 X135.77 Y155.294 E4.81192
G1 X135.632 Y154.559 E4.85162
G1 X135.57 Y153.633 E4.90088
G1 X135.57 Y152.208 E4.97653
G1 X135.61 Y151.461 E5.01624
G1 X135.626 Y151.361 E5.02161
G1 X135.57 Y150.864 E5.04816
G1 X135.57 Y148.267 E5.18602
G1 X135.61 Y147.52 E5.22573
G1 X135.729 Y146.782 E5.26541
G1 X135.927 Y146.06 E5.30515
G1 X136.015 Y145.835 E5.31798
G1 X135.989 Y145.7 E5.32527
G1 X135.919 Y144.715 E5.37769
G1 X135.919 Y143.278 E5.45397
G1 X135.959 Y142.531 E5.49368
G1 X136.078 Y141.793 E5.53337
G1 X136.276 Y141.071 E5.57311
G1 X136.549 Y140.375 E5.61279
G1 X136.896 Y139.712 E5.65252
G1 X137.311 Y139.089 E5.69225
G1 X137.969 Y138.328 E5.74566
M204 S5000
M205 X10 Y10
G0 F6000 X138.365 Y138.724
M204 S1000
M205 X8 Y8
G1 F2400 X138.725 Y138.364 E5.77268
G1 X139.26 Y137.886 E5.81076
G1 X139.845 Y137.47 E5.84887
G1 X140.472 Y137.122 E5.88694
G1 X141.134 Y136.846 E5.92501
G1 X141.823 Y136.645 E5.96311
G1 X142.53 Y136.522 E6.0012
G1 X143.279 Y136.478 E6.04103
G1 X144.715 Y136.478 E6.11726
G1 X145.431 Y136.518 E6.15532
G1 X145.918 Y136.6 E6.18154
G1 X146.239 Y136.481 E6.19971
G1 X147.389 Y136.218 E6.26233
G1 X148.572 Y136.129 E6.32531
G1 X153.72 Y136.129 E6.59858
G1 X154.436 Y136.169 E6.63665
G1 X155.144 Y136.288 E6.67476
G1 X155.834 Y136.486 E6.71286
G1 X156.104 Y136.597 E6.72836
G1 X156.494 Y136.527 E6.74939
G1 X157.284 Y136.478 E6.79141
G1 X158.722 Y136.478 E6.86774
G1 X159.438 Y136.518 E6.90581
G1 X160.146 Y136.637 E6.94392
G1 X160.836 Y136.835 E6.98202
G1 X161.499 Y137.108 E7.02009
G1 X162.128 Y137.453 E7.05817
G1 X162.715 Y137.865 E7.09624
G1 X163.276 Y138.364 E7.13609
G1 X163.636 Y138.724 E7.16312
G1 X164.114 Y139.259 E7.2012
G1 X164.53 Y139.844 E7.23931
G1 X164.878 Y140.471 E7.27737
G1 X165.154 Y141.133 E7.31544
G1 X165.355 Y141.822 E7.35354
G1 X165.478 Y142.529 E7.39164
G1 X165.522 Y143.278 E7.43146
G1 X165.522 Y144.714 E7.50769
G1 X165.482 Y145.43 E7.54576
G1 X165.405 Y145.89 E7.57052
G1 X165.594 Y146.444 E7.60159
G1 X165.748 Y147.145 E7.63969
G1 X165.843 Y148.005 E7.68562
G1 X165.87 Y148.594 E7.71692
G1 X165.87 Y150.561 E7.82133
G1 X165.83 Y151.277 E7.8594
G1 X165.822 Y151.428 E7.86742
G1 X165.87 Y152.21 E7.90901
G1 X165.87 Y153.579 E7.98168
G1 X165.83 Y154.295 E8.01975
G1 X165.714 Y155.031 E8.0593
G1 X165.497 Y155.848 E8.10418
G1 X165.402 Y156.095 E8.11822
G1 X165.473 Y156.489 E8.13947
G1 X165.522 Y157.284 E8.18176
G1 X165.522 Y158.722 E8.25809
G1 X165.482 Y159.438 E8.29616
G1 X165.363 Y160.146 E8.33427
G1 X165.165 Y160.836 E8.37237
G1 X164.892 Y161.499 E8.41043
G1 X164.547 Y162.128 E8.44851
G1 X164.135 Y162.715 E8.48658
G1 X163.636 Y163.276 E8.52644
G1 X163.276 Y163.636 E8.55346
G1 X162.741 Y164.114 E8.59155
G1 X162.156 Y164.53 E8.62965
G1 X161.529 Y164.878 E8.66772
G1 X160.867 Y165.154 E8.70579
G1 X160.178 Y165.355 E8.74389
G1 X159.471 Y165.478 E8.78198
G1 X158.722 Y165.522 E8.82181
G1 X157.285 Y165.522 E8.89809
G1 X156.569 Y165.482 E8.93616
G1 X156.108 Y165.404 E8.96098
G1 X155.495 Y165.603 E8.99519
G1 X154.754 Y165.758 E9.03538
G1 X153.907 Y165.87 E9.08073
G1 X151.328 Y165.87 E9.21763
G1 X150.683 Y165.87 E9.25187
G1 X148.318 Y165.867 E9.37741
G1 X147.602 Y165.826 E9.41548
G1 X146.894 Y165.706 E9.4536
G1 X146.205 Y165.508 E9.49165
G1 X145.943 Y165.394 E9.50682
G1 X145.506 Y165.473 E9.5304
G1 X144.716 Y165.522 E9.57241
G1 X143.279 Y165.522 E9.64869
G1 X142.563 Y165.482 E9.68676
G1 X141.855 Y165.363 E9.72487
G1 X141.165 Y165.165 E9.76297
G1 X140.502 Y164.892 E9.80104
G1 X139.873 Y164.547 E9.83912
G1 X139.286 Y164.135 E9.87719
G1 X138.725 Y163.636 E9.91704
G1 X138.365 Y163.276 E9.94407
G1 X137.887 Y162.741 E9.98215
G1 X137.471 Y162.156 E10.02026
G1 X137.123 Y161.529 E10.05832
G1 X136.847 Y160.867 E10.09639
G1 X136.646 Y160.178 E10.13449
G1 X136.523 Y159.471 E10.17259
G1 X136.479 Y158.722 E10.21241
G1 X136.479 Y157.285 E10.2887
G1 X136.519 Y156.569 E10.32676
G1 X136.603 Y156.069 E10.35368
G1 X136.513 Y155.82 E10.36773
G1 X136.307 Y155.133 E10.4058
G1 X136.179 Y154.427 E10.44389
G1 X136.13 Y153.633 E10.48612
G1 X136.13 Y152.208 E10.56176
G1 X136.17 Y151.492 E10.59983
G1 X136.167 Y151.252 E10.61257
G1 X136.13 Y150.56 E10.64936
G1 X136.13 Y148.267 E10.77108
G1 X136.17 Y147.551 E10.80914
G1 X136.289 Y146.843 E10.84725
G1 X136.487 Y146.153 E10.88536
G1 X136.597 Y145.887 E10.90064
G1 X136.528 Y145.505 E10.92124
G1 X136.479 Y144.715 E10.96326
G1 X136.479 Y143.278 E11.03954
G1 X136.519 Y142.562 E11.07761
G1 X136.638 Y141.854 E11.11572
G1 X136.836 Y141.164 E11.15382
G1 X137.109 Y140.501 E11.19188
G1 X137.454 Y139.872 E11.22997
G1 X137.866 Y139.285 E11.26804
G1 X138.365 Y138.724 E11.30789
M204 S5000
M205 X10 Y10
G0 F6000 X138.761 Y139.12
M204 S1000
M205 X8 Y8
G1 F2400 X139.121 Y138.76 E11.33492
G1 X139.633 Y138.305 E11.37128
G1 X140.195 Y137.912 E11.40768
G1 X140.799 Y137.587 E11.44409
G1 X141.436 Y137.334 E11.48047
G1 X142.099 Y137.158 E11.51688
G1 X142.777 Y137.059 E11.55326
G1 X143.279 Y137.038 E11.57993
G1 X144.715 Y137.038 E11.65616
G1 X145.399 Y137.078 E11.69253
G1 X145.954 Y137.176 E11.72244
G1 X146.579 Y136.965 E11.75746
G1 X147.499 Y136.77 E11.80738
G1 X148.572 Y136.689 E11.8645
G1 X153.72 Y136.689 E12.13777
G1 X154.404 Y136.729 E12.17414
G1 X155.079 Y136.848 E12.21053
G1 X155.736 Y137.045 E12.24694
G1 X156.033 Y137.174 E12.26413
G1 X156.684 Y137.069 E12.29913
G1 X157.284 Y137.038 E12.33102
G1 X158.722 Y137.038 E12.40736
G1 X159.406 Y137.078 E12.44373
G1 X160.081 Y137.197 E12.48011
G1 X160.738 Y137.394 E12.51652
G1 X161.367 Y137.667 E12.55292
G1 X161.961 Y138.01 E12.58933
G1 X162.51 Y138.421 E12.62573
G1 X162.88 Y138.76 E12.65237
G1 X163.24 Y139.12 E12.6794
G1 X163.695 Y139.632 E12.71576
G1 X164.088 Y140.194 E12.75216
G1 X164.413 Y140.798 E12.78857
G1 X164.666 Y141.435 E12.82495
G1 X164.842 Y142.098 E12.86137
G1 X164.941 Y142.776 E12.89774
G1 X164.962 Y143.278 E12.92441
G1 X164.962 Y144.714 E13.00064
G1 X164.922 Y145.398 E13.03701
G1 X164.825 Y145.947 E13.0666
G1 X164.877 Y146.06 E13.07321
G1 X165.086 Y146.713 E13.1096
G1 X165.273 Y147.791 E13.16768
G1 X165.31 Y148.594 E13.21035
G1 X165.31 Y150.561 E13.31476
G1 X165.27 Y151.245 E13.35114
G1 X165.241 Y151.409 E13.35998
G1 X165.31 Y152.21 E13.40265
G1 X165.31 Y153.579 E13.47532
G1 X165.27 Y154.263 E13.5117
G1 X165.163 Y154.925 E13.54729
G1 X164.955 Y155.703 E13.59004
G1 X164.825 Y156.03 E13.60872
G1 X164.931 Y156.679 E13.64363
G1 X164.962 Y157.284 E13.67579
G1 X164.962 Y158.722 E13.75212
G1 X164.922 Y159.406 E13.78849
G1 X164.803 Y160.081 E13.82487
G1 X164.606 Y160.738 E13.86128
G1 X164.333 Y161.367 E13.89768
G1 X163.99 Y161.961 E13.93409
G1 X163.579 Y162.51 E13.9705
G1 X163.24 Y162.88 E13.99714
G1 X162.88 Y163.24 E14.02416
G1 X162.368 Y163.695 E14.06052
G1 X161.806 Y164.088 E14.09692
G1 X161.202 Y164.413 E14.13333
G1 X160.565 Y164.666 E14.16972
G1 X159.902 Y164.842 E14.20613
G1 X159.224 Y164.941 E14.2425
G1 X158.722 Y164.962 E14.26917
G1 X157.285 Y164.962 E14.34545
G1 X156.601 Y164.922 E14.38182
G1 X156.043 Y164.824 E14.4119
G1 X155.833 Y164.913 E14.42401
G1 X154.822 Y165.186 E14.4796
G1 X153.863 Y165.31 E14.53093
G1 X151.328 Y165.31 E14.66549
G1 X150.684 Y165.31 E14.69968
G1 X148.319 Y165.307 E14.82522
G1 X147.634 Y165.266 E14.86165
G1 X146.959 Y165.146 E14.89804
G1 X146.303 Y164.948 E14.93441
G1 X146.008 Y164.818 E14.95153
G1 X145.316 Y164.931 E14.98875
G1 X144.716 Y164.962 E15.02064
G1 X143.279 Y164.962 E15.09692
G1 X142.595 Y164.922 E15.13329
G1 X141.92 Y164.803 E15.16967
G1 X141.263 Y164.606 E15.20608
G1 X140.634 Y164.333 E15.24248
G1 X140.04 Y163.99 E15.27889
G1 X139.491 Y163.579 E15.3153
G1 X139.121 Y163.24 E15.34194
G1 X138.761 Y162.88 E15.36896
G1 X138.306 Y162.368 E15.40532
G1 X137.913 Y161.806 E15.44172
G1 X137.588 Y161.202 E15.47813
G1 X137.335 Y160.565 E15.51452
G1 X137.159 Y159.902 E15.55093
G1 X137.06 Y159.224 E15.5873
G1 X137.039 Y158.722 E15.61397
G1 X137.039 Y157.285 E15.69025
G1 X137.079 Y156.601 E15.72662
G1 X137.182 Y156.015 E15.75821
G1 X137.04 Y155.63 E15.77999
G1 X136.845 Y154.973 E15.81637
G1 X136.728 Y154.297 E15.85279
G1 X136.69 Y153.633 E15.88809
G1 X136.69 Y152.208 E15.96374
G1 X136.73 Y151.524 E16.00011
G1 X136.755 Y151.384 E16.00766
G1 X136.69 Y150.56 E16.05153
G1 X136.69 Y148.267 E16.17325
G1 X136.73 Y147.583 E16.20962
G1 X136.849 Y146.908 E16.24601
G1 X137.046 Y146.251 E16.28242
G1 X137.173 Y145.957 E16.29942
G1 X137.07 Y145.315 E16.33393
G1 X137.039 Y144.715 E16.36582
G1 X137.039 Y143.278 E16.4421
G1 X137.079 Y142.594 E16.47848
G1 X137.198 Y141.919 E16.51486
G1 X137.395 Y141.262 E16.55127
G1 X137.668 Y140.633 E16.58767
G1 X138.011 Y140.039 E16.62408
G1 X138.422 Y139.49 E16.66048
G1 X138.761 Y139.12 E16.68712
M204 S5000
M205 X10 Y10
G0 F6000 X139.157 Y139.516
M204 S1000
M205 X8 Y8
G1 F2400 X139.517 Y139.156 E16.71415
G1 X140.006 Y138.724 E16.74878
G1 X140.543 Y138.355 E16.78337
G1 X141.122 Y138.055 E16.81799
G1 X141.733 Y137.828 E16.85259
G1 X142.368 Y137.677 E16.88723
G1 X143.279 Y137.598 E16.93577
G1 X144.715 Y137.598 E17.012
G1 X145.366 Y137.638 E17.04662
G1 X146.024 Y137.762 E17.08217
G1 X146.288 Y137.646 E17.09747
G1 X146.913 Y137.457 E17.13213
G1 X147.778 Y137.309 E17.17872
G1 X148.572 Y137.249 E17.22099
G1 X153.72 Y137.249 E17.49426
G1 X154.371 Y137.289 E17.52888
G1 X155.012 Y137.408 E17.56349
G1 X155.634 Y137.605 E17.59812
G1 X155.978 Y137.77 E17.61838
G1 X156.222 Y137.705 E17.63178
G1 X156.982 Y137.598 E17.67252
G1 X158.722 Y137.598 E17.76489
G1 X159.373 Y137.638 E17.79951
G1 X160.014 Y137.757 E17.83412
G1 X160.636 Y137.954 E17.86875
G1 X161.228 Y138.225 E17.90331
G1 X161.784 Y138.567 E17.93796
G1 X162.484 Y139.156 E17.98652
G1 X162.844 Y139.516 E18.01355
G1 X163.276 Y140.005 E18.04819
G1 X163.645 Y140.542 E18.08277
G1 X163.945 Y141.121 E18.11739
G1 X164.172 Y141.732 E18.15199
G1 X164.323 Y142.367 E18.18664
G1 X164.402 Y143.278 E18.23518
G1 X164.402 Y144.714 E18.3114
G1 X164.362 Y145.365 E18.34603
G1 X164.241 Y146.014 E18.38107
G1 X164.388 Y146.351 E18.40059
G1 X164.574 Y146.976 E18.4352
G1 X164.69 Y147.694 E18.47381
G1 X164.75 Y148.594 E18.52169
G1 X164.75 Y150.561 E18.62611
G1 X164.71 Y151.212 E18.66073
G1 X164.677 Y151.391 E18.67039
G1 X164.724 Y151.684 E18.68614
G1 X164.75 Y152.21 E18.7141
G1 X164.75 Y153.579 E18.78677
G1 X164.71 Y154.23 E18.82139
G1 X164.584 Y154.928 E18.85904
G1 X164.413 Y155.558 E18.8937
G1 X164.234 Y155.997 E18.91886
G1 X164.294 Y156.218 E18.93102
G1 X164.402 Y156.983 E18.97203
G1 X164.402 Y158.722 E19.06434
G1 X164.362 Y159.373 E19.09896
G1 X164.243 Y160.014 E19.13357
G1 X164.046 Y160.636 E19.1682
G1 X163.775 Y161.228 E19.20277
G1 X163.433 Y161.784 E19.23742
G1 X162.844 Y162.484 E19.28598
G1 X162.484 Y162.844 E19.313
G1 X161.995 Y163.276 E19.34764
G1 X161.458 Y163.645 E19.38223
G1 X160.879 Y163.945 E19.41684
G1 X160.268 Y164.172 E19.45144
G1 X159.633 Y164.323 E19.48609
G1 X158.722 Y164.402 E19.53463
G1 X157.285 Y164.402 E19.61091
G1 X156.634 Y164.362 E19.64553
G1 X155.989 Y164.242 E19.68036
G1 X155.494 Y164.436 E19.70858
G1 X154.699 Y164.639 E19.75214
G1 X153.812 Y164.75 E19.79959
G1 X151.328 Y164.75 E19.93145
G1 X150.684 Y164.75 E19.96563
G1 X148.319 Y164.747 E20.09118
G1 X147.668 Y164.706 E20.1258
G1 X147.028 Y164.586 E20.16037
G1 X146.406 Y164.389 E20.195
G1 X146.043 Y164.224 E20.21617
G1 X145.778 Y164.295 E20.23073
G1 X145.018 Y164.402 E20.27147
G1 X143.279 Y164.402 E20.36378
G1 X142.628 Y164.362 E20.39841
G1 X141.987 Y164.243 E20.43301
G1 X141.365 Y164.046 E20.46765
G1 X140.773 Y163.775 E20.50221
G1 X140.217 Y163.433 E20.53686
G1 X139.517 Y162.844 E20.58542
G1 X139.157 Y162.484 E20.61245
G1 X138.725 Y161.995 E20.64708
G1 X138.356 Y161.458 E20.68167
G1 X138.056 Y160.879 E20.71629
G1 X137.829 Y160.268 E20.75089
G1 X137.678 Y159.633 E20.78553
G1 X137.599 Y158.722 E20.83407
G1 X137.599 Y157.285 E20.91036
G1 X137.639 Y156.634 E20.94498
G1 X137.767 Y155.944 E20.98223
G1 X137.566 Y155.44 E21.01103
G1 X137.383 Y154.814 E21.04565
G1 X137.277 Y154.171 E21.08025
G1 X137.25 Y153.633 E21.10884
G1 X137.25 Y152.208 E21.18448
G1 X137.29 Y151.557 E21.21911
G1 X137.323 Y151.379 E21.22872
G1 X137.25 Y150.882 E21.25538
G1 X137.25 Y148.267 E21.39419
G1 X137.29 Y147.616 E21.42882
G1 X137.409 Y146.975 E21.46342
G1 X137.606 Y146.353 E21.49806
G1 X137.766 Y146.002 E21.51854
G1 X137.706 Y145.777 E21.5309
G1 X137.599 Y145.017 E21.57164
G1 X137.599 Y143.278 E21.66395
G1 X137.639 Y142.627 E21.69857
G1 X137.758 Y141.986 E21.73318
G1 X137.955 Y141.364 E21.76781
