;FLAVOR:Marlin
;TIME:24179
;Filament used: 34.7962m
;Layer height: 0.2
;MINX:35.503
;MINY:79.4
;MINZ:0.2
;MAXX:266.497
;MAXY:222.6
;MAXZ:15.2
;Generated with Cura_SteamEngine 5.2.1
M140 S80
M105
M190 S80
M104 S230
M105
M109 S230
M82 ;absolute extrusion mode
G28 ;Home
G1 Z15.0 F1200 ;Move the platform down 15mm
;Prime the extruder
G92 E0
G1 F200 E3
G92 E0
G92 E0
G92 E0
G1 F3600 E-6
;LAYER_COUNT:76
;LAYER:0
M107
M204 S5000
M205 X10 Y10
G1 F1200 Z0.275
G0 F6000 X40.44 Y80.536 Z0.275
M204 S1000
M205 X8 Y8
;TYPE:SKIRT
G1 F1200 Z0.2
G1 F3600 E0
G1 F2400 X41.108 Y80.199 E0.03972
G1 X41.748 Y79.955 E0.07607
G1 X42.225 Y79.799 E0.10272
G1 X42.948 Y79.605 E0.14245
G1 X43.726 Y79.472 E0.18435
G1 X44.777 Y79.403 E0.24026
G1 X147.425 Y79.403 E5.68914
G1 X148.502 Y79.473 E5.74643
G1 X149.441 Y79.647 E5.79713
G1 X149.977 Y79.799 E5.8267
G1 X150.454 Y79.955 E5.85334
G1 X150.994 Y80.164 E5.88408
G1 X151.584 Y79.941 E5.91756
G1 X152.062 Y79.787 E5.94422
G1 X152.786 Y79.596 E5.98397
G1 X153.486 Y79.479 E6.02164
G1 X154.538 Y79.4 E6.07764
G1 X257.234 Y79.404 E11.52907
G1 X258.326 Y79.476 E11.58716
G1 X259.268 Y79.653 E11.63804
G1 X259.815 Y79.81 E11.66825
G1 X260.291 Y79.968 E11.69487
G1 X260.988 Y80.242 E11.73463
G1 X261.833 Y80.678 E11.7851
G1 X262.66 Y81.22 E11.83759
G1 X263.401 Y81.822 E11.88827
G1 X264.098 Y82.522 E11.94071
G1 X264.609 Y83.141 E11.98332
G1 X265.35 Y84.287 E12.05576
G1 X265.768 Y85.167 E12.10747
G1 X266.048 Y85.928 E12.15052
G1 X266.295 Y86.847 E12.20103
G1 X266.428 Y87.619 E12.24262
G1 X266.497 Y88.673 E12.29869
G1 X266.497 Y213.324 E18.91556
G1 X266.431 Y214.368 E18.97109
G1 X266.263 Y215.3 E19.02136
G1 X266.107 Y215.858 E19.05211
G1 X265.948 Y216.346 E19.07936
G1 X265.678 Y217.043 E19.11904
G1 X265.232 Y217.922 E19.17136
G1 X264.438 Y219.083 E19.24602
G1 X263.771 Y219.826 E19.29902
G1 X263.178 Y220.358 E19.34131
G1 X262.596 Y220.827 E19.38099
G1 X261.765 Y221.362 E19.43345
G1 X260.874 Y221.81 E19.48639
G1 X260.216 Y222.059 E19.52374
G1 X259.738 Y222.213 E19.5504
G1 X259.014 Y222.404 E19.59015
G1 X258.314 Y222.521 E19.62782
G1 X257.262 Y222.6 E19.68382
G1 X154.566 Y222.596 E25.13525
G1 X153.474 Y222.524 E25.19334
G1 X152.532 Y222.347 E25.24422
G1 X151.985 Y222.19 E25.27443
G1 X151.509 Y222.032 E25.30105
G1 X151.005 Y221.834 E25.3298
G1 X150.452 Y222.045 E25.36122
G1 X149.975 Y222.201 E25.38786
G1 X149.252 Y222.395 E25.42759
G1 X148.474 Y222.528 E25.46949
G1 X147.423 Y222.597 E25.5254
G1 X44.775 Y222.597 E30.97428
G1 X43.698 Y222.527 E31.03158
G1 X42.759 Y222.353 E31.08227
G1 X42.223 Y222.201 E31.11184
G1 X41.746 Y222.045 E31.13848
G1 X41.049 Y221.775 E31.17816
G1 X40.193 Y221.337 E31.2292
G1 X39.362 Y220.796 E31.28184
G1 X38.812 Y220.35 E31.31943
G1 X38.439 Y220.015 E31.34604
G1 X37.91 Y219.486 E31.38576
G1 X37.393 Y218.862 E31.42877
G1 X36.65 Y217.713 E31.50141
G1 X36.232 Y216.833 E31.55312
G1 X35.952 Y216.072 E31.59616
G1 X35.705 Y215.153 E31.64668
G1 X35.572 Y214.381 E31.68826
G1 X35.503 Y213.327 E31.74433
G1 X35.503 Y88.676 E38.3612
G1 X35.573 Y87.599 E38.41849
G1 X35.747 Y86.66 E38.46919
G1 X35.977 Y85.848 E38.51399
G1 X36.324 Y84.953 E38.56494
G1 X36.668 Y84.259 E38.60606
G1 X37.407 Y83.116 E38.67831
G1 X38.038 Y82.375 E38.72997
G1 X38.44 Y81.984 E38.75974
G1 X38.813 Y81.649 E38.78636
G1 X39.395 Y81.18 E38.82603
G1 X40.006 Y80.785 E38.86466
G1 X40.44 Y80.536 E38.89122
M204 S5000
M205 X10 Y10
G0 F6000 X40.719 Y81.022
M204 S1000
M205 X8 Y8
G1 F2400 X41.36 Y80.7 E38.92929
G1 X41.922 Y80.487 E38.9612
G1 X42.399 Y80.331 E38.98784
G1 X43.092 Y80.146 E39.02591
G1 X43.945 Y80.017 E39.07171
G1 X44.777 Y79.963 E39.11597
G1 X147.425 Y79.963 E44.56485
G1 X148.433 Y80.028 E44.61847
G1 X149.474 Y80.224 E44.6747
G1 X150.28 Y80.487 E44.7197
G1 X151.014 Y80.774 E44.76154
G1 X151.178 Y80.692 E44.77127
G1 X151.756 Y80.474 E44.80406
G1 X152.234 Y80.32 E44.83072
G1 X153.398 Y80.046 E44.8942
G1 X154.538 Y79.96 E44.95489
G1 X257.234 Y79.964 E50.40632
G1 X258.255 Y80.031 E50.46063
G1 X259.303 Y80.23 E50.51725
G1 X260.115 Y80.5 E50.56268
G1 X260.782 Y80.764 E50.60076
G1 X261.559 Y81.168 E50.64725
G1 X262.353 Y81.689 E50.69766
G1 X263.036 Y82.247 E50.74447
G1 X263.7 Y82.918 E50.79458
G1 X264.231 Y83.584 E50.8398
G1 X264.861 Y84.558 E50.90138
G1 X265.261 Y85.407 E50.95119
G1 X265.569 Y86.298 E51.00124
G1 X265.754 Y86.992 E51.03936
G1 X265.882 Y87.834 E51.08457
G1 X265.937 Y88.673 E51.12921
G1 X265.937 Y213.324 E57.74608
G1 X265.875 Y214.302 E57.7981
G1 X265.711 Y215.2 E57.84655
G1 X265.574 Y215.684 E57.87326
G1 X265.415 Y216.172 E57.9005
G1 X265.155 Y216.841 E57.9386
G1 X264.742 Y217.648 E57.98672
G1 X263.986 Y218.755 E58.05788
G1 X263.184 Y219.6 E58.11972
G1 X262.804 Y219.941 E58.14683
G1 X262.244 Y220.39 E58.18493
G1 X261.475 Y220.881 E58.23336
G1 X260.622 Y221.308 E58.284
G1 X260.044 Y221.526 E58.31679
G1 X259.566 Y221.68 E58.34345
G1 X258.402 Y221.954 E58.40692
G1 X257.262 Y222.04 E58.46761
G1 X154.566 Y222.036 E63.91904
G1 X153.545 Y221.969 E63.97336
G1 X152.497 Y221.77 E64.02998
G1 X151.685 Y221.5 E64.0754
G1 X150.993 Y221.223 E64.11497
G1 X150.844 Y221.298 E64.12383
G1 X150.278 Y221.513 E64.15597
G1 X149.801 Y221.669 E64.18261
G1 X149.108 Y221.854 E64.22068
G1 X148.255 Y221.983 E64.26648
G1 X147.423 Y222.037 E64.31073
G1 X44.775 Y222.037 E69.75962
G1 X43.767 Y221.972 E69.81324
G1 X42.726 Y221.776 E69.86947
G1 X41.92 Y221.513 E69.91447
G1 X41.252 Y221.252 E69.95254
G1 X40.463 Y220.846 E69.99964
G1 X39.669 Y220.326 E70.05003
G1 X39.186 Y219.933 E70.08308
G1 X38.813 Y219.598 E70.10969
G1 X38.307 Y219.09 E70.14775
G1 X37.767 Y218.413 E70.19372
G1 X37.139 Y217.441 E70.25515
G1 X36.739 Y216.593 E70.30492
G1 X36.431 Y215.702 E70.35497
G1 X36.246 Y215.008 E70.39309
G1 X36.118 Y214.166 E70.4383
G1 X36.063 Y213.327 E70.48294
G1 X36.063 Y88.676 E77.09981
G1 X36.128 Y87.669 E77.15337
G1 X36.298 Y86.763 E77.2023
G1 X36.586 Y85.824 E77.25444
G1 X36.847 Y85.156 E77.29251
G1 X37.226 Y84.424 E77.33627
G1 X37.854 Y83.452 E77.3977
G1 X38.551 Y82.637 E77.45462
G1 X39.187 Y82.066 E77.49999
G1 X39.747 Y81.617 E77.5381
G1 X40.285 Y81.271 E77.57205
G1 X40.719 Y81.022 E77.59861
M204 S5000
M205 X10 Y10
G0 F6000 X40.998 Y81.508
M204 S1000
M205 X8 Y8
G1 F2400 X41.611 Y81.202 E77.63498
G1 X42.096 Y81.019 E77.6625
G1 X42.573 Y80.863 E77.68914
G1 X43.236 Y80.689 E77.72552
G1 X44.017 Y80.572 E77.76744
G1 X44.777 Y80.523 E77.80787
G1 X147.425 Y80.523 E83.25675
G1 X148.364 Y80.584 E83.3067
G1 X149.345 Y80.77 E83.35971
G1 X150.106 Y81.019 E83.40221
G1 X150.744 Y81.27 E83.4386
G1 X151.004 Y81.405 E83.45415
G1 X151.428 Y81.194 E83.47929
G1 X151.928 Y81.007 E83.50763
G1 X152.406 Y80.853 E83.53429
G1 X153.484 Y80.6 E83.59307
G1 X154.538 Y80.52 E83.64918
G1 X257.234 Y80.524 E89.10061
G1 X258.186 Y80.587 E89.15125
G1 X259.174 Y80.777 E89.20466
G1 X259.938 Y81.031 E89.2474
G1 X260.575 Y81.285 E89.2838
G1 X261.289 Y81.658 E89.32656
G1 X262.044 Y82.157 E89.3746
G1 X262.67 Y82.672 E89.41763
G1 X263.301 Y83.312 E89.46534
G1 X263.786 Y83.924 E89.5068
G1 X264.371 Y84.827 E89.56391
G1 X264.754 Y85.645 E89.61186
G1 X265.037 Y86.472 E89.65825
G1 X265.212 Y87.135 E89.69465
G1 X265.327 Y87.907 E89.73609
G1 X265.377 Y88.673 E89.77683
G1 X265.377 Y213.324 E96.39371
G1 X265.32 Y214.236 E96.44221
G1 X265.138 Y215.216 E96.49512
G1 X264.883 Y215.999 E96.53884
G1 X264.633 Y216.637 E96.57521
G1 X264.252 Y217.377 E96.61939
G1 X263.55 Y218.403 E96.68538
G1 X262.81 Y219.183 E96.74246
G1 X262.43 Y219.524 E96.76956
G1 X261.894 Y219.952 E96.80597
G1 X261.186 Y220.402 E96.8505
G1 X260.372 Y220.806 E96.89874
G1 X259.872 Y220.993 E96.92708
G1 X259.394 Y221.147 E96.95374
G1 X258.316 Y221.4 E97.01251
G1 X257.262 Y221.48 E97.06863
G1 X154.566 Y221.476 E102.52006
G1 X153.614 Y221.413 E102.5707
G1 X152.626 Y221.223 E102.62411
G1 X151.862 Y220.969 E102.66685
G1 X151.225 Y220.715 E102.70325
G1 X150.995 Y220.595 E102.71702
G1 X150.593 Y220.796 E102.74088
G1 X150.104 Y220.981 E102.76863
G1 X149.627 Y221.137 E102.79527
G1 X148.964 Y221.311 E102.83166
G1 X148.183 Y221.428 E102.87358
G1 X147.423 Y221.477 E102.91401
G1 X44.775 Y221.477 E108.36289
G1 X43.836 Y221.416 E108.41284
G1 X42.855 Y221.23 E108.46584
G1 X42.094 Y220.981 E108.50834
G1 X41.456 Y220.73 E108.54474
G1 X40.731 Y220.354 E108.58809
G1 X39.976 Y219.857 E108.63607
G1 X39.56 Y219.517 E108.66459
G1 X39.187 Y219.182 E108.69121
G1 X38.705 Y218.695 E108.72758
G1 X38.212 Y218.073 E108.76971
G1 X37.629 Y217.173 E108.82663
G1 X37.246 Y216.355 E108.87458
G1 X36.963 Y215.528 E108.92098
G1 X36.788 Y214.865 E108.95738
G1 X36.673 Y214.093 E108.99881
G1 X36.623 Y213.327 E109.03956
G1 X36.623 Y88.676 E115.65643
G1 X36.684 Y87.737 E115.70638
G1 X36.849 Y86.867 E115.75338
G1 X37.118 Y85.998 E115.80167
G1 X37.369 Y85.36 E115.83807
G1 X37.718 Y84.69 E115.87817
G1 X38.302 Y83.788 E115.93521
G1 X38.963 Y83.019 E115.98904
G1 X39.561 Y82.482 E116.0317
G1 X40.097 Y82.055 E116.06808
G1 X40.564 Y81.757 E116.09749
G1 X40.998 Y81.508 E116.12405
M204 S5000
M205 X10 Y10
G0 F6000 X41.277 Y81.994
M204 S1000
M205 X8 Y8
G1 F2400 X41.969 Y81.651 E116.16504
G1 X42.747 Y81.396 E116.20851
G1 X43.378 Y81.231 E116.24313
G1 X44.09 Y81.128 E116.28132
G1 X44.777 Y81.083 E116.31786
G1 X147.425 Y81.083 E121.76674
G1 X148.295 Y81.14 E121.81302
G1 X149.208 Y81.315 E121.86237
G1 X149.932 Y81.552 E121.90281
G1 X150.538 Y81.792 E121.93741
G1 X150.994 Y82.033 E121.96479
G1 X151.796 Y81.638 E122.01225
G1 X152.578 Y81.386 E122.05586
G1 X153.568 Y81.153 E122.10985
G1 X154.538 Y81.08 E122.16148
G1 X257.234 Y81.084 E127.61291
G1 X258.119 Y81.142 E127.65999
G1 X259.041 Y81.324 E127.70988
G1 X259.762 Y81.563 E127.7502
G1 X260.367 Y81.806 E127.78481
G1 X261.191 Y82.263 E127.83483
G1 X261.733 Y82.625 E127.86942
G1 X262.445 Y83.24 E127.91937
G1 X262.902 Y83.706 E127.95401
G1 X263.341 Y84.264 E127.9917
G1 X263.9 Y85.129 E128.04637
G1 X264.43 Y86.358 E128.11742
G1 X264.669 Y87.278 E128.16788
G1 X264.772 Y87.98 E128.20554
G1 X264.817 Y88.673 E128.24241
G1 X264.817 Y213.324 E134.85928
G1 X264.764 Y214.171 E134.90433
G1 X264.591 Y215.086 E134.95376
G1 X264.35 Y215.825 E134.99502
G1 X264.111 Y216.432 E135.02965
G1 X263.668 Y217.242 E135.07866
G1 X263.115 Y218.051 E135.13067
G1 X262.436 Y218.767 E135.18305
G1 X262.056 Y219.108 E135.21016
G1 X261.545 Y219.512 E135.24474
G1 X260.708 Y220.015 E135.29657
G1 X260.005 Y220.362 E135.33819
G1 X259.222 Y220.614 E135.38185
G1 X258.232 Y220.847 E135.43584
G1 X257.262 Y220.92 E135.48748
G1 X154.566 Y220.916 E140.93891
G1 X153.681 Y220.858 E140.98599
G1 X152.759 Y220.676 E141.03587
G1 X152.038 Y220.437 E141.07619
G1 X151.433 Y220.194 E141.1108
G1 X151.005 Y219.966 E141.13655
G1 X150.231 Y220.35 E141.18241
G1 X149.453 Y220.604 E141.22585
G1 X148.822 Y220.769 E141.26048
G1 X148.11 Y220.872 E141.29866
G1 X147.423 Y220.917 E141.33521
G1 X44.775 Y220.917 E146.78409
G1 X43.905 Y220.86 E146.83037
G1 X42.992 Y220.685 E146.87972
G1 X42.268 Y220.448 E146.92016
G1 X41.662 Y220.208 E146.95476
G1 X40.829 Y219.749 E147.00525
G1 X40.174 Y219.316 E147.04693
G1 X39.561 Y218.765 E147.09068
G1 X39.104 Y218.3 E147.12529
G1 X38.658 Y217.734 E147.16354
G1 X38.1 Y216.871 E147.21809
G1 X37.57 Y215.642 E147.28914
G1 X37.331 Y214.722 E147.3396
G1 X37.228 Y214.02 E147.37726
G1 X37.183 Y213.327 E147.41413
G1 X37.183 Y88.676 E154.031
G1 X37.24 Y87.806 E154.07728
G1 X37.4 Y86.972 E154.12236
G1 X37.65 Y86.172 E154.16685
G1 X38.1 Y85.129 E154.22715
G1 X38.75 Y84.123 E154.29073
G1 X39.374 Y83.403 E154.3413
G1 X39.935 Y82.899 E154.38134
G1 X40.552 Y82.41 E154.42313
G1 X41.277 Y81.994 E154.4675
M204 S5000
M205 X10 Y10
G0 F6000 X41.555 Y82.479
M204 S1000
M205 X8 Y8
G1 F2400 X42.198 Y82.164 E154.50551
G1 X42.921 Y81.928 E154.54588
G1 X43.938 Y81.698 E154.60123
G1 X44.777 Y81.643 E154.64586
G1 X147.425 Y81.643 E160.09474
G1 X148.264 Y81.698 E160.13937
G1 X149.281 Y81.928 E160.19472
G1 X149.758 Y82.084 E160.22136
G1 X150.33 Y82.313 E160.25407
G1 X150.999 Y82.682 E160.29463
G1 X151.369 Y82.471 E160.31724
G1 X152.016 Y82.155 E160.35546
G1 X152.749 Y81.919 E160.39633
G1 X153.652 Y81.707 E160.44557
G1 X154.538 Y81.64 E160.49274
G1 X257.234 Y81.644 E165.94417
G1 X258.084 Y81.701 E165.98939
G1 X259.11 Y81.936 E166.04526
G1 X259.586 Y82.094 E166.07189
G1 X260.157 Y82.326 E166.1046
G1 X260.909 Y82.747 E166.15035
G1 X261.421 Y83.091 E166.1831
G1 X262.07 Y83.656 E166.22877
G1 X262.784 Y84.431 E166.28471
G1 X263.409 Y85.397 E166.34578
G1 X263.817 Y86.347 E166.40067
G1 X263.972 Y86.821 E166.42714
G1 X264.201 Y87.831 E166.48212
G1 X264.257 Y88.673 E166.52691
G1 X264.257 Y213.324 E173.14378
G1 X264.206 Y214.14 E173.18718
G1 X263.977 Y215.164 E173.24288
G1 X263.818 Y215.652 E173.27013
G1 X263.589 Y216.224 E173.30283
G1 X263.182 Y216.964 E173.34766
G1 X262.679 Y217.7 E173.39498
G1 X262.062 Y218.35 E173.44256
G1 X261.682 Y218.691 E173.46966
G1 X261.197 Y219.072 E173.5024
G1 X260.431 Y219.529 E173.54975
G1 X259.784 Y219.845 E173.58797
G1 X259.051 Y220.081 E173.62885
G1 X258.148 Y220.293 E173.67809
G1 X257.262 Y220.36 E173.72525
G1 X154.566 Y220.356 E179.17668
G1 X153.716 Y220.299 E179.2219
G1 X152.69 Y220.064 E179.27778
G1 X152.214 Y219.906 E179.3044
G1 X151.643 Y219.674 E179.33712
G1 X151.001 Y219.316 E179.37614
G1 X150.648 Y219.519 E179.39775
G1 X150.006 Y219.834 E179.43571
G1 X149.279 Y220.072 E179.47632
G1 X148.262 Y220.302 E179.53167
G1 X147.423 Y220.357 E179.5763
G1 X44.775 Y220.357 E185.02518
G1 X43.936 Y220.302 E185.06982
G1 X42.919 Y220.072 E185.12516
G1 X42.442 Y219.916 E185.15181
G1 X41.87 Y219.687 E185.18451
G1 X41.109 Y219.264 E185.23073
G1 X40.511 Y218.865 E185.26889
G1 X39.935 Y218.348 E185.30998
G1 X39.215 Y217.568 E185.36632
G1 X38.591 Y216.603 E185.42733
G1 X38.183 Y215.653 E185.48221
G1 X38.028 Y215.179 E185.50868
G1 X37.799 Y214.169 E185.56366
G1 X37.743 Y213.327 E185.60845
G1 X37.743 Y88.676 E192.22532
G1 X37.798 Y87.837 E192.26995
G1 X38.028 Y86.821 E192.32525
G1 X38.183 Y86.347 E192.35172
G1 X38.591 Y85.397 E192.40661
G1 X39.216 Y84.43 E192.46773
G1 X39.936 Y83.651 E192.52404
G1 X40.309 Y83.316 E192.55065
G1 X40.88 Y82.866 E192.58924
G1 X41.555 Y82.479 E192.63054
M204 S5000
M205 X10 Y10
G0 F6000 X41.834 Y82.965
M204 S1000
M205 X8 Y8
G1 F2400 X42.618 Y82.616 E192.6761
G1 X43.095 Y82.46 E192.70274
G1 X44.011 Y82.252 E192.7526
G1 X44.777 Y82.203 E192.79335
G1 X147.425 Y82.203 E198.24223
G1 X148.191 Y82.252 E198.28297
G1 X149.107 Y82.46 E198.33283
G1 X149.584 Y82.616 E198.35947
G1 X150.375 Y82.969 E198.40546
G1 X150.993 Y83.343 E198.4438
G1 X151.647 Y82.957 E198.48411
G1 X152.236 Y82.673 E198.51882
G1 X152.921 Y82.452 E198.55703
G1 X153.736 Y82.261 E198.60147
G1 X154.538 Y82.2 E198.64416
G1 X257.234 Y82.204 E204.09559
G1 X258.012 Y82.256 E204.13698
G1 X258.933 Y82.468 E204.18715
G1 X259.409 Y82.626 E204.21377
G1 X260.379 Y83.062 E204.27023
G1 X261.108 Y83.556 E204.31697
G1 X261.695 Y84.072 E204.35846
G1 X262.339 Y84.771 E204.40891
G1 X262.917 Y85.663 E204.46533
G1 X263.285 Y86.521 E204.51489
G1 X263.44 Y86.995 E204.54136
G1 X263.646 Y87.905 E204.59089
G1 X263.697 Y88.673 E204.63175
G1 X263.697 Y213.324 E211.24862
G1 X263.65 Y214.071 E211.28835
G1 X263.444 Y214.99 E211.33835
G1 X263.285 Y215.478 E211.36559
G1 X262.851 Y216.459 E211.42253
G1 X262.243 Y217.348 E211.47971
G1 X261.688 Y217.933 E211.52251
G1 X261.308 Y218.274 E211.54961
G1 X260.851 Y218.63 E211.58036
G1 X260.153 Y219.043 E211.62342
G1 X259.564 Y219.327 E211.65813
G1 X258.879 Y219.548 E211.69634
G1 X258.064 Y219.739 E211.74077
G1 X257.262 Y219.8 E211.78347
G1 X154.566 Y219.796 E217.2349
G1 X153.788 Y219.744 E217.27629
G1 X152.867 Y219.532 E217.32645
G1 X152.391 Y219.374 E217.35308
G1 X151.601 Y219.018 E217.39907
G1 X151.002 Y218.67 E217.43585
G1 X150.369 Y219.033 E217.47458
G1 X149.582 Y219.384 E217.52033
G1 X149.105 Y219.54 E217.54697
G1 X148.189 Y219.748 E217.59683
G1 X147.423 Y219.797 E217.63757
G1 X44.775 Y219.797 E223.08646
G1 X44.009 Y219.748 E223.1272
G1 X43.093 Y219.54 E223.17706
G1 X42.616 Y219.384 E223.2037
G1 X42.08 Y219.166 E223.23442
G1 X41.389 Y218.779 E223.27646
G1 X40.85 Y218.417 E223.31093
G1 X40.31 Y217.932 E223.34945
G1 X39.66 Y217.229 E223.40028
G1 X39.083 Y216.336 E223.45672
G1 X38.715 Y215.479 E223.50623
