;FLAVOR:Marlin
;TIME:3385
;Filament used: 4.04951m
;Layer height: 0.2
;MINX:111.2
;MINY:96
;MINZ:0.2
;MAXX:190.8
;MAXY:194.5
;MAXZ:4.075
;Generated with Cura_SteamEngine 5.2.1
M140 S80
M105
M190 S80
M104 S230
M105
M109 S230
M82 ;absolute extrusion mode
G28 ;Home
G1 Z15.0 F1200 ;Move the platform down 15mm
;Prime the extruder
G92 E0
G1 F200 E3
G92 E0
G92 E0
G92 E0
G1 F3600 E-6
;LAYER_COUNT:20
;LAYER:0
M107
M204 S5000
M205 X10 Y10
G1 F1200 Z0.275
G0 F6000 X115.047 Y99.409 Z0.275
M204 S1000
M205 X8 Y8
;TYPE:SKIRT
G1 F1200 Z0.2
G1 F3600 E0
G1 F2400 X115.722 Y98.649 E0.05396
G1 X116.449 Y97.994 E0.1059
G1 X117.31 Y97.38 E0.16204
G1 X118.175 Y96.901 E0.21452
G1 X119.122 Y96.508 E0.26895
G1 X120.063 Y96.234 E0.32098
G1 X121.089 Y96.057 E0.37625
G1 X122.101 Y96 E0.43005
G1 X135.9 Y96 E1.16255
G1 X136.647 Y96.04 E1.20226
G1 X137.385 Y96.159 E1.24194
G1 X138.162 Y96.376 E1.28476
G1 X180.344 Y110.781 E3.65088
G1 X181.276 Y111.171 E3.70451
G1 X182.09 Y111.576 E3.75277
G1 X182.776 Y111.975 E3.7949
G1 X183.553 Y112.5 E3.84468
G1 X184.182 Y112.989 E3.88697
G1 X184.871 Y113.601 E3.93589
G1 X185.426 Y114.164 E3.97786
G1 X186.028 Y114.861 E4.02674
G1 X186.508 Y115.497 E4.06904
G1 X187.018 Y116.275 E4.11842
G1 X187.406 Y116.963 E4.16035
G1 X187.805 Y117.793 E4.20924
G1 X188.101 Y118.53 E4.2514
G1 X188.398 Y119.398 E4.30009
G1 X188.595 Y120.238 E4.34589
G1 X188.741 Y121.021 E4.38818
G1 X188.851 Y121.95 E4.43783
G1 X188.891 Y122.739 E4.47977
G1 X188.878 Y123.651 E4.52819
G1 X188.816 Y124.426 E4.56946
G1 X188.679 Y125.354 E4.61925
G1 X188.507 Y126.146 E4.66227
G1 X188.249 Y127.039 E4.71162
G1 X187.979 Y127.786 E4.75378
G1 X187.606 Y128.637 E4.8031
G1 X187.989 Y128.892 E4.82753
G1 X188.563 Y129.371 E4.86721
G1 X189.084 Y129.908 E4.90693
G1 X189.543 Y130.498 E4.94661
G1 X189.938 Y131.134 E4.98635
G1 X190.262 Y131.808 E5.02605
G1 X190.512 Y132.513 E5.06576
G1 X190.686 Y133.241 E5.10549
G1 X190.781 Y133.983 E5.1452
G1 X190.8 Y134.5 E5.17266
G1 X190.8 Y144.5 E5.70349
G1 X190.755 Y145.279 E5.74491
G1 X190.781 Y145.483 E5.75583
G1 X190.8 Y146 E5.78329
G1 X190.8 Y156 E6.31413
G1 X190.76 Y156.747 E6.35384
G1 X190.641 Y157.485 E6.39352
G1 X190.443 Y158.207 E6.43326
G1 X190.17 Y158.903 E6.47294
G1 X189.823 Y159.566 E6.51267
G1 X189.408 Y160.189 E6.5524
G1 X188.9 Y160.791 E6.59422
G1 X188.9 Y185.499 E7.9058
G1 X188.844 Y186.502 E7.95912
G1 X188.682 Y187.465 E8.01096
G1 X188.403 Y188.448 E8.0652
G1 X188.031 Y189.358 E8.11739
G1 X187.524 Y190.284 E8.17343
G1 X186.953 Y191.091 E8.2259
G1 X186.278 Y191.851 E8.27986
G1 X185.551 Y192.506 E8.33181
G1 X184.69 Y193.12 E8.38794
G1 X183.825 Y193.599 E8.44043
G1 X182.878 Y193.992 E8.49486
G1 X181.937 Y194.266 E8.54688
G1 X180.911 Y194.443 E8.60215
G1 X179.899 Y194.5 E8.65596
G1 X166.101 Y194.5 E9.3884
G1 X165.41 Y194.466 E9.42512
G1 X124.561 Y190.411 E11.60417
G1 X123.564 Y190.244 E11.65784
G1 X122.665 Y190.031 E11.70688
G1 X121.907 Y189.798 E11.74897
G1 X121.051 Y189.472 E11.7976
G1 X120.332 Y189.143 E11.83957
G1 X119.511 Y188.699 E11.88911
G1 X118.837 Y188.274 E11.93141
G1 X118.104 Y187.759 E11.97897
G1 X117.439 Y187.186 E12.02556
G1 X116.862 Y186.638 E12.0678
G1 X116.239 Y185.983 E12.11579
G1 X115.687 Y185.272 E12.16357
G1 X115.234 Y184.624 E12.20554
G1 X114.76 Y183.842 E12.25408
G1 X114.393 Y183.136 E12.29632
G1 X114.021 Y182.286 E12.34557
G1 X113.751 Y181.539 E12.38774
G1 X113.495 Y180.651 E12.43679
G1 X113.326 Y179.876 E12.4789
G1 X113.189 Y178.96 E12.52807
G1 X113.124 Y178.171 E12.57009
G1 X113.109 Y177.243 E12.61936
G1 X113.149 Y176.45 E12.66151
G1 X113.239 Y175.555 E12.70925
G1 X113.416 Y174.683 E12.75649
G1 X113.611 Y173.916 E12.7985
G1 X113.897 Y173.038 E12.84751
G1 X114.193 Y172.299 E12.88977
G1 X114.592 Y171.467 E12.93875
G1 X114.98 Y170.778 E12.98073
G1 X115.493 Y169.995 E13.03042
G1 X115.971 Y169.362 E13.07253
G1 X116.572 Y168.666 E13.12134
G1 X117.129 Y168.101 E13.16346
G1 X117.818 Y167.489 E13.21237
G1 X118.447 Y167 E13.25467
G1 X119.216 Y166.48 E13.30394
G1 X119.9 Y166.081 E13.34598
G1 X120.738 Y165.664 E13.39567
G1 X121.675 Y165.274 E13.44954
G1 X128.335 Y163 E13.82312
G1 X118.2 Y163 E14.36111
G1 X117.453 Y162.96 E14.40082
G1 X116.715 Y162.841 E14.4405
G1 X115.993 Y162.643 E14.48025
G1 X115.297 Y162.37 E14.51993
G1 X114.634 Y162.023 E14.55966
G1 X114.011 Y161.608 E14.59939
G1 X113.437 Y161.129 E14.63908
G1 X112.916 Y160.592 E14.67879
G1 X112.457 Y160.002 E14.71847
G1 X112.062 Y159.366 E14.75822
G1 X111.738 Y158.692 E14.79791
G1 X111.488 Y157.987 E14.83762
G1 X111.314 Y157.259 E14.87735
G1 X111.219 Y156.517 E14.91706
G1 X111.2 Y156 E14.94453
G1 X111.2 Y146 E15.47536
G1 X111.245 Y145.221 E15.51678
G1 X111.219 Y145.017 E15.52769
G1 X111.2 Y144.5 E15.55516
G1 X111.2 Y134.5 E16.08599
G1 X111.24 Y133.753 E16.1257
G1 X111.359 Y133.015 E16.16538
G1 X111.557 Y132.293 E16.20512
G1 X111.83 Y131.597 E16.24481
G1 X112.177 Y130.934 E16.28453
G1 X112.592 Y130.311 E16.32427
G1 X113.1 Y129.709 E16.36608
G1 X113.1 Y105.001 E17.67766
G1 X113.156 Y103.998 E17.73099
G1 X113.318 Y103.035 E17.78282
G1 X113.597 Y102.052 E17.83706
G1 X113.969 Y101.142 E17.88925
G1 X114.476 Y100.216 E17.94529
G1 X115.047 Y99.409 E17.99777
M204 S5000
M205 X10 Y10
G0 F6000 X115.505 Y99.734
M204 S1000
M205 X8 Y8
G1 F2400 X116.124 Y99.04 E18.04713
G1 X116.824 Y98.411 E18.09709
G1 X117.615 Y97.849 E18.1486
G1 X118.446 Y97.392 E18.19894
G1 X119.314 Y97.033 E18.2488
G1 X120.219 Y96.772 E18.2988
G1 X121.158 Y96.612 E18.34936
G1 X122.101 Y96.56 E18.3995
G1 X135.9 Y96.56 E19.13199
G1 X136.616 Y96.6 E19.17006
G1 X137.324 Y96.719 E19.20817
G1 X137.981 Y96.906 E19.24443
G1 X180.155 Y111.308 E21.61009
G1 X181.06 Y111.687 E21.66218
G1 X181.809 Y112.06 E21.70659
G1 X182.495 Y112.459 E21.74872
G1 X183.21 Y112.942 E21.79452
G1 X183.839 Y113.431 E21.83682
G1 X184.472 Y113.994 E21.88179
G1 X185.027 Y114.557 E21.92375
G1 X185.581 Y115.198 E21.96872
G1 X186.061 Y115.834 E22.01102
G1 X186.53 Y116.551 E22.0565
G1 X186.918 Y117.239 E22.09843
G1 X187.285 Y118.002 E22.14337
G1 X187.581 Y118.739 E22.18553
G1 X187.859 Y119.55 E22.23104
G1 X188.045 Y120.341 E22.27418
G1 X188.191 Y121.124 E22.31646
G1 X188.292 Y121.978 E22.36211
G1 X188.332 Y122.767 E22.40404
G1 X188.319 Y123.607 E22.44864
G1 X188.257 Y124.382 E22.48991
G1 X188.131 Y125.235 E22.53568
G1 X187.959 Y126.027 E22.5787
G1 X187.723 Y126.849 E22.6241
G1 X187.453 Y127.596 E22.66626
G1 X187.11 Y128.377 E22.71154
G1 X186.865 Y128.848 E22.73973
G1 X187.206 Y129.035 E22.76037
G1 X187.793 Y129.447 E22.79844
G1 X188.33 Y129.923 E22.83653
G1 X188.811 Y130.455 E22.8746
G1 X189.23 Y131.038 E22.91271
G1 X189.582 Y131.664 E22.95084
G1 X189.861 Y132.324 E22.98887
G1 X190.066 Y133.012 E23.02698
G1 X190.192 Y133.718 E23.06505
G1 X190.24 Y134.5 E23.10664
G1 X190.24 Y144.5 E23.63747
G1 X190.194 Y145.251 E23.67741
G1 X190.24 Y146 E23.71725
G1 X190.24 Y156 E24.24808
G1 X190.2 Y156.716 E24.28614
G1 X190.081 Y157.424 E24.32425
G1 X189.883 Y158.114 E24.36236
G1 X189.61 Y158.777 E24.40042
G1 X189.265 Y159.406 E24.4385
G1 X188.853 Y159.993 E24.47657
G1 X188.34 Y160.572 E24.51764
G1 X188.34 Y185.499 E25.84084
G1 X188.286 Y186.444 E25.89109
G1 X188.129 Y187.372 E25.94105
G1 X187.87 Y188.274 E25.99086
G1 X187.512 Y189.145 E26.04085
G1 X187.044 Y189.993 E26.09227
G1 X186.495 Y190.766 E26.1426
G1 X185.876 Y191.46 E26.19196
G1 X185.176 Y192.089 E26.24192
G1 X184.385 Y192.651 E26.29342
G1 X183.554 Y193.108 E26.34377
G1 X182.686 Y193.467 E26.39363
G1 X181.781 Y193.728 E26.44363
G1 X180.842 Y193.888 E26.49419
G1 X179.899 Y193.94 E26.54432
G1 X166.101 Y193.94 E27.27676
G1 X165.465 Y193.909 E27.31057
G1 X124.651 Y189.858 E29.48775
G1 X123.657 Y189.691 E29.54125
G1 X122.83 Y189.496 E29.58636
G1 X122.072 Y189.263 E29.62845
G1 X121.284 Y188.963 E29.67321
G1 X120.565 Y188.634 E29.71518
G1 X119.81 Y188.225 E29.76076
G1 X119.136 Y187.8 E29.80306
G1 X118.45 Y187.318 E29.84756
G1 X117.825 Y186.78 E29.89134
G1 X117.248 Y186.232 E29.93358
G1 X116.663 Y185.617 E29.97864
G1 X116.146 Y184.951 E30.02339
G1 X115.693 Y184.303 E30.06536
G1 X115.257 Y183.583 E30.11004
G1 X114.89 Y182.877 E30.15228
G1 X114.547 Y182.096 E30.19756
G1 X114.277 Y181.349 E30.23973
G1 X114.042 Y180.532 E30.28485
G1 X113.873 Y179.757 E30.32696
G1 X113.747 Y178.914 E30.37221
G1 X113.682 Y178.125 E30.41423
G1 X113.668 Y177.272 E30.45952
G1 X113.708 Y176.479 E30.50167
G1 X113.793 Y175.638 E30.54654
G1 X113.959 Y174.821 E30.59079
G1 X114.154 Y174.054 E30.6328
G1 X114.417 Y173.246 E30.67791
G1 X114.713 Y172.507 E30.72016
G1 X115.08 Y171.742 E30.7652
G1 X115.468 Y171.053 E30.80718
G1 X115.94 Y170.332 E30.85292
G1 X116.418 Y169.699 E30.89503
G1 X116.971 Y169.059 E30.93993
G1 X117.528 Y168.494 E30.98204
G1 X118.161 Y167.931 E31.02701
G1 X118.79 Y167.442 E31.06931
G1 X119.498 Y166.963 E31.11468
G1 X120.182 Y166.564 E31.15672
G1 X120.953 Y166.181 E31.20242
G1 X121.871 Y165.799 E31.2552
G1 X131.707 Y162.44 E31.80693
G1 X118.2 Y162.44 E32.52392
G1 X117.484 Y162.4 E32.56199
G1 X116.776 Y162.281 E32.6001
G1 X116.086 Y162.083 E32.63821
G1 X115.423 Y161.81 E32.67627
G1 X114.794 Y161.465 E32.71435
G1 X114.207 Y161.053 E32.75242
G1 X113.67 Y160.577 E32.79051
G1 X113.189 Y160.045 E32.82858
G1 X112.77 Y159.462 E32.86669
G1 X112.418 Y158.836 E32.90482
G1 X112.139 Y158.176 E32.94285
G1 X111.934 Y157.488 E32.98096
G1 X111.808 Y156.782 E33.01903
G1 X111.76 Y156 E33.06062
G1 X111.76 Y146 E33.59145
G1 X111.806 Y145.249 E33.63139
G1 X111.76 Y144.5 E33.67123
G1 X111.76 Y134.5 E34.20206
G1 X111.8 Y133.784 E34.24012
G1 X111.919 Y133.076 E34.27823
G1 X112.117 Y132.386 E34.31634
G1 X112.39 Y131.723 E34.3544
G1 X112.735 Y131.094 E34.39248
G1 X113.147 Y130.507 E34.43055
G1 X113.66 Y129.928 E34.47162
G1 X113.66 Y105.001 E35.79482
G1 X113.714 Y104.056 E35.84507
G1 X113.871 Y103.128 E35.89503
G1 X114.13 Y102.226 E35.94484
G1 X114.488 Y101.355 E35.99483
G1 X114.956 Y100.507 E36.04625
G1 X115.505 Y99.734 E36.09657
M204 S5000
M205 X10 Y10
G0 F6000 X115.961 Y100.059
M204 S1000
M205 X8 Y8
G1 F2400 X116.531 Y99.426 E36.14179
G1 X117.198 Y98.829 E36.18931
G1 X117.922 Y98.318 E36.23635
G1 X118.716 Y97.884 E36.28438
G1 X119.509 Y97.558 E36.3299
G1 X120.373 Y97.312 E36.37758
G1 X121.223 Y97.169 E36.42334
G1 X122.101 Y97.12 E36.47002
G1 X135.9 Y97.12 E37.20251
G1 X136.584 Y97.16 E37.23888
G1 X137.259 Y97.279 E37.27527
G1 X137.8 Y97.435 E37.30515
G1 X179.934 Y111.823 E39.66857
G1 X180.843 Y112.204 E39.72089
G1 X181.527 Y112.544 E39.76144
G1 X182.213 Y112.943 E39.80357
G1 X182.866 Y113.384 E39.84539
G1 X183.495 Y113.873 E39.88769
G1 X184.073 Y114.387 E39.92874
G1 X184.628 Y114.95 E39.97071
G1 X185.134 Y115.536 E40.01181
G1 X185.614 Y116.172 E40.05411
G1 X186.043 Y116.826 E40.09562
G1 X186.431 Y117.514 E40.13755
G1 X186.765 Y118.211 E40.17858
G1 X187.061 Y118.948 E40.22074
G1 X187.32 Y119.704 E40.26316
G1 X187.494 Y120.443 E40.30346
G1 X187.64 Y121.226 E40.34574
G1 X187.732 Y122.006 E40.38743
G1 X187.772 Y122.795 E40.42937
G1 X187.761 Y123.562 E40.47009
G1 X187.699 Y124.337 E40.51136
G1 X187.584 Y125.116 E40.55316
G1 X187.412 Y125.908 E40.59618
G1 X187.196 Y126.659 E40.63766
G1 X186.926 Y127.406 E40.67983
G1 X186.613 Y128.119 E40.72116
G1 X186.103 Y129.1 E40.77985
G1 X186.445 Y129.249 E40.79966
G1 X187.039 Y129.592 E40.83607
G1 X187.588 Y130.003 E40.87247
G1 X188.086 Y130.474 E40.90886
G1 X188.525 Y131 E40.94523
G1 X188.9 Y131.574 E40.98162
G1 X189.206 Y132.187 E41.01799
G1 X189.439 Y132.832 E41.0544
G1 X189.594 Y133.5 E41.0908
G1 X189.68 Y134.5 E41.14408
G1 X189.68 Y144.5 E41.67491
G1 X189.64 Y145.184 E41.71128
G1 X189.62 Y145.299 E41.71748
G1 X189.68 Y146 E41.75482
G1 X189.68 Y156 E42.28565
G1 X189.64 Y156.684 E42.32203
G1 X189.521 Y157.359 E42.35841
G1 X189.324 Y158.016 E42.39482
G1 X189.051 Y158.645 E42.43122
G1 X188.708 Y159.239 E42.46763
G1 X188.297 Y159.788 E42.50403
G1 X187.78 Y160.335 E42.54399
G1 X187.78 Y185.499 E43.87977
G1 X187.73 Y186.386 E43.92693
G1 X187.576 Y187.277 E43.97493
G1 X187.338 Y188.099 E44.02036
G1 X186.994 Y188.931 E44.06815
G1 X186.565 Y189.703 E44.11503
G1 X186.039 Y190.441 E44.16314
G1 X185.469 Y191.074 E44.20835
G1 X184.802 Y191.671 E44.25587
G1 X184.078 Y192.182 E44.30291
G1 X183.284 Y192.616 E44.35095
G1 X182.491 Y192.942 E44.39646
G1 X181.627 Y193.188 E44.44415
G1 X180.777 Y193.331 E44.4899
G1 X179.899 Y193.38 E44.53658
G1 X166.101 Y193.38 E45.26902
G1 X165.52 Y193.351 E45.2999
G1 X124.709 Y189.3 E47.47693
G1 X123.749 Y189.139 E47.5286
G1 X122.994 Y188.96 E47.56979
G1 X122.236 Y188.727 E47.61188
G1 X121.517 Y188.454 E47.65271
G1 X120.798 Y188.125 E47.69468
G1 X120.109 Y187.752 E47.73627
G1 X119.435 Y187.327 E47.77857
G1 X118.794 Y186.875 E47.8202
G1 X118.211 Y186.374 E47.86101
G1 X117.634 Y185.826 E47.90325
G1 X117.089 Y185.252 E47.94526
G1 X116.605 Y184.63 E47.9871
G1 X116.152 Y183.982 E48.02907
G1 X115.754 Y183.325 E48.06985
G1 X115.387 Y182.619 E48.11208
G1 X115.074 Y181.906 E48.15342
G1 X114.804 Y181.159 E48.19558
G1 X114.589 Y180.413 E48.23679
G1 X114.42 Y179.638 E48.2789
G1 X114.305 Y178.868 E48.32023
G1 X114.24 Y178.079 E48.36225
G1 X114.227 Y177.3 E48.40361
G1 X114.267 Y176.507 E48.44576
G1 X114.347 Y175.723 E48.48759
G1 X114.501 Y174.959 E48.52896
G1 X114.696 Y174.192 E48.57097
G1 X114.937 Y173.455 E48.61213
G1 X115.233 Y172.716 E48.65439
G1 X115.568 Y172.017 E48.69554
G1 X115.956 Y171.328 E48.73751
G1 X116.387 Y170.67 E48.77927
G1 X116.865 Y170.037 E48.82137
G1 X117.37 Y169.452 E48.8624
G1 X117.927 Y168.887 E48.90451
G1 X118.505 Y168.373 E48.94557
G1 X119.134 Y167.884 E48.98786
G1 X119.78 Y167.447 E49.02927
G1 X120.464 Y167.048 E49.0713
G1 X121.168 Y166.698 E49.11303
G1 X122.067 Y166.324 E49.16472
G1 X135.08 Y161.88 E49.89466
G1 X118.2 Y161.88 E50.79071
G1 X117.516 Y161.84 E50.82708
G1 X116.841 Y161.721 E50.86346
G1 X116.184 Y161.524 E50.89987
G1 X115.555 Y161.251 E50.93627
G1 X114.961 Y160.908 E50.97268
G1 X114.412 Y160.497 E51.00908
G1 X113.914 Y160.026 E51.04547
G1 X113.475 Y159.5 E51.08184
G1 X113.1 Y158.926 E51.11824
G1 X112.794 Y158.313 E51.1546
G1 X112.561 Y157.668 E51.19101
G1 X112.406 Y157 E51.22741
G1 X112.32 Y156 E51.28069
G1 X112.32 Y146 E51.81152
G1 X112.36 Y145.316 E51.84789
G1 X112.38 Y145.201 E51.85409
G1 X112.32 Y144.5 E51.89144
G1 X112.32 Y134.5 E52.42227
G1 X112.36 Y133.816 E52.45864
G1 X112.479 Y133.141 E52.49502
G1 X112.676 Y132.484 E52.53143
G1 X112.949 Y131.855 E52.56783
G1 X113.292 Y131.261 E52.60424
G1 X113.703 Y130.712 E52.64065
G1 X114.22 Y130.165 E52.6806
G1 X114.22 Y105.001 E54.01638
G1 X114.27 Y104.114 E54.06354
G1 X114.424 Y103.223 E54.11154
G1 X114.662 Y102.401 E54.15697
G1 X115.006 Y101.569 E54.20476
G1 X115.435 Y100.797 E54.25164
G1 X115.961 Y100.059 E54.29975
M204 S5000
M205 X10 Y10
G0 F6000 X116.417 Y100.386
M204 S1000
M205 X8 Y8
G1 F2400 X116.935 Y99.813 E54.34075
G1 X117.571 Y99.248 E54.38591
G1 X118.229 Y98.787 E54.42856
G1 X118.984 Y98.377 E54.47417
G1 X119.703 Y98.083 E54.5154
G1 X120.527 Y97.851 E54.56084
G1 X121.294 Y97.725 E54.6021
G1 X122.101 Y97.68 E54.64501
G1 X135.9 Y97.68 E55.3775
G1 X136.551 Y97.72 E55.41212
G1 X137.319 Y97.863 E55.45359
G1 X179.744 Y112.35 E57.83333
G1 X180.627 Y112.72 E57.88415
G1 X181.246 Y113.028 E57.92085
G1 X181.932 Y113.427 E57.96297
G1 X182.522 Y113.826 E58.00078
G1 X183.151 Y114.315 E58.04308
G1 X183.675 Y114.78 E58.08026
G1 X184.23 Y115.343 E58.12223
G1 X184.687 Y115.873 E58.15938
G1 X185.167 Y116.509 E58.20168
G1 X185.555 Y117.101 E58.23925
G1 X185.943 Y117.789 E58.28118
G1 X186.246 Y118.419 E58.31829
G1 X186.542 Y119.156 E58.36045
G1 X186.721 Y119.679 E58.38979
G1 X186.944 Y120.546 E58.43731
G1 X187.09 Y121.329 E58.47959
G1 X187.173 Y122.035 E58.51733
G1 X187.213 Y122.824 E58.55926
G1 X187.203 Y123.517 E58.59605
G1 X187.141 Y124.292 E58.63732
G1 X187.037 Y124.997 E58.67515
G1 X186.865 Y125.789 E58.71817
G1 X186.669 Y126.468 E58.75569
G1 X186.399 Y127.215 E58.79785
G1 X186.116 Y127.861 E58.83529
G1 X185.749 Y128.567 E58.87753
G1 X185.25 Y129.39 E58.92862
G1 X185.714 Y129.536 E58.95444
G1 X186.306 Y129.807 E58.989
G1 X186.862 Y130.149 E59.02365
G1 X187.371 Y130.557 E59.05828
G1 X187.827 Y131.023 E59.09289
G1 X188.222 Y131.542 E59.12751
G1 X188.55 Y132.105 E59.1621
