;FLAVOR:Marlin
;TIME:4170
;Filament used: 5.18229m
;Layer height: 0.2
;MINX:92.3
;MINY:68.005
;MINZ:0.2
;MAXX:178.16
;MAXY:233.995
;MAXZ:5
;Generated with Cura_SteamEngine 5.2.1
M140 S80
M105
M190 S80
M104 S230
M105
M109 S230
M82 ;absolute extrusion mode
G28 ;Home
G1 Z15.0 F1200 ;Move the platform down 15mm
;Prime the extruder
G92 E0
G1 F200 E3
G92 E0
G92 E0
G92 E0
G1 F3600 E-6
;LAYER_COUNT:25
;LAYER:0
M107
M204 S5000
M205 X10 Y10
G1 F1200 Z0.275
G0 F6000 X98.795 Y73.349 Z0.275
M204 S1000
M205 X8 Y8
;TYPE:SKIRT
G1 F1200 Z0.2
G1 F3600 E0
G1 F2400 X99.162 Y72.87 E0.03203
G1 X99.604 Y72.348 E0.06834
G1 X100.016 Y71.907 E0.10038
G1 X100.517 Y71.422 E0.13739
G1 X100.97 Y71.025 E0.16937
G1 X101.532 Y70.581 E0.20739
G1 X102.025 Y70.231 E0.23948
G1 X102.615 Y69.855 E0.27662
G1 X103.137 Y69.558 E0.3085
G1 X103.765 Y69.241 E0.34584
G1 X104.316 Y68.997 E0.37783
G1 X104.989 Y68.74 E0.41607
G1 X105.562 Y68.554 E0.44805
G1 X106.219 Y68.375 E0.4842
G1 X106.81 Y68.245 E0.51632
G1 X107.512 Y68.128 E0.5541
G1 X108.11 Y68.059 E0.58605
G1 X108.807 Y68.014 E0.62313
G1 X109.408 Y68.005 E0.65503
G1 X110.116 Y68.03 E0.69264
G1 X110.717 Y68.082 E0.72466
G1 X111.411 Y68.177 E0.76185
G1 X112.005 Y68.289 E0.79393
G1 X112.689 Y68.454 E0.83128
G1 X113.265 Y68.624 E0.86316
G1 X113.938 Y68.86 E0.90102
G1 X114.497 Y69.089 E0.93309
G1 X115.112 Y69.377 E0.96914
G1 X115.644 Y69.658 E1.00107
G1 X116.263 Y70.027 E1.03933
G1 X116.766 Y70.363 E1.07144
G1 X117.326 Y70.779 E1.10847
G1 X117.789 Y71.16 E1.1403
G1 X118.314 Y71.638 E1.17799
G1 X118.739 Y72.067 E1.21004
G1 X119.205 Y72.587 E1.24711
G1 X119.585 Y73.056 E1.27915
G1 X119.995 Y73.618 E1.31608
G1 X120.325 Y74.12 E1.34797
G1 X120.687 Y74.737 E1.38594
G1 X120.965 Y75.272 E1.41795
G1 X121.253 Y75.9 E1.45462
G1 X121.542 Y76.624 E1.496
G1 X133.752 Y112.376 E3.50146
G1 X134.526 Y112.018 E3.54673
G1 X135.373 Y111.747 E3.59393
G1 X136.097 Y111.558 E3.63365
G1 X136.612 Y111.472 E3.66137
G1 X137.149 Y111.403 E3.69011
G1 X138.231 Y111.338 E3.74765
G1 X139.315 Y111.419 E3.80535
G1 X139.851 Y111.496 E3.8341
G1 X140.585 Y111.642 E3.87382
G1 X141.09 Y111.791 E3.90177
G1 X141.583 Y111.957 E3.92939
G1 X142.393 Y112.279 E3.97566
G1 X143.159 Y112.694 E4.0219
G1 X143.797 Y113.086 E4.06165
G1 X144.22 Y113.401 E4.08965
G1 X144.64 Y113.74 E4.1183
G1 X145.3 Y114.334 E4.16543
G1 X145.884 Y115.007 E4.21273
G1 X146.343 Y115.598 E4.25246
G1 X146.614 Y116.019 E4.27903
G1 X146.956 Y116.595 E4.31459
G1 X147.303 Y117.258 E4.35432
G1 X147.617 Y118.055 E4.39979
G1 X147.871 Y118.997 E4.45158
G1 X148.007 Y119.606 E4.4847
G1 X148.519 Y122.509 E4.64118
G1 X148.887 Y122.425 E4.66122
G1 X149.423 Y122.354 E4.68992
G1 X150.193 Y122.282 E4.73097
G1 X151.069 Y122.256 E4.77749
G1 X151.693 Y122.276 E4.81063
G1 X152.549 Y122.356 E4.85627
G1 X153.485 Y122.502 E4.90656
G1 X154.028 Y119.425 E5.07242
G1 X154.229 Y118.563 E5.1194
G1 X154.565 Y117.643 E5.1714
G1 X154.858 Y116.955 E5.21109
G1 X155.115 Y116.48 E5.23976
G1 X155.38 Y116.032 E5.26739
G1 X155.795 Y115.41 E5.30708
G1 X156.114 Y115.012 E5.33416
G1 X156.555 Y114.503 E5.36991
G1 X157.075 Y113.965 E5.40963
G1 X157.725 Y113.421 E5.45462
G1 X158.64 Y112.811 E5.51299
G1 X159.284 Y112.43 E5.55271
G1 X160.052 Y112.079 E5.59754
G1 X160.963 Y111.778 E5.64847
G1 X161.685 Y111.582 E5.68818
G1 X162.188 Y111.492 E5.71531
G1 X162.86 Y111.398 E5.75133
G1 X163.606 Y111.335 E5.79107
G1 X164.458 Y111.353 E5.8363
G1 X165.429 Y111.482 E5.8883
G1 X166.164 Y111.619 E5.92799
G1 X166.666 Y111.762 E5.9557
G1 X167.163 Y111.923 E5.98343
G1 X167.99 Y112.24 E6.03044
G1 X168.897 Y112.724 E6.08502
G1 X169.537 Y113.111 E6.12472
G1 X170.41 Y113.812 E6.18415
G1 X170.9 Y114.275 E6.21993
G1 X171.415 Y114.817 E6.25962
G1 X171.731 Y115.216 E6.28664
G1 X172.048 Y115.647 E6.31504
G1 X172.458 Y116.272 E6.35472
G1 X172.703 Y116.73 E6.38229
G1 X172.998 Y117.336 E6.41807
G1 X173.289 Y118.025 E6.45777
G1 X173.584 Y119.107 E6.5173
G1 X173.709 Y119.772 E6.55322
G1 X173.807 Y120.513 E6.5929
G1 X173.829 Y121.087 E6.62339
G1 X173.827 Y121.711 E6.65652
G1 X173.778 Y122.578 E6.70261
G1 X172.59 Y129.324 E7.06622
G1 X177.222 Y137.347 E7.55799
G1 X177.561 Y138.014 E7.59771
G1 X177.827 Y138.713 E7.63741
G1 X178.016 Y139.437 E7.67713
G1 X178.128 Y140.176 E7.71681
G1 X178.16 Y140.847 E7.75247
G1 X178.16 Y176.859 E9.6641
G1 X178.131 Y177.498 E9.69805
G1 X178.083 Y178.022 E9.72598
G1 X177.907 Y179.112 E9.78459
G1 X177.591 Y180.145 E9.84194
G1 X177.399 Y180.65 E9.87062
G1 X177.041 Y181.457 E9.91748
G1 X176.522 Y182.325 E9.97117
G1 X176.104 Y182.946 E10.0109
G1 X175.55 Y183.603 E10.05652
G1 X174.854 Y184.265 E10.10751
G1 X174.285 Y184.75 E10.1472
G1 X173.873 Y185.042 E10.174
G1 X173.41 Y185.346 E10.20341
G1 X172.764 Y185.723 E10.24311
G1 X172.311 Y185.935 E10.26966
G1 X171.832 Y186.139 E10.2973
G1 X171.129 Y186.395 E10.33701
G1 X170.638 Y186.525 E10.36397
G1 X169.977 Y186.675 E10.39995
G1 X169.24 Y186.802 E10.43965
G1 X168.4 Y186.855 E10.48433
G1 X167.416 Y186.809 E10.53662
G1 X166.53 Y186.721 E10.58389
G1 X165.674 Y186.525 E10.6305
G1 X164.955 Y186.319 E10.6702
G1 X164.484 Y186.138 E10.69699
G1 X163.988 Y185.926 E10.72562
G1 X163.317 Y185.595 E10.76534
G1 X162.88 Y185.329 E10.79249
G1 X162.317 Y184.957 E10.82832
G1 X161.716 Y184.512 E10.86801
G1 X161.087 Y183.932 E10.91343
G1 X160.461 Y183.216 E10.96391
G1 X160 Y182.627 E11.00362
G1 X159.721 Y182.197 E11.03083
G1 X159.447 Y181.738 E11.0592
G1 X159.099 Y181.076 E11.09891
G1 X158.904 Y180.609 E11.12577
G1 X158.665 Y179.972 E11.16189
G1 X158.44 Y179.259 E11.20157
G1 X158.273 Y178.427 E11.24662
G1 X153.233 Y179.533 E11.52052
G1 X152.481 Y179.649 E11.56092
G1 X151.621 Y179.728 E11.60676
G1 X150.926 Y179.749 E11.64367
G1 X150.179 Y179.731 E11.68333
G1 X149.625 Y179.667 E11.71294
G1 X148.752 Y179.529 E11.75985
G1 X143.698 Y178.42 E12.03452
G1 X143.587 Y179.109 E12.07157
G1 X143.272 Y180.139 E12.12874
G1 X143.081 Y180.642 E12.1573
G1 X142.726 Y181.447 E12.204
G1 X142.212 Y182.309 E12.25728
G1 X141.795 Y182.93 E12.29699
G1 X141.241 Y183.589 E12.34269
G1 X140.535 Y184.261 E12.39443
G1 X139.966 Y184.747 E12.43415
G1 X139.548 Y185.043 E12.46134
G1 X139.084 Y185.347 E12.49078
G1 X138.315 Y185.794 E12.538
G1 X137.518 Y186.134 E12.584
G1 X136.815 Y186.391 E12.62373
G1 X136.317 Y186.523 E12.65108
G1 X135.655 Y186.673 E12.68711
G1 X134.918 Y186.799 E12.7268
G1 X134.711 Y186.812 E12.73781
G1 X121.544 Y225.369 E14.90059
G1 X121.258 Y226.088 E14.94167
G1 X120.966 Y226.726 E14.97891
G1 X120.688 Y227.261 E15.01092
G1 X120.328 Y227.876 E15.04874
G1 X119.997 Y228.38 E15.08075
G1 X119.59 Y228.937 E15.11737
G1 X119.211 Y229.406 E15.14938
G1 X118.734 Y229.938 E15.18731
G1 X118.309 Y230.366 E15.21933
G1 X117.791 Y230.838 E15.25653
G1 X117.327 Y231.22 E15.28843
G1 X116.766 Y231.637 E15.32554
G1 X116.263 Y231.973 E15.35765
G1 X115.644 Y232.342 E15.3959
G1 X115.112 Y232.623 E15.42784
G1 X114.497 Y232.911 E15.46389
G1 X113.938 Y233.14 E15.49595
G1 X113.265 Y233.376 E15.53381
G1 X112.689 Y233.546 E15.56569
G1 X112.005 Y233.711 E15.60304
G1 X111.411 Y233.823 E15.63513
G1 X110.717 Y233.918 E15.67231
G1 X110.116 Y233.97 E15.70433
G1 X109.408 Y233.995 E15.74194
G1 X108.807 Y233.986 E15.77385
G1 X108.11 Y233.941 E15.81092
G1 X107.512 Y233.872 E15.84288
G1 X106.81 Y233.755 E15.88066
G1 X106.219 Y233.625 E15.91278
G1 X105.562 Y233.446 E15.94893
G1 X104.989 Y233.26 E15.9809
G1 X104.316 Y233.003 E16.01915
G1 X103.765 Y232.759 E16.05113
G1 X103.137 Y232.442 E16.08848
G1 X102.615 Y232.145 E16.12036
G1 X102.025 Y231.769 E16.1575
G1 X101.532 Y231.419 E16.18959
G1 X100.97 Y230.975 E16.22761
G1 X100.517 Y230.578 E16.25958
G1 X100.016 Y230.093 E16.2966
G1 X99.604 Y229.652 E16.32863
G1 X99.162 Y229.13 E16.36494
G1 X98.795 Y228.651 E16.39698
G1 X98.393 Y228.067 E16.43461
G1 X98.078 Y227.556 E16.46648
G1 X97.728 Y226.916 E16.5052
G1 X97.466 Y226.371 E16.5373
G1 X97.201 Y225.742 E16.57353
G1 X96.994 Y225.176 E16.60552
G1 X96.787 Y224.508 E16.64264
G1 X96.638 Y223.926 E16.67453
G1 X96.497 Y223.232 E16.71213
G1 X96.38 Y222.455 E16.75384
G1 X92.334 Y181.692 E18.9283
G1 X92.3 Y181.001 E18.96502
G1 X92.3 Y121.001 E22.15001
G1 X92.334 Y120.31 E22.18674
G1 X96.384 Y79.516 E24.36286
G1 X96.498 Y78.761 E24.40339
G1 X96.638 Y78.074 E24.44061
G1 X96.787 Y77.492 E24.4725
G1 X96.994 Y76.824 E24.50962
G1 X97.201 Y76.258 E24.54162
G1 X97.466 Y75.629 E24.57785
G1 X97.728 Y75.084 E24.60995
G1 X98.078 Y74.444 E24.64867
G1 X98.393 Y73.933 E24.68053
G1 X98.795 Y73.349 E24.71817
M204 S5000
M205 X10 Y10
G0 F6000 X99.24 Y73.689
M204 S1000
M205 X8 Y8
G1 F2400 X99.607 Y73.21 E24.7502
G1 X100.013 Y72.731 E24.78353
G1 X100.425 Y72.29 E24.81557
G1 X100.886 Y71.843 E24.84965
G1 X101.339 Y71.446 E24.88163
G1 X101.856 Y71.038 E24.91659
G1 X102.349 Y70.688 E24.94868
G1 X102.892 Y70.342 E24.98286
G1 X103.414 Y70.045 E25.01474
G1 X103.991 Y69.754 E25.04905
G1 X104.542 Y69.51 E25.08104
G1 X105.162 Y69.273 E25.11627
G1 X105.735 Y69.087 E25.14825
G1 X106.339 Y68.922 E25.18149
G1 X106.93 Y68.792 E25.21361
G1 X107.576 Y68.684 E25.24838
G1 X108.174 Y68.615 E25.28033
G1 X108.816 Y68.574 E25.31448
G1 X109.417 Y68.565 E25.34639
G1 X110.068 Y68.588 E25.38096
G1 X110.669 Y68.64 E25.41299
G1 X111.307 Y68.728 E25.44717
G1 X111.901 Y68.84 E25.47926
G1 X112.531 Y68.991 E25.51365
G1 X113.107 Y69.161 E25.54553
G1 X113.725 Y69.379 E25.58032
G1 X114.284 Y69.608 E25.61238
G1 X114.851 Y69.873 E25.64561
G1 X115.383 Y70.154 E25.67754
G1 X115.952 Y70.493 E25.7127
G1 X116.455 Y70.829 E25.74481
G1 X116.97 Y71.211 E25.77885
G1 X117.433 Y71.592 E25.81068
G1 X117.916 Y72.033 E25.8454
G1 X118.341 Y72.462 E25.87745
G1 X118.77 Y72.94 E25.91155
G1 X119.15 Y73.409 E25.94359
G1 X119.527 Y73.925 E25.97751
G1 X119.857 Y74.427 E26.0094
G1 X120.191 Y74.996 E26.04443
G1 X120.469 Y75.531 E26.07643
G1 X120.733 Y76.108 E26.11011
G1 X121.017 Y76.818 E26.15071
G1 X133.434 Y113.179 E28.19031
G1 X133.983 Y112.885 E28.22336
G1 X134.741 Y112.537 E28.26764
G1 X135.543 Y112.281 E28.31233
G1 X136.359 Y112.07 E28.35707
G1 X137.22 Y111.959 E28.40315
G1 X138.226 Y111.898 E28.45665
G1 X139.236 Y111.973 E28.51041
G1 X139.772 Y112.05 E28.53916
G1 X140.6 Y112.217 E28.584
G1 X141.404 Y112.488 E28.62903
G1 X142.163 Y112.791 E28.67242
G1 X142.893 Y113.187 E28.7165
G1 X143.611 Y113.63 E28.76129
G1 X144.288 Y114.176 E28.80745
G1 X144.91 Y114.738 E28.85195
G1 X145.461 Y115.374 E28.89662
G1 X145.971 Y116.034 E28.9409
G1 X146.474 Y116.881 E28.99319
G1 X146.806 Y117.518 E29.03132
G1 X147.154 Y118.491 E29.08617
G1 X147.33 Y119.143 E29.12202
G1 X147.455 Y119.703 E29.15248
G1 X148.069 Y123.185 E29.34017
G1 X149.136 Y122.944 E29.39824
G1 X150.245 Y122.84 E29.45736
G1 X151.051 Y122.815 E29.50017
G1 X151.675 Y122.835 E29.53331
G1 X152.462 Y122.909 E29.57527
G1 X153.077 Y123.005 E29.60831
G1 X153.931 Y123.198 E29.65479
G1 X154.58 Y119.522 E29.85294
G1 X154.769 Y118.717 E29.89683
G1 X155.091 Y117.835 E29.94668
G1 X155.427 Y117.052 E29.9919
G1 X155.862 Y116.317 E30.03724
G1 X156.327 Y115.623 E30.08159
G1 X156.979 Y114.87 E30.13446
G1 X157.478 Y114.355 E30.17253
G1 X158.272 Y113.73 E30.22616
G1 X158.951 Y113.277 E30.26949
G1 X159.569 Y112.912 E30.30759
G1 X160.506 Y112.519 E30.36153
G1 X161.139 Y112.31 E30.39692
G1 X161.95 Y112.091 E30.44151
G1 X162.938 Y111.953 E30.49446
G1 X163.653 Y111.893 E30.53255
G1 X164.676 Y111.947 E30.58693
G1 X165.355 Y112.037 E30.62329
G1 X166.191 Y112.196 E30.66846
G1 X166.991 Y112.455 E30.7131
G1 X167.767 Y112.755 E30.75726
G1 X168.634 Y113.218 E30.80944
G1 X169.247 Y113.591 E30.84753
G1 X170.025 Y114.219 E30.9006
G1 X170.515 Y114.682 E30.93639
G1 X171.093 Y115.293 E30.98104
G1 X171.597 Y115.978 E31.02618
G1 X172.057 Y116.683 E31.07086
G1 X172.494 Y117.581 E31.12388
G1 X172.772 Y118.243 E31.16199
G1 X173.033 Y119.21 E31.21516
G1 X173.158 Y119.875 E31.25108
G1 X173.27 Y120.733 E31.29701
G1 X173.267 Y121.71 E31.34887
G1 X173.22 Y122.519 E31.39189
G1 X172.003 Y129.427 E31.76424
G1 X176.737 Y137.627 E32.26685
G1 X177.061 Y138.267 E32.30493
G1 X177.311 Y138.94 E32.34304
G1 X177.485 Y139.636 E32.38112
G1 X177.581 Y140.347 E32.4192
G1 X177.6 Y140.847 E32.44577
G1 X177.6 Y176.859 E34.3574
G1 X177.573 Y177.446 E34.38859
G1 X177.525 Y177.97 E34.41652
G1 X177.361 Y178.984 E34.47105
G1 X177.068 Y179.946 E34.52443
G1 X176.876 Y180.451 E34.55311
G1 X176.538 Y181.21 E34.59721
G1 X176.042 Y182.038 E34.64845
G1 X175.639 Y182.632 E34.68655
G1 X174.953 Y183.398 E34.74114
G1 X174.468 Y183.859 E34.77666
G1 X173.828 Y184.402 E34.82121
G1 X173.103 Y184.878 E34.86725
G1 X172.381 Y185.296 E34.91153
G1 X171.612 Y185.624 E34.95591
G1 X170.829 Y185.908 E35.00013
G1 X169.853 Y186.129 E35.05325
G1 X169.146 Y186.249 E35.09131
G1 X168.128 Y186.282 E35.14538
G1 X167.442 Y186.25 E35.18184
G1 X166.613 Y186.165 E35.22607
G1 X165.799 Y185.979 E35.2704
G1 X164.993 Y185.747 E35.31492
G1 X164.208 Y185.411 E35.36025
G1 X163.453 Y185.036 E35.40499
G1 X162.626 Y184.49 E35.4576
G1 X162.05 Y184.062 E35.49569
G1 X161.327 Y183.355 E35.54937
G1 X160.883 Y182.847 E35.58519
G1 X160.363 Y182.179 E35.63012
G1 X159.928 Y181.451 E35.67514
G1 X159.539 Y180.709 E35.71961
G1 X159.189 Y179.775 E35.77256
G1 X158.975 Y179.091 E35.8106
G1 X158.804 Y178.082 E35.86493
G1 X158.774 Y177.744 E35.88294
G1 X153.14 Y178.98 E36.18912
G1 X152.395 Y179.095 E36.22914
G1 X151.605 Y179.168 E36.27125
G1 X150.91 Y179.189 E36.30816
G1 X150.061 Y179.168 E36.35324
G1 X148.841 Y178.976 E36.4188
G1 X143.24 Y177.746 E36.72321
G1 X143.041 Y178.98 E36.78956
G1 X142.749 Y179.94 E36.84282
G1 X142.558 Y180.443 E36.87138
G1 X142.222 Y181.198 E36.91525
G1 X141.731 Y182.022 E36.96617
G1 X141.33 Y182.617 E37.00426
G1 X140.635 Y183.394 E37.05959
G1 X140.149 Y183.856 E37.09519
G1 X139.506 Y184.401 E37.13993
G1 X138.777 Y184.879 E37.18621
G1 X138.058 Y185.295 E37.2303
G1 X137.298 Y185.619 E37.27416
G1 X136.509 Y185.905 E37.31871
G1 X135.531 Y186.127 E37.37194
G1 X134.824 Y186.246 E37.41
G1 X134.307 Y186.263 E37.43746
G1 X121.016 Y225.182 E39.62055
G1 X120.738 Y225.881 E39.66049
G1 X120.47 Y226.467 E39.69469
G1 X120.192 Y227.002 E39.7267
G1 X119.86 Y227.568 E39.76153
G1 X119.529 Y228.072 E39.79354
G1 X119.155 Y228.585 E39.82724
G1 X118.776 Y229.054 E39.85925
G1 X118.337 Y229.544 E39.89417
G1 X117.912 Y229.972 E39.92619
G1 X117.435 Y230.406 E39.96042
G1 X116.971 Y230.788 E39.99232
G1 X116.455 Y231.171 E40.02643
G1 X115.952 Y231.507 E40.05854
G1 X115.383 Y231.846 E40.0937
G1 X114.851 Y232.127 E40.12564
G1 X114.284 Y232.392 E40.15886
G1 X113.725 Y232.621 E40.19093
G1 X113.107 Y232.839 E40.22572
G1 X112.531 Y233.009 E40.2576
G1 X111.901 Y233.16 E40.29199
G1 X111.307 Y233.272 E40.32407
G1 X110.669 Y233.36 E40.35826
G1 X110.068 Y233.412 E40.39028
G1 X109.417 Y233.435 E40.42486
G1 X108.816 Y233.426 E40.45677
G1 X108.174 Y233.385 E40.49092
G1 X107.576 Y233.316 E40.52287
G1 X106.93 Y233.208 E40.55764
G1 X106.339 Y233.078 E40.58976
G1 X105.735 Y232.913 E40.623
G1 X105.162 Y232.727 E40.65498
G1 X104.542 Y232.49 E40.69021
G1 X103.991 Y232.246 E40.7222
G1 X103.414 Y231.955 E40.7565
G1 X102.892 Y231.658 E40.78838
G1 X102.349 Y231.312 E40.82256
G1 X101.856 Y230.962 E40.85466
G1 X101.339 Y230.554 E40.88962
G1 X100.886 Y230.157 E40.92159
G1 X100.425 Y229.71 E40.95568
G1 X100.013 Y229.269 E40.98772
G1 X99.607 Y228.79 E41.02105
G1 X99.24 Y228.311 E41.05308
G1 X98.87 Y227.773 E41.08774
G1 X98.555 Y227.262 E41.1196
G1 X98.233 Y226.673 E41.15524
G1 X97.971 Y226.128 E41.18734
G1 X97.727 Y225.55 E41.22064
G1 X97.52 Y224.984 E41.25263
G1 X97.329 Y224.369 E41.28682
G1 X97.18 Y223.787 E41.31871
G1 X97.051 Y223.148 E41.35331
G1 X96.92 Y222.228 E41.40264
G1 X92.891 Y181.637 E43.56793
G1 X92.86 Y181.001 E43.60173
G1 X92.86 Y121.001 E46.78672
G1 X92.891 Y120.365 E46.82052
G1 X96.923 Y79.748 E48.9872
G1 X97.052 Y78.845 E49.03562
G1 X97.18 Y78.213 E49.06985
G1 X97.329 Y77.631 E49.10174
G1 X97.52 Y77.016 E49.13592
G1 X97.727 Y76.45 E49.16792
G1 X97.971 Y75.872 E49.20122
G1 X98.233 Y75.327 E49.23332
G1 X98.555 Y74.738 E49.26895
G1 X98.87 Y74.227 E49.30082
G1 X99.24 Y73.689 E49.33548
M204 S5000
M205 X10 Y10
G0 F6000 X99.684 Y74.03
M204 S1000
M205 X8 Y8
G1 F2400 X100.051 Y73.551 E49.36751
G1 X100.422 Y73.113 E49.39798
