;FLAVOR:Marlin
;TIME:1744
;Filament used: 1.68085m
;Layer height: 0.2
;MINX:135.035
;MINY:125.689
;MINZ:0.2
;MAXX:167.024
;MAXY:173.882
;MAXZ:24.4
;Generated with Cura_SteamEngine 5.2.1
M140 S80
M105
M190 S80
M104 S230
M105
M109 S230
M82 ;absolute extrusion mode
G28 ;Home
G1 Z15.0 F1200 ;Move the platform down 15mm
;Prime the extruder
G92 E0
G1 F200 E3
G92 E0
G92 E0
G92 E0
G1 F3600 E-6
;LAYER_COUNT:122
;LAYER:0
M107
M204 S5000
M205 X10 Y10
G1 F1200 Z0.275
G0 F6000 X145.063 Y128.422 Z0.275
M204 S1000
M205 X8 Y8
;TYPE:SKIRT
G1 F1200 Z0.2
G1 F3600 E0
G1 F2400 X145.6 Y127.901 E0.03972
G1 X146.575 Y127.171 E0.10437
G1 X147.466 Y126.664 E0.15879
G1 X148.152 Y126.366 E0.19849
G1 X148.865 Y126.143 E0.23815
G1 X149.667 Y125.987 E0.28152
G1 X151.442 Y125.749 E0.37659
G1 X152.187 Y125.689 E0.41626
G1 X152.935 Y125.71 E0.45598
G1 X153.677 Y125.81 E0.49573
G1 X154.403 Y125.988 E0.53541
G1 X154.958 Y126.182 E0.56662
G1 X156.143 Y126.653 E0.63431
G1 X156.822 Y126.966 E0.67399
G1 X157.464 Y127.35 E0.7137
G1 X158.064 Y127.802 E0.75358
G1 X158.581 Y128.237 E0.78945
G1 X159.127 Y128.748 E0.82914
G1 X159.615 Y129.315 E0.86885
G1 X160.04 Y129.931 E0.90858
G1 X160.396 Y130.588 E0.94825
G1 X160.681 Y131.28 E0.98797
G1 X160.89 Y131.998 E1.02767
G1 X161.021 Y132.735 E1.06741
G1 X161.073 Y133.481 E1.1071
G1 X161.055 Y134.15 E1.14263
G1 X161.083 Y134.58 E1.1655
G1 X161.051 Y135.327 E1.20519
G1 X160.941 Y136.067 E1.2449
G1 X160.877 Y136.312 E1.25835
G1 X161.2 Y136.52 E1.27874
G1 X161.782 Y136.99 E1.31845
G1 X162.311 Y137.519 E1.35816
G1 X162.792 Y138.108 E1.39853
G1 X163.221 Y138.722 E1.43829
G1 X163.581 Y139.377 E1.47797
G1 X163.87 Y140.067 E1.51768
G1 X164.083 Y140.784 E1.55738
G1 X164.271 Y141.922 E1.61861
G1 X164.308 Y142.873 E1.66913
G1 X164.258 Y143.619 E1.70882
G1 X164.128 Y144.356 E1.74854
G1 X164.069 Y144.558 E1.75971
G1 X164.044 Y144.894 E1.7776
G1 X164.217 Y145.009 E1.78863
G1 X164.791 Y145.488 E1.82831
G1 X165.312 Y146.025 E1.86803
G1 X165.771 Y146.615 E1.90771
G1 X166.166 Y147.251 E1.94745
G1 X166.49 Y147.925 E1.98715
G1 X166.74 Y148.63 E2.02686
G1 X166.914 Y149.358 E2.06659
G1 X167.009 Y150.1 E2.1063
G1 X167.024 Y150.848 E2.14601
G1 X166.96 Y151.593 E2.1857
G1 X166.816 Y152.327 E2.22541
G1 X166.595 Y153.042 E2.26514
G1 X166.228 Y153.892 E2.31428
G1 X165.772 Y154.701 E2.36358
G1 X165.336 Y155.311 E2.40338
G1 X165.198 Y155.687 E2.42464
G1 X165.17 Y155.953 E2.43884
G1 X165.097 Y156.468 E2.46645
G1 X164.923 Y157.434 E2.51856
G1 X164.8 Y157.975 E2.54801
G1 X164.566 Y158.842 E2.59568
G1 X164.246 Y159.765 E2.64753
G1 X163.981 Y160.386 E2.68337
G1 X163.485 Y161.34 E2.74045
G1 X163.191 Y161.812 E2.76997
G1 X162.762 Y162.425 E2.80969
G1 X162.146 Y163.126 E2.85922
G1 X161.485 Y163.729 E2.90672
G1 X160.745 Y164.269 E2.95535
G1 X159.97 Y164.714 E3.00279
G1 X159.286 Y165.016 E3.04248
G1 X158.573 Y165.243 E3.0822
G1 X158.117 Y165.336 E3.1069
G1 X158.179 Y165.804 E3.13196
G1 X158.197 Y166.552 E3.17168
G1 X158.099 Y167.58 E3.22649
G1 X157.911 Y168.443 E3.27338
G1 X157.675 Y169.152 E3.31305
G1 X157.364 Y169.833 E3.35279
G1 X156.982 Y170.476 E3.39249
G1 X156.534 Y171.075 E3.43219
G1 X155.976 Y171.684 E3.47604
G1 X155.305 Y172.281 E3.52372
G1 X154.696 Y172.716 E3.56344
G1 X154.045 Y173.084 E3.60314
G1 X153.358 Y173.38 E3.64285
G1 X152.761 Y173.574 E3.67617
G1 X152.035 Y173.756 E3.7159
G1 X151.294 Y173.859 E3.75561
G1 X150.546 Y173.882 E3.79534
G1 X149.846 Y173.838 E3.83257
G1 X149.007 Y173.705 E3.87766
G1 X148.285 Y173.509 E3.91738
G1 X147.588 Y173.238 E3.95707
G1 X146.923 Y172.894 E3.99682
G1 X146.273 Y172.472 E4.03796
G1 X145.675 Y172.023 E4.07765
G1 X145.129 Y171.512 E4.11735
G1 X144.64 Y170.946 E4.15705
G1 X144.214 Y170.331 E4.19677
G1 X143.856 Y169.674 E4.23648
G1 X143.571 Y168.983 E4.27616
G1 X143.327 Y168.163 E4.32158
G1 X143.161 Y167.279 E4.36932
G1 X143.101 Y166.533 E4.40905
G1 X143.122 Y165.786 E4.44872
G1 X143.205 Y165.172 E4.48161
G1 X142.918 Y165.09 E4.49745
G1 X142.224 Y164.81 E4.53718
G1 X141.565 Y164.457 E4.57686
G1 X140.7 Y163.863 E4.63256
G1 X139.94 Y163.204 E4.68596
G1 X139.43 Y162.656 E4.7257
G1 X138.876 Y161.925 E4.77439
G1 X138.466 Y161.3 E4.81407
G1 X138.08 Y160.53 E4.85979
G1 X137.756 Y159.771 E4.9036
G1 X137.443 Y158.872 E4.95413
G1 X137.225 Y158.076 E4.99794
G1 X137.105 Y157.564 E5.02585
G1 X136.923 Y156.594 E5.07824
G1 X136.832 Y155.979 E5.11124
G1 X136.806 Y155.722 E5.12496
G1 X136.63 Y155.255 E5.15145
G1 X136.443 Y155.028 E5.16706
G1 X136.032 Y154.403 E5.20677
G1 X135.69 Y153.738 E5.24646
G1 X135.421 Y153.04 E5.28617
G1 X135.156 Y151.98 E5.34417
G1 X135.046 Y151.082 E5.3922
G1 X135.035 Y150.334 E5.43191
G1 X135.104 Y149.589 E5.47162
G1 X135.252 Y148.856 E5.51132
G1 X135.477 Y148.143 E5.55101
G1 X135.777 Y147.458 E5.5907
G1 X136.148 Y146.808 E5.63043
G1 X136.587 Y146.202 E5.67015
G1 X137.088 Y145.647 E5.70984
G1 X137.645 Y145.147 E5.74958
G1 X137.966 Y144.917 E5.77054
G1 X137.919 Y144.438 E5.79609
G1 X137.774 Y143.718 E5.83507
G1 X137.705 Y142.973 E5.87479
G1 X137.716 Y142.225 E5.9145
G1 X137.807 Y141.483 E5.95418
G1 X137.97 Y140.734 E5.99487
G1 X138.245 Y139.874 E6.0428
G1 X138.547 Y139.19 E6.08249
G1 X138.92 Y138.541 E6.12223
G1 X139.36 Y137.937 E6.1619
G1 X139.862 Y137.382 E6.20162
G1 X140.439 Y136.857 E6.24303
G1 X141.153 Y136.324 E6.29033
G1 X141.796 Y135.943 E6.33
G1 X142.431 Y135.653 E6.36706
G1 X142.36 Y135.029 E6.4004
G1 X142.315 Y134.282 E6.44012
G1 X142.35 Y133.535 E6.47982
G1 X142.464 Y132.796 E6.51951
G1 X142.657 Y132.073 E6.55923
G1 X142.925 Y131.375 E6.59892
G1 X143.267 Y130.709 E6.63866
G1 X143.677 Y130.084 E6.67834
G1 X144.152 Y129.506 E6.71806
G1 X144.418 Y129.245 E6.73784
G1 X144.584 Y128.996 E6.75372
G1 X145.063 Y128.422 E6.79341
M204 S5000
M205 X10 Y10
G0 F6000 X145.615 Y128.655
M204 S1000
M205 X8 Y8
G1 F2400 X146.147 Y128.174 E6.83148
G1 X146.91 Y127.624 E6.88141
G1 X147.742 Y127.152 E6.93219
G1 X148.402 Y126.871 E6.97027
G1 X149.089 Y126.664 E7.00835
G1 X149.741 Y126.542 E7.04356
G1 X151.516 Y126.304 E7.13863
G1 X152.231 Y126.249 E7.1767
G1 X152.949 Y126.273 E7.21483
G1 X153.659 Y126.377 E7.25292
G1 X154.468 Y126.589 E7.29732
G1 X155.936 Y127.173 E7.38118
G1 X156.587 Y127.475 E7.41928
G1 X157.2 Y127.847 E7.45734
G1 X157.703 Y128.23 E7.4909
G1 X158.22 Y128.665 E7.52677
G1 X158.743 Y129.157 E7.56488
G1 X159.207 Y129.704 E7.60296
G1 X159.608 Y130.299 E7.64105
G1 X159.94 Y130.935 E7.67913
G1 X160.199 Y131.604 E7.71721
G1 X160.382 Y132.298 E7.75531
G1 X160.487 Y133.008 E7.79341
G1 X160.506 Y133.923 E7.84199
G1 X160.495 Y134.131 E7.85305
G1 X160.523 Y134.733 E7.88504
G1 X160.475 Y135.449 E7.92313
G1 X160.348 Y136.155 E7.96121
G1 X160.23 Y136.551 E7.98314
G1 X160.967 Y137.043 E8.03018
G1 X161.516 Y137.505 E8.06827
G1 X162.258 Y138.319 E8.12674
G1 X162.76 Y139.042 E8.17346
G1 X163.102 Y139.673 E8.21156
G1 X163.371 Y140.339 E8.24969
G1 X163.565 Y141.029 E8.28774
G1 X163.714 Y141.989 E8.33931
G1 X163.748 Y142.894 E8.38738
G1 X163.694 Y143.609 E8.42544
G1 X163.562 Y144.315 E8.46357
G1 X163.519 Y144.454 E8.47129
G1 X163.451 Y145.167 E8.50931
G1 X163.975 Y145.528 E8.54309
G1 X164.517 Y145.999 E8.58121
G1 X165.002 Y146.527 E8.61927
G1 X165.427 Y147.106 E8.65739
G1 X165.784 Y147.728 E8.69546
G1 X166.069 Y148.386 E8.73353
G1 X166.28 Y149.072 E8.77163
G1 X166.413 Y149.777 E8.80971
G1 X166.467 Y150.493 E8.84782
G1 X166.441 Y151.21 E8.88591
G1 X166.335 Y151.919 E8.92396
G1 X166.151 Y152.613 E8.96208
G1 X165.739 Y153.623 E9.01998
G1 X165.284 Y154.425 E9.06893
G1 X164.841 Y155.03 E9.10873
G1 X164.649 Y155.545 E9.13791
G1 X164.615 Y155.875 E9.15552
G1 X164.497 Y156.666 E9.19797
G1 X164.373 Y157.331 E9.23388
G1 X164.26 Y157.829 E9.26099
G1 X164.026 Y158.696 E9.30866
G1 X163.731 Y159.546 E9.35642
G1 X163.466 Y160.167 E9.39226
G1 X163.009 Y161.044 E9.44475
G1 X162.715 Y161.516 E9.47427
G1 X162.303 Y162.103 E9.51234
G1 X161.743 Y162.737 E9.55724
G1 X161.108 Y163.314 E9.60279
G1 X160.435 Y163.803 E9.64695
G1 X159.691 Y164.228 E9.69243
G1 X159.033 Y164.513 E9.7305
G1 X158.347 Y164.723 E9.76858
G1 X157.464 Y164.896 E9.81634
G1 X157.541 Y165.223 E9.83418
G1 X157.627 Y165.935 E9.87225
G1 X157.633 Y166.653 E9.91036
G1 X157.544 Y167.502 E9.95568
G1 X157.363 Y168.323 E10.0003
G1 X157.132 Y169.002 E10.03838
G1 X156.826 Y169.651 E10.07646
G1 X156.451 Y170.262 E10.11452
G1 X156.009 Y170.828 E10.15264
G1 X155.469 Y171.386 E10.19386
G1 X154.932 Y171.862 E10.23195
G1 X154.346 Y172.275 E10.27001
G1 X153.717 Y172.621 E10.30812
G1 X152.732 Y173.005 E10.36424
G1 X151.899 Y173.212 E10.4098
G1 X151.188 Y173.306 E10.44787
G1 X150.471 Y173.32 E10.48594
G1 X149.804 Y173.265 E10.52146
G1 X149.095 Y173.151 E10.55958
G1 X148.404 Y172.959 E10.59765
G1 X147.738 Y172.691 E10.63576
G1 X146.751 Y172.132 E10.69597
G1 X146.013 Y171.575 E10.74506
G1 X145.492 Y171.082 E10.78313
G1 X145.029 Y170.533 E10.82125
G1 X144.63 Y169.937 E10.85933
G1 X144.3 Y169.3 E10.89741
G1 X144.043 Y168.63 E10.9355
G1 X143.843 Y167.881 E10.97665
G1 X143.712 Y167.176 E11.01472
G1 X143.66 Y166.46 E11.05283
G1 X143.688 Y165.743 E11.09091
G1 X143.855 Y164.776 E11.14301
G1 X143.072 Y164.551 E11.18625
G1 X142.409 Y164.277 E11.22433
G1 X141.78 Y163.932 E11.26242
G1 X141.027 Y163.407 E11.31114
G1 X140.308 Y162.78 E11.36178
G1 X139.482 Y161.832 E11.42853
G1 X138.936 Y160.993 E11.48167
G1 X138.595 Y160.31 E11.52219
G1 X138.271 Y159.551 E11.566
G1 X137.983 Y158.724 E11.61248
G1 X137.698 Y157.684 E11.66972
G1 X137.526 Y156.799 E11.71758
G1 X137.386 Y155.897 E11.76604
G1 X137.355 Y155.584 E11.78273
G1 X137.166 Y155.12 E11.80933
G1 X137.125 Y154.977 E11.81723
G1 X136.859 Y154.649 E11.83964
G1 X136.472 Y154.045 E11.87772
G1 X136.154 Y153.401 E11.91585
G1 X135.91 Y152.727 E11.9539
G1 X135.706 Y151.867 E12.00082
G1 X135.603 Y151.015 E12.04637
G1 X135.597 Y150.297 E12.08449
G1 X135.671 Y149.584 E12.12254
G1 X135.824 Y148.883 E12.16063
G1 X136.054 Y148.203 E12.19873
G1 X136.358 Y147.553 E12.23682
G1 X136.733 Y146.941 E12.27492
G1 X137.173 Y146.375 E12.31298
G1 X137.674 Y145.861 E12.35108
G1 X138.229 Y145.406 E12.38918
G1 X138.558 Y145.192 E12.41001
G1 X138.471 Y144.385 E12.4531
G1 X138.471 Y144.329 E12.45607
G1 X138.32 Y143.579 E12.49668
G1 X138.262 Y142.863 E12.53481
G1 X138.284 Y142.146 E12.57289
G1 X138.386 Y141.436 E12.61097
G1 X138.559 Y140.728 E12.64966
G1 X138.779 Y140.045 E12.68775
G1 X139.073 Y139.391 E12.72581
G1 X139.438 Y138.773 E12.76391
G1 X139.869 Y138.2 E12.80197
G1 X140.362 Y137.678 E12.84008
G1 X140.912 Y137.202 E12.8787
G1 X141.488 Y136.774 E12.91679
G1 X142.108 Y136.412 E12.9549
G1 X142.764 Y136.121 E12.99299
G1 X143.042 Y136.034 E13.00846
G1 X142.917 Y134.965 E13.06559
G1 X142.875 Y134.249 E13.10366
G1 X142.913 Y133.533 E13.14172
G1 X143.031 Y132.825 E13.17982
G1 X143.227 Y132.134 E13.21795
G1 X143.498 Y131.47 E13.25602
G1 X143.841 Y130.84 E13.2941
G1 X144.253 Y130.252 E13.33221
G1 X144.727 Y129.714 E13.37027
G1 X144.853 Y129.6 E13.37929
G1 X145.139 Y129.192 E13.40574
G1 X145.615 Y128.655 E13.44384
M204 S5000
M205 X10 Y10
G0 F6000 X146.166 Y128.899
M204 S1000
M205 X8 Y8
G1 F2400 X146.692 Y128.46 E13.4802
G1 X147.42 Y127.977 E13.52658
G1 X148.018 Y127.641 E13.56299
G1 X148.651 Y127.377 E13.5994
G1 X149.31 Y127.188 E13.63579
G1 X149.816 Y127.097 E13.66308
G1 X151.591 Y126.859 E13.75815
G1 X152.274 Y126.808 E13.7945
G1 X152.959 Y126.836 E13.8309
G1 X153.636 Y126.945 E13.8673
G1 X154.544 Y127.223 E13.9177
G1 X155.729 Y127.694 E13.98539
G1 X156.35 Y127.984 E14.02178
G1 X156.933 Y128.344 E14.05815
G1 X157.343 Y128.659 E14.08559
G1 X157.86 Y129.094 E14.12146
G1 X158.358 Y129.565 E14.15785
G1 X158.797 Y130.091 E14.19422
G1 X159.173 Y130.664 E14.2306
G1 X159.479 Y131.278 E14.26701
G1 X159.712 Y131.923 E14.30342
G1 X159.868 Y132.59 E14.33978
G1 X159.945 Y133.271 E14.37616
G1 X159.946 Y133.895 E14.40928
G1 X159.944 Y134.194 E14.42515
G1 X159.959 Y134.88 E14.46158
G1 X159.894 Y135.562 E14.49795
G1 X159.75 Y136.232 E14.53432
G1 X159.541 Y136.845 E14.5687
G1 X160.164 Y137.175 E14.60613
G1 X160.727 Y137.565 E14.64248
G1 X161.242 Y138.019 E14.67893
G1 X161.827 Y138.677 E14.72566
G1 X162.299 Y139.362 E14.76982
G1 X162.621 Y139.967 E14.8062
G1 X162.87 Y140.606 E14.84261
G1 X163.043 Y141.27 E14.87903
G1 X163.158 Y142.062 E14.92151
G1 X163.187 Y142.914 E14.96677
G1 X163.131 Y143.597 E15.00314
G1 X162.995 Y144.269 E15.03954
G1 X162.967 Y144.409 E15.04712
G1 X162.886 Y145.09 E15.08352
G1 X162.801 Y145.443 E15.1028
G1 X163.17 Y145.647 E15.12518
G1 X163.727 Y146.047 E15.16158
G1 X164.234 Y146.508 E15.19795
G1 X164.684 Y147.026 E15.23438
G1 X165.07 Y147.592 E15.27075
G1 X165.388 Y148.2 E15.30717
G1 X165.633 Y148.84 E15.34355
G1 X165.802 Y149.504 E15.37992
G1 X165.892 Y150.184 E15.41633
G1 X165.903 Y150.869 E15.45269
G1 X165.833 Y151.552 E15.48914
G1 X165.685 Y152.221 E15.52551
G1 X165.46 Y152.868 E15.56187
G1 X165.136 Y153.552 E15.60205
G1 X164.796 Y154.148 E15.63847
G1 X164.349 Y154.756 E15.67853
G1 X164.128 Y155.349 E15.71213
G1 X164.061 Y155.796 E15.73612
G1 X163.988 Y156.311 E15.76373
G1 X163.782 Y157.448 E15.82507
G1 X163.485 Y158.55 E15.88565
G1 X163.216 Y159.326 E15.92925
G1 X162.951 Y159.947 E15.96509
G1 X162.534 Y160.748 E16.01303
G1 X162.24 Y161.22 E16.04255
G1 X161.844 Y161.78 E16.07895
G1 X161.339 Y162.349 E16.11934
G1 X160.731 Y162.898 E16.16282
G1 X160.125 Y163.336 E16.20251
G1 X159.413 Y163.741 E16.246
G1 X158.782 Y164.008 E16.28237
G1 X158.124 Y164.2 E16.31875
G1 X157.328 Y164.336 E16.36162
G1 X156.733 Y164.388 E16.39332
G1 X156.848 Y164.713 E16.41162
G1 X157 Y165.381 E16.44799
G1 X157.073 Y166.063 E16.4844
G1 X157.066 Y166.748 E16.52076
G1 X156.989 Y167.425 E16.55693
G1 X156.816 Y168.201 E16.59914
G1 X156.59 Y168.848 E16.63552
G1 X156.29 Y169.465 E16.67193
G1 X155.92 Y170.042 E16.70832
G1 X155.214 Y170.865 E16.76588
G1 X154.561 Y171.442 E16.81214
G1 X153.997 Y171.832 E16.84854
G1 X153.392 Y172.154 E16.88492
G1 X152.558 Y172.473 E16.93232
G1 X151.765 Y172.667 E16.97565
G1 X151.085 Y172.752 E17.01203
G1 X149.997 Y172.73 E17.0698
G1 X149.185 Y172.597 E17.11347
G1 X148.526 Y172.409 E17.14985
G1 X147.894 Y172.144 E17.18623
G1 X147.053 Y171.66 E17.23774
G1 X146.351 Y171.128 E17.28449
G1 X145.857 Y170.652 E17.32091
G1 X145.422 Y170.123 E17.35727
G1 X145.051 Y169.546 E17.39368
G1 X144.75 Y168.93 E17.43007
G1 X144.42 Y167.927 E17.48612
G1 X144.263 Y167.074 E17.53216
G1 X144.219 Y166.39 E17.56855
G1 X144.255 Y165.705 E17.60496
G1 X144.395 Y164.927 E17.64692
G1 X144.562 Y164.333 E17.67968
G1 X143.886 Y164.203 E17.71622
G1 X143.227 Y164.012 E17.75264
G1 X142.596 Y163.746 E17.78899
G1 X141.999 Y163.408 E17.82541
G1 X141.35 Y162.946 E17.8677
G1 X140.677 Y162.358 E17.91514
G1 X139.93 Y161.494 E17.97576
G1 X139.406 Y160.687 E18.02684
G1 X139.11 Y160.091 E18.06217
G1 X138.786 Y159.332 E18.10597
G1 X138.523 Y158.576 E18.14846
G1 X138.241 Y157.545 E18.2052
G1 X138.031 Y156.43 E18.26543
G1 X137.94 Y155.815 E18.29843
G1 X137.906 Y155.476 E18.31652
G1 X137.611 Y154.688 E18.36118
G1 X137.278 Y154.271 E18.38951
G1 X136.915 Y153.689 E18.42592
G1 X136.623 Y153.069 E18.4623
G1 X136.404 Y152.419 E18.49871
G1 X136.254 Y151.749 E18.53516
G1 X136.16 Y150.949 E18.57791
G1 X136.16 Y150.263 E18.61433
G1 X136.239 Y149.582 E18.65072
G1 X136.398 Y148.915 E18.68712
G1 X136.633 Y148.271 E18.72351
G1 X136.941 Y147.659 E18.75988
G1 X137.318 Y147.086 E18.79629
G1 X137.76 Y146.562 E18.83268
G1 X138.259 Y146.092 E18.86907
G1 X138.81 Y145.684 E18.90546
G1 X139.198 Y145.461 E18.92922
G1 X139.082 Y144.887 E18.9603
G1 X139.027 Y144.225 E18.99556
G1 X138.993 Y144.116 E19.00163
G1 X138.867 Y143.442 E19.03802
G1 X138.82 Y142.758 E19.07442
G1 X138.854 Y142.073 E19.11083
G1 X139.039 Y141.06 E19.16549
G1 X139.313 Y140.217 E19.21254
G1 X139.598 Y139.594 E19.24891
G1 X139.955 Y139.008 E19.28533
G1 X140.377 Y138.468 E19.32171
G1 X141.123 Y137.741 E19.37701
G1 X141.822 Y137.224 E19.42316
G1 X142.417 Y136.883 E19.45956
G1 X143.047 Y136.614 E19.49593
G1 X143.673 Y136.429 E19.53058
G1 X143.591 Y135.933 E19.55726
G1 X143.473 Y134.902 E19.61235
G1 X143.435 Y134.217 E19.64877
G1 X143.477 Y133.533 E19.68514
G1 X143.598 Y132.858 E19.72155
G1 X143.797 Y132.202 E19.75794
G1 X144.071 Y131.573 E19.79436
