;FLAVOR:Marlin
;TIME:7225
;Filament used: 9.49434m
;Layer height: 0.2
;MINX:72.5
;MINY:101.5
;MINZ:0.2
;MAXX:229.5
;MAXY:200.5
;MAXZ:4.075
;Generated with Cura_SteamEngine 5.2.1
M140 S80
M105
M190 S80
M104 S230
M105
M109 S230
M82 ;absolute extrusion mode
G28 ;Home
G1 Z15.0 F1200 ;Move the platform down 15mm
;Prime the extruder
G92 E0
G1 F200 E3
G92 E0
G92 E0
G92 E0
G1 F3600 E-6
;LAYER_COUNT:20
;LAYER:0
M107
M204 S5000
M205 X10 Y10
G1 F1200 Z0.275
G0 F6000 X75.498 Y112.457 Z0.275
M204 S1000
M205 X8 Y8
;TYPE:SKIRT
G1 F1200 Z0.2
G1 F3600 E0
G1 F2400 X76.134 Y112.062 E0.03974
G1 X76.808 Y111.738 E0.07944
G1 X77.513 Y111.488 E0.11915
G1 X78.241 Y111.314 E0.15888
G1 X78.983 Y111.219 E0.19859
G1 X79.5 Y111.2 E0.22605
G1 X109.5 Y111.2 E1.81855
G1 X110.247 Y111.24 E1.85826
G1 X111.2 Y111.394 E1.9095
G1 X111.2 Y108.5 E2.06312
G1 X111.24 Y107.753 E2.10283
G1 X111.359 Y107.015 E2.14252
G1 X111.557 Y106.293 E2.18226
G1 X111.83 Y105.597 E2.22194
G1 X112.177 Y104.934 E2.26167
G1 X112.592 Y104.311 E2.3014
G1 X113.071 Y103.737 E2.34109
G1 X113.608 Y103.216 E2.3808
G1 X114.198 Y102.757 E2.42048
G1 X114.834 Y102.362 E2.46023
G1 X115.508 Y102.038 E2.49992
G1 X116.213 Y101.788 E2.53963
G1 X116.941 Y101.614 E2.57936
G1 X117.683 Y101.519 E2.61907
G1 X118.2 Y101.5 E2.64654
G1 X183.8 Y101.5 E6.12879
G1 X184.547 Y101.54 E6.1685
G1 X185.285 Y101.659 E6.20818
G1 X186.007 Y101.857 E6.24793
G1 X186.703 Y102.13 E6.28761
G1 X187.366 Y102.477 E6.32733
G1 X187.989 Y102.892 E6.36707
G1 X188.563 Y103.371 E6.40676
G1 X189.084 Y103.908 E6.44647
G1 X189.543 Y104.498 E6.48615
G1 X189.938 Y105.134 E6.5259
G1 X190.262 Y105.808 E6.56559
G1 X190.512 Y106.513 E6.6053
G1 X190.686 Y107.241 E6.64503
G1 X190.781 Y107.983 E6.68474
G1 X190.8 Y108.5 E6.71221
G1 X190.8 Y111.419 E6.86715
G1 X191.241 Y111.314 E6.89122
G1 X191.983 Y111.219 E6.93093
G1 X192.5 Y111.2 E6.95839
G1 X222.5 Y111.2 E8.55089
G1 X223.247 Y111.24 E8.5906
G1 X223.985 Y111.359 E8.63028
G1 X224.707 Y111.557 E8.67002
G1 X225.403 Y111.83 E8.7097
G1 X226.066 Y112.177 E8.74943
G1 X226.689 Y112.592 E8.78916
G1 X227.263 Y113.071 E8.82885
G1 X227.784 Y113.608 E8.86857
G1 X228.243 Y114.198 E8.90825
G1 X228.638 Y114.834 E8.94799
G1 X228.962 Y115.508 E8.98769
G1 X229.212 Y116.213 E9.02739
G1 X229.386 Y116.941 E9.06713
G1 X229.481 Y117.683 E9.10684
G1 X229.5 Y118.2 E9.1343
G1 X229.5 Y183.8 E12.61655
G1 X229.46 Y184.547 E12.65626
G1 X229.341 Y185.285 E12.69595
G1 X229.143 Y186.007 E12.73569
G1 X228.87 Y186.703 E12.77537
G1 X228.523 Y187.366 E12.8151
G1 X228.108 Y187.989 E12.85483
G1 X227.629 Y188.563 E12.89452
G1 X227.092 Y189.084 E12.93424
G1 X226.502 Y189.543 E12.97392
G1 X225.866 Y189.938 E13.01366
G1 X225.192 Y190.262 E13.05336
G1 X224.487 Y190.512 E13.09306
G1 X223.759 Y190.686 E13.1328
G1 X223.017 Y190.781 E13.1725
G1 X222.5 Y190.8 E13.19997
G1 X192.5 Y190.8 E14.79246
G1 X191.753 Y190.76 E14.83217
G1 X190.8 Y190.606 E14.88342
G1 X190.8 Y193.5 E15.03704
G1 X190.76 Y194.247 E15.07675
G1 X190.641 Y194.985 E15.11643
G1 X190.443 Y195.707 E15.15617
G1 X190.17 Y196.403 E15.19586
G1 X189.823 Y197.066 E15.23558
G1 X189.408 Y197.689 E15.27532
G1 X188.929 Y198.263 E15.315
G1 X188.392 Y198.784 E15.35472
G1 X187.802 Y199.243 E15.3944
G1 X187.166 Y199.638 E15.43414
G1 X186.492 Y199.962 E15.47384
G1 X185.787 Y200.212 E15.51355
G1 X185.059 Y200.386 E15.55328
G1 X184.317 Y200.481 E15.59299
G1 X183.8 Y200.5 E15.62045
G1 X118.2 Y200.5 E19.10271
G1 X117.453 Y200.46 E19.14242
G1 X116.715 Y200.341 E19.1821
G1 X115.993 Y200.143 E19.22184
G1 X115.297 Y199.87 E19.26153
G1 X114.634 Y199.523 E19.30125
G1 X114.011 Y199.108 E19.34099
G1 X113.437 Y198.629 E19.38067
G1 X112.916 Y198.092 E19.42039
G1 X112.457 Y197.502 E19.46007
G1 X112.062 Y196.866 E19.49981
G1 X111.738 Y196.192 E19.53951
G1 X111.488 Y195.487 E19.57922
G1 X111.314 Y194.759 E19.61895
G1 X111.219 Y194.017 E19.65866
G1 X111.2 Y193.5 E19.68612
G1 X111.2 Y190.581 E19.84107
G1 X110.759 Y190.686 E19.86514
G1 X110.017 Y190.781 E19.90484
G1 X109.5 Y190.8 E19.93231
G1 X79.5 Y190.8 E21.5248
G1 X78.753 Y190.76 E21.56451
G1 X78.015 Y190.641 E21.60419
G1 X77.293 Y190.443 E21.64393
G1 X76.597 Y190.17 E21.68362
G1 X75.934 Y189.823 E21.72334
G1 X75.311 Y189.408 E21.76308
G1 X74.737 Y188.929 E21.80277
G1 X74.216 Y188.392 E21.84248
G1 X73.757 Y187.802 E21.88216
G1 X73.362 Y187.166 E21.92191
G1 X73.038 Y186.492 E21.9616
G1 X72.788 Y185.787 E22.00131
G1 X72.614 Y185.059 E22.04104
G1 X72.519 Y184.317 E22.08075
G1 X72.5 Y183.8 E22.10821
G1 X72.5 Y118.2 E25.59047
G1 X72.54 Y117.453 E25.63018
G1 X72.659 Y116.715 E25.66986
G1 X72.857 Y115.993 E25.7096
G1 X73.13 Y115.297 E25.74929
G1 X73.477 Y114.634 E25.78901
G1 X73.892 Y114.011 E25.82875
G1 X74.371 Y113.437 E25.86843
G1 X74.908 Y112.916 E25.90815
G1 X75.498 Y112.457 E25.94783
M204 S5000
M205 X10 Y10
G0 F6000 X76.038 Y112.77
M204 S1000
M205 X8 Y8
G1 F2400 X76.664 Y112.418 E25.98596
G1 X77.324 Y112.139 E26.02399
G1 X78.012 Y111.934 E26.0621
G1 X78.718 Y111.808 E26.10017
G1 X79.5 Y111.76 E26.14176
G1 X109.5 Y111.76 E27.73425
G1 X110.216 Y111.8 E27.77232
G1 X110.924 Y111.919 E27.81043
G1 X111.76 Y112.159 E27.8566
G1 X111.76 Y108.5 E28.05083
G1 X111.8 Y107.784 E28.0889
G1 X111.919 Y107.076 E28.12701
G1 X112.117 Y106.386 E28.16511
G1 X112.39 Y105.723 E28.20318
G1 X112.735 Y105.094 E28.24126
G1 X113.147 Y104.507 E28.27933
G1 X113.623 Y103.97 E28.31742
G1 X114.155 Y103.489 E28.35549
G1 X114.738 Y103.07 E28.3936
G1 X115.364 Y102.718 E28.43172
G1 X116.024 Y102.439 E28.46976
G1 X116.712 Y102.234 E28.50787
G1 X117.418 Y102.108 E28.54594
G1 X118.2 Y102.06 E28.58753
G1 X183.8 Y102.06 E32.06978
G1 X184.516 Y102.1 E32.10785
G1 X185.224 Y102.219 E32.14596
G1 X185.914 Y102.417 E32.18407
G1 X186.577 Y102.69 E32.22213
G1 X187.206 Y103.035 E32.26021
G1 X187.793 Y103.447 E32.29828
G1 X188.33 Y103.923 E32.33637
G1 X188.811 Y104.455 E32.37444
G1 X189.23 Y105.038 E32.41255
G1 X189.582 Y105.664 E32.45068
G1 X189.861 Y106.324 E32.48871
G1 X190.066 Y107.012 E32.52682
G1 X190.192 Y107.718 E32.56489
G1 X190.24 Y108.5 E32.60648
G1 X190.24 Y112.164 E32.80097
G1 X191.012 Y111.934 E32.84374
G1 X191.718 Y111.808 E32.8818
G1 X192.5 Y111.76 E32.92339
G1 X222.5 Y111.76 E34.51589
G1 X223.216 Y111.8 E34.55396
G1 X223.924 Y111.919 E34.59207
G1 X224.614 Y112.117 E34.63017
G1 X225.277 Y112.39 E34.66823
G1 X225.906 Y112.735 E34.70631
G1 X226.493 Y113.147 E34.74438
G1 X227.03 Y113.623 E34.78248
G1 X227.511 Y114.155 E34.82055
G1 X227.93 Y114.738 E34.85866
G1 X228.282 Y115.364 E34.89678
G1 X228.561 Y116.024 E34.93482
G1 X228.766 Y116.712 E34.97293
G1 X228.892 Y117.418 E35.01099
G1 X228.94 Y118.2 E35.05258
G1 X228.94 Y183.8 E38.53484
G1 X228.9 Y184.516 E38.57291
G1 X228.781 Y185.224 E38.61102
G1 X228.583 Y185.914 E38.64912
G1 X228.31 Y186.577 E38.68718
G1 X227.965 Y187.206 E38.72527
G1 X227.553 Y187.793 E38.76333
G1 X227.077 Y188.33 E38.80143
G1 X226.545 Y188.811 E38.8395
G1 X225.962 Y189.23 E38.87761
G1 X225.336 Y189.582 E38.91573
G1 X224.676 Y189.861 E38.95377
G1 X223.988 Y190.066 E38.99188
G1 X223.282 Y190.192 E39.02995
G1 X222.5 Y190.24 E39.07154
G1 X192.5 Y190.24 E40.66403
G1 X191.784 Y190.2 E40.7021
G1 X191.076 Y190.081 E40.74021
G1 X190.24 Y189.841 E40.78638
G1 X190.24 Y193.5 E40.98061
G1 X190.2 Y194.216 E41.01868
G1 X190.081 Y194.924 E41.05679
G1 X189.883 Y195.614 E41.09489
G1 X189.61 Y196.277 E41.13295
G1 X189.265 Y196.906 E41.17103
G1 X188.853 Y197.493 E41.2091
G1 X188.377 Y198.03 E41.2472
G1 X187.845 Y198.511 E41.28527
G1 X187.262 Y198.93 E41.32338
G1 X186.636 Y199.282 E41.3615
G1 X185.976 Y199.561 E41.39954
G1 X185.288 Y199.766 E41.43765
G1 X184.582 Y199.892 E41.47571
G1 X183.8 Y199.94 E41.5173
G1 X118.2 Y199.94 E44.99956
G1 X117.484 Y199.9 E45.03763
G1 X116.776 Y199.781 E45.07574
G1 X116.086 Y199.583 E45.11384
G1 X115.423 Y199.31 E45.1519
G1 X114.794 Y198.965 E45.18999
G1 X114.207 Y198.553 E45.22805
G1 X113.67 Y198.077 E45.26615
G1 X113.189 Y197.545 E45.30422
G1 X112.77 Y196.962 E45.34233
G1 X112.418 Y196.336 E45.38045
G1 X112.139 Y195.676 E45.41849
G1 X111.934 Y194.988 E45.4566
G1 X111.808 Y194.282 E45.49467
G1 X111.76 Y193.5 E45.53626
G1 X111.76 Y189.836 E45.73075
G1 X110.988 Y190.066 E45.77351
G1 X110.282 Y190.192 E45.81158
G1 X109.5 Y190.24 E45.85317
G1 X79.5 Y190.24 E47.44567
G1 X78.784 Y190.2 E47.48373
G1 X78.076 Y190.081 E47.52184
G1 X77.386 Y189.883 E47.55995
G1 X76.723 Y189.61 E47.59801
G1 X76.094 Y189.265 E47.63609
G1 X75.507 Y188.853 E47.67416
G1 X74.97 Y188.377 E47.71225
G1 X74.489 Y187.845 E47.75032
G1 X74.07 Y187.262 E47.78843
G1 X73.718 Y186.636 E47.82656
G1 X73.439 Y185.976 E47.86459
G1 X73.234 Y185.288 E47.9027
G1 X73.108 Y184.582 E47.94077
G1 X73.06 Y183.8 E47.98236
G1 X73.06 Y118.2 E51.46462
G1 X73.1 Y117.484 E51.50268
G1 X73.219 Y116.776 E51.54079
G1 X73.417 Y116.086 E51.5789
G1 X73.69 Y115.423 E51.61696
G1 X74.035 Y114.794 E51.65504
G1 X74.447 Y114.207 E51.69311
G1 X74.923 Y113.67 E51.7312
G1 X75.455 Y113.189 E51.76928
G1 X76.038 Y112.77 E51.80739
M204 S5000
M205 X10 Y10
G0 F6000 X76.574 Y113.1
M204 S1000
M205 X8 Y8
G1 F2400 X77.187 Y112.794 E51.84376
G1 X77.832 Y112.561 E51.88016
G1 X78.5 Y112.406 E51.91656
G1 X79.5 Y112.32 E51.96984
G1 X109.5 Y112.32 E53.56234
G1 X110.184 Y112.36 E53.59871
G1 X110.859 Y112.479 E53.63509
G1 X111.516 Y112.676 E53.6715
G1 X112.32 Y113.025 E53.71803
G1 X112.32 Y108.5 E53.95823
G1 X112.36 Y107.816 E53.9946
G1 X112.479 Y107.141 E54.03098
G1 X112.676 Y106.484 E54.06739
G1 X112.949 Y105.855 E54.10379
G1 X113.292 Y105.261 E54.1402
G1 X113.703 Y104.712 E54.17661
G1 X114.174 Y104.214 E54.21299
G1 X114.7 Y103.775 E54.24936
G1 X115.274 Y103.4 E54.28576
G1 X115.887 Y103.094 E54.32212
G1 X116.532 Y102.861 E54.35853
G1 X117.2 Y102.706 E54.39493
G1 X118.2 Y102.62 E54.44821
G1 X183.8 Y102.62 E57.93047
G1 X184.484 Y102.66 E57.96684
G1 X185.159 Y102.779 E58.00322
G1 X185.816 Y102.976 E58.03963
G1 X186.445 Y103.249 E58.07603
G1 X187.039 Y103.592 E58.11244
G1 X187.588 Y104.003 E58.14884
G1 X188.086 Y104.474 E58.18523
G1 X188.525 Y105 E58.2216
G1 X188.9 Y105.574 E58.25799
G1 X189.206 Y106.187 E58.29436
G1 X189.439 Y106.832 E58.33077
G1 X189.594 Y107.5 E58.36717
G1 X189.68 Y108.5 E58.42045
G1 X189.68 Y113.047 E58.66182
G1 X190.187 Y112.794 E58.6919
G1 X190.832 Y112.561 E58.7283
G1 X191.5 Y112.406 E58.7647
G1 X192.5 Y112.32 E58.81798
G1 X222.5 Y112.32 E60.41048
G1 X223.184 Y112.36 E60.44685
G1 X223.859 Y112.479 E60.48323
G1 X224.516 Y112.676 E60.51964
G1 X225.145 Y112.949 E60.55604
G1 X225.739 Y113.292 E60.59245
G1 X226.288 Y113.703 E60.62885
G1 X226.786 Y114.174 E60.66524
G1 X227.225 Y114.7 E60.70161
G1 X227.6 Y115.274 E60.738
G1 X227.906 Y115.887 E60.77437
G1 X228.139 Y116.532 E60.81078
G1 X228.294 Y117.2 E60.84718
G1 X228.38 Y118.2 E60.90046
G1 X228.38 Y183.8 E64.38271
G1 X228.34 Y184.484 E64.41909
G1 X228.221 Y185.159 E64.45547
G1 X228.024 Y185.816 E64.49188
G1 X227.751 Y186.445 E64.52828
G1 X227.408 Y187.039 E64.56469
G1 X226.997 Y187.588 E64.60109
G1 X226.526 Y188.086 E64.63748
G1 X226 Y188.525 E64.67385
G1 X225.426 Y188.9 E64.71024
G1 X224.813 Y189.206 E64.74661
G1 X224.168 Y189.439 E64.78302
G1 X223.5 Y189.594 E64.81942
G1 X222.5 Y189.68 E64.8727
G1 X192.5 Y189.68 E66.46519
G1 X191.816 Y189.64 E66.50156
G1 X191.141 Y189.521 E66.53795
G1 X190.484 Y189.324 E66.57436
G1 X189.68 Y188.975 E66.62088
G1 X189.68 Y193.5 E66.86108
G1 X189.64 Y194.184 E66.89746
G1 X189.521 Y194.859 E66.93384
G1 X189.324 Y195.516 E66.97025
G1 X189.051 Y196.145 E67.00665
G1 X188.708 Y196.739 E67.04306
G1 X188.297 Y197.288 E67.07946
G1 X187.826 Y197.786 E67.11585
G1 X187.3 Y198.225 E67.15222
G1 X186.726 Y198.6 E67.18861
G1 X186.113 Y198.906 E67.22498
G1 X185.468 Y199.139 E67.26139
G1 X184.8 Y199.294 E67.29779
G1 X183.8 Y199.38 E67.35107
G1 X118.2 Y199.38 E70.83332
G1 X117.516 Y199.34 E70.86969
G1 X116.841 Y199.221 E70.90608
G1 X116.184 Y199.024 E70.94249
G1 X115.555 Y198.751 E70.97889
G1 X114.961 Y198.408 E71.0153
G1 X114.412 Y197.997 E71.0517
G1 X113.914 Y197.526 E71.08809
G1 X113.475 Y197 E71.12446
G1 X113.1 Y196.426 E71.16085
G1 X112.794 Y195.813 E71.19722
G1 X112.561 Y195.168 E71.23363
G1 X112.406 Y194.5 E71.27003
G1 X112.32 Y193.5 E71.32331
G1 X112.32 Y188.953 E71.56468
G1 X111.813 Y189.206 E71.59475
G1 X111.168 Y189.439 E71.63116
G1 X110.5 Y189.594 E71.66756
G1 X109.5 Y189.68 E71.72084
G1 X79.5 Y189.68 E73.31333
G1 X78.816 Y189.64 E73.3497
G1 X78.141 Y189.521 E73.38609
G1 X77.484 Y189.324 E73.4225
G1 X76.855 Y189.051 E73.4589
G1 X76.261 Y188.708 E73.49531
G1 X75.712 Y188.297 E73.53171
G1 X75.214 Y187.826 E73.5681
G1 X74.775 Y187.3 E73.60447
G1 X74.4 Y186.726 E73.64086
G1 X74.094 Y186.113 E73.67723
G1 X73.861 Y185.468 E73.71364
G1 X73.706 Y184.8 E73.75004
G1 X73.62 Y183.8 E73.80332
G1 X73.62 Y118.2 E77.28557
G1 X73.66 Y117.516 E77.32194
G1 X73.779 Y116.841 E77.35833
G1 X73.976 Y116.184 E77.39474
G1 X74.249 Y115.555 E77.43114
G1 X74.592 Y114.961 E77.46755
G1 X75.003 Y114.412 E77.50395
G1 X75.474 Y113.914 E77.54034
G1 X76 Y113.475 E77.5767
G1 X76.574 Y113.1 E77.6131
M204 S5000
M205 X10 Y10
G0 F6000 X77.105 Y113.45
M204 S1000
M205 X8 Y8
G1 F2400 X77.704 Y113.192 E77.64772
G1 X78.33 Y113.01 E77.68233
G1 X78.974 Y112.906 E77.71696
G1 X79.5 Y112.88 E77.74491
G1 X109.5 Y112.88 E79.33741
G1 X110.151 Y112.92 E79.37203
G1 X110.792 Y113.039 E79.40664
G1 X111.414 Y113.236 E79.44127
G1 X112.006 Y113.507 E79.47583
G1 X112.562 Y113.849 E79.51048
G1 X112.88 Y114.104 E79.53212
G1 X112.88 Y108.5 E79.8296
G1 X112.92 Y107.849 E79.86422
G1 X113.039 Y107.208 E79.89883
G1 X113.236 Y106.586 E79.93346
G1 X113.507 Y105.994 E79.96802
G1 X113.849 Y105.438 E80.00268
G1 X114.257 Y104.929 E80.0373
G1 X114.723 Y104.473 E80.07191
G1 X115.242 Y104.078 E80.10654
G1 X115.805 Y103.75 E80.14112
G1 X116.404 Y103.492 E80.17574
G1 X117.03 Y103.31 E80.21035
G1 X117.674 Y103.206 E80.24498
G1 X118.2 Y103.18 E80.27293
G1 X183.8 Y103.18 E83.75519
G1 X184.451 Y103.22 E83.78981
G1 X185.092 Y103.339 E83.82442
G1 X185.714 Y103.536 E83.85905
G1 X186.306 Y103.807 E83.89362
G1 X186.862 Y104.149 E83.92827
G1 X187.371 Y104.557 E83.96289
G1 X187.827 Y105.023 E83.9975
G1 X188.222 Y105.542 E84.03213
G1 X188.55 Y106.105 E84.06671
G1 X188.808 Y106.704 E84.10134
G1 X188.99 Y107.33 E84.13594
G1 X189.094 Y107.974 E84.17057
G1 X189.12 Y108.5 E84.19853
G1 X189.12 Y114.099 E84.49574
G1 X189.542 Y113.778 E84.52388
G1 X190.105 Y113.45 E84.55847
G1 X190.704 Y113.192 E84.59309
G1 X191.33 Y113.01 E84.6277
G1 X191.974 Y112.906 E84.66233
G1 X192.5 Y112.88 E84.69028
G1 X222.5 Y112.88 E86.28278
G1 X223.151 Y112.92 E86.3174
G1 X223.792 Y113.039 E86.35201
G1 X224.414 Y113.236 E86.38664
G1 X225.006 Y113.507 E86.4212
G1 X225.562 Y113.849 E86.45585
G1 X226.071 Y114.257 E86.49048
G1 X226.527 Y114.723 E86.52509
G1 X226.922 Y115.242 E86.55971
G1 X227.25 Y115.805 E86.5943
G1 X227.508 Y116.404 E86.62892
G1 X227.69 Y117.03 E86.66353
G1 X227.794 Y117.674 E86.69816
G1 X227.82 Y118.2 E86.72611
G1 X227.82 Y183.8 E90.20837
G1 X227.78 Y184.451 E90.24299
G1 X227.661 Y185.092 E90.2776
G1 X227.464 Y185.714 E90.31223
G1 X227.193 Y186.306 E90.34679
G1 X226.851 Y186.862 E90.38145
G1 X226.443 Y187.371 E90.41607
G1 X225.977 Y187.827 E90.45068
G1 X225.458 Y188.222 E90.4853
G1 X224.895 Y188.55 E90.51989
G1 X224.296 Y188.808 E90.55451
G1 X223.67 Y188.99 E90.58912
G1 X223.026 Y189.094 E90.62375
G1 X222.5 Y189.12 E90.6517
G1 X192.5 Y189.12 E92.2442
G1 X191.849 Y189.08 E92.27882
G1 X191.208 Y188.961 E92.31343
G1 X190.586 Y188.764 E92.34806
G1 X189.994 Y188.493 E92.38262
G1 X189.438 Y188.151 E92.41728
G1 X189.12 Y187.896 E92.43891
G1 X189.12 Y193.5 E92.73639
G1 X189.08 Y194.151 E92.77101
G1 X188.961 Y194.792 E92.80562
G1 X188.764 Y195.414 E92.84026
G1 X188.493 Y196.006 E92.87482
G1 X188.151 Y196.562 E92.90947
G1 X187.743 Y197.071 E92.9441
G1 X187.277 Y197.527 E92.97871
G1 X186.758 Y197.922 E93.01333
G1 X186.195 Y198.25 E93.04791
G1 X185.596 Y198.508 E93.08254
G1 X184.97 Y198.69 E93.11714
G1 X184.326 Y198.794 E93.15177
G1 X183.8 Y198.82 E93.17973
G1 X118.2 Y198.82 E96.66198
G1 X117.549 Y198.78 E96.6966
G1 X116.908 Y198.661 E96.73121
G1 X116.286 Y198.464 E96.76585
G1 X115.694 Y198.193 E96.80041
G1 X115.138 Y197.851 E96.83506
